; generated by Slic3r 1.2.9 on 2017-08-14 at 10:18:14

; external perimeters extrusion width = 0.40mm
; perimeters extrusion width = 0.48mm
; infill extrusion width = 0.48mm
; solid infill extrusion width = 0.48mm
; top infill extrusion width = 0.48mm

M107
M190 S70 ; set bed temperature
M104 S240 ; set temperature
G21 ; set units to millimeters
G90 ; use absolute coordinates
M203 Z4; max speed min/sec
G1 Z20 F200;
G28 X F2000;
G1 X140 F2000;
G28 Y F2000;
G1 Y140 F2000;
G28 Z F200;
G1 Z5 F500 ; lift nozzle

M109 S240 ; wait for temperature to be reached
G21 ; set units to millimeters
G90 ; use absolute coordinates
M82 ; use absolute distances for extrusion
G92 E0
G1 Z0.200 F3600.000
G1 E-2.00000 F2400.00000
G92 E0
G1 X61.982 Y129.985 F3600.000
G1 E2.00000 F2400.00000
G1 X62.997 Y129.528 E2.08911 F900.000
G1 X63.474 Y129.347 E2.12990
G1 X64.537 Y129.015 E2.21901
G1 X65.032 Y128.893 E2.25982
G1 X66.128 Y128.693 E2.34892
G1 X66.634 Y128.631 E2.38972
G1 X67.745 Y128.564 E2.47881
G1 X68.255 Y128.564 E2.51959
G1 X69.367 Y128.631 E2.60873
G1 X69.873 Y128.693 E2.64952
G1 X70.968 Y128.893 E2.73862
G1 X71.463 Y129.015 E2.77942
G1 X72.526 Y129.347 E2.86853
G1 X73.003 Y129.527 E2.90931
G1 X74.018 Y129.985 E2.99843
G1 X74.470 Y130.222 E3.03923
G1 X75.423 Y130.798 E3.12834
G1 X75.805 Y131.062 E3.16553
G1 X76.195 Y131.062 E3.19669
G1 X76.577 Y130.798 E3.23388
G1 X77.530 Y130.221 E3.32299
G1 X77.982 Y129.985 E3.36379
G1 X78.997 Y129.528 E3.45290
G1 X79.474 Y129.347 E3.49368
G1 X80.537 Y129.015 E3.58280
G1 X81.032 Y128.893 E3.62360
G1 X82.128 Y128.693 E3.71271
G1 X82.634 Y128.631 E3.75351
G1 X83.745 Y128.564 E3.84259
G1 X84.255 Y128.564 E3.88338
G1 X85.367 Y128.631 E3.97251
G1 X85.873 Y128.693 E4.01331
G1 X86.968 Y128.893 E4.10241
G1 X87.463 Y129.015 E4.14320
G1 X88.526 Y129.347 E4.23231
G1 X89.003 Y129.527 E4.27310
G1 X90.018 Y129.985 E4.36222
G1 X90.470 Y130.222 E4.40302
G1 X91.423 Y130.798 E4.49212
G1 X91.805 Y131.062 E4.52931
G1 X92.195 Y131.062 E4.56048
G1 X92.577 Y130.798 E4.59766
G1 X93.530 Y130.221 E4.68678
G1 X93.982 Y129.985 E4.72757
G1 X94.997 Y129.528 E4.81668
G1 X95.474 Y129.347 E4.85747
G1 X96.537 Y129.015 E4.94658
G1 X97.032 Y128.893 E4.98739
G1 X98.128 Y128.693 E5.07650
G1 X98.634 Y128.631 E5.11729
G1 X99.745 Y128.564 E5.20638
G1 X100.255 Y128.564 E5.24716
G1 X101.367 Y128.631 E5.33630
G1 X101.873 Y128.693 E5.37709
G1 X102.968 Y128.893 E5.46619
G1 X103.463 Y129.015 E5.50699
G1 X104.526 Y129.347 E5.59610
G1 X105.003 Y129.527 E5.63689
G1 X106.018 Y129.985 E5.72600
G1 X106.470 Y130.222 E5.76680
G1 X107.423 Y130.798 E5.85591
G1 X107.805 Y131.062 E5.89310
G1 X108.195 Y131.062 E5.92426
G1 X108.577 Y130.798 E5.96145
G1 X109.530 Y130.221 E6.05056
G1 X109.982 Y129.985 E6.09136
G1 X110.997 Y129.528 E6.18047
G1 X111.474 Y129.347 E6.22126
G1 X112.537 Y129.015 E6.31037
G1 X113.032 Y128.893 E6.35118
G1 X114.128 Y128.693 E6.44028
G1 X114.634 Y128.631 E6.48108
G1 X115.745 Y128.564 E6.57017
G1 X116.255 Y128.564 E6.61095
G1 X117.367 Y128.631 E6.70009
G1 X117.873 Y128.693 E6.74088
G1 X118.968 Y128.893 E6.82998
G1 X119.463 Y129.015 E6.87078
G1 X120.526 Y129.347 E6.95989
G1 X121.003 Y129.527 E7.00067
G1 X122.018 Y129.985 E7.08979
G1 X122.470 Y130.222 E7.13059
G1 X123.423 Y130.798 E7.21970
G1 X123.805 Y131.062 E7.25689
G1 X124.195 Y131.062 E7.28805
G1 X124.577 Y130.798 E7.32524
G1 X125.530 Y130.221 E7.41435
G1 X125.982 Y129.985 E7.45515
G1 X126.997 Y129.528 E7.54426
G1 X127.474 Y129.347 E7.58504
G1 X128.537 Y129.015 E7.67416
G1 X129.032 Y128.893 E7.71496
G1 X130.128 Y128.693 E7.80407
G1 X130.634 Y128.631 E7.84487
G1 X131.745 Y128.564 E7.93395
G1 X132.544 Y128.582 E7.99793
G1 X133.367 Y128.631 E8.06385 F900.000
G1 X133.873 Y128.693 E8.10464
G1 X134.968 Y128.893 E8.19374
G1 X135.463 Y129.015 E8.23454
G1 X136.526 Y129.347 E8.32365
G1 X137.003 Y129.527 E8.36443
G1 X138.018 Y129.985 E8.45355
G1 X138.470 Y130.222 E8.49435
G1 X139.423 Y130.798 E8.58346
G1 X139.842 Y131.087 E8.62426
G1 X140.719 Y131.774 E8.71336
G1 X141.101 Y132.112 E8.75415
G1 X141.888 Y132.899 E8.84326
G1 X142.226 Y133.281 E8.88405
G1 X142.913 Y134.158 E8.97316
G1 X143.202 Y134.577 E9.01395
G1 X143.778 Y135.530 E9.10305
G1 X144.015 Y135.982 E9.14386
G1 X144.473 Y136.997 E9.23297
G1 X144.653 Y137.474 E9.27376
G1 X144.985 Y138.537 E9.36287
G1 X145.107 Y139.032 E9.40367
G1 X145.307 Y140.127 E9.49277
G1 X145.369 Y140.633 E9.53357
G1 X145.436 Y141.745 E9.62266
G1 X145.436 Y142.255 E9.66347
G1 X145.369 Y143.367 E9.75258
G1 X145.307 Y143.873 E9.79337
G1 X145.107 Y144.968 E9.88247
G1 X144.985 Y145.463 E9.92328
G1 X144.653 Y146.526 E10.01238
G1 X144.473 Y147.003 E10.05317
G1 X144.015 Y148.018 E10.14228
G1 X143.779 Y148.470 E10.18308
G1 X143.202 Y149.423 E10.27219
G1 X142.938 Y149.805 E10.30939
G1 X142.938 Y150.195 E10.34055
G1 X143.202 Y150.577 E10.37774
G1 X143.778 Y151.530 E10.46684
G1 X144.015 Y151.982 E10.50765
G1 X144.473 Y152.997 E10.59676
G1 X144.653 Y153.474 E10.63755
G1 X144.985 Y154.537 E10.72666
G1 X145.107 Y155.032 E10.76746
G1 X145.307 Y156.127 E10.85656
G1 X145.369 Y156.633 E10.89735
G1 X145.436 Y157.745 E10.98644
G1 X145.436 Y158.255 E11.02726
G1 X145.369 Y159.367 E11.11637
G1 X145.307 Y159.873 E11.15716
G1 X145.107 Y160.968 E11.24626
G1 X144.985 Y161.463 E11.28707
G1 X144.653 Y162.526 E11.37617
G1 X144.473 Y163.003 E11.41696
G1 X144.015 Y164.018 E11.50607
G1 X143.779 Y164.470 E11.54687
G1 X143.202 Y165.423 E11.63598
G1 X142.913 Y165.842 E11.67678
G1 X142.226 Y166.719 E11.76588
G1 X141.888 Y167.101 E11.80668
G1 X141.101 Y167.888 E11.89578
G1 X140.719 Y168.226 E11.93658
G1 X139.842 Y168.913 E12.02568
G1 X139.423 Y169.202 E12.06648
G1 X138.470 Y169.779 E12.15559
G1 X138.018 Y170.015 E12.19639
G1 X137.003 Y170.473 E12.28550
G1 X136.526 Y170.653 E12.32630
G1 X135.463 Y170.985 E12.41539
G1 X134.968 Y171.107 E12.45620
G1 X133.872 Y171.307 E12.54531
G1 X133.366 Y171.369 E12.58610
G1 X132.255 Y171.436 E12.67520
G1 X131.745 Y171.436 E12.71600
G1 X130.633 Y171.369 E12.80511
G1 X130.127 Y171.307 E12.84590
G1 X129.032 Y171.107 E12.93500
G1 X128.537 Y170.985 E12.97580
G1 X127.474 Y170.653 E13.06491
G1 X126.997 Y170.473 E13.10570
G1 X125.982 Y170.015 E13.19481
G1 X125.530 Y169.778 E13.23561
G1 X124.577 Y169.202 E13.32472
G1 X124.195 Y168.938 E13.36191
G1 X123.805 Y168.938 E13.39307
G1 X123.423 Y169.202 E13.43027
G1 X122.470 Y169.779 E13.51938
G1 X122.018 Y170.015 E13.56018
G1 X121.003 Y170.473 E13.64929
G1 X120.526 Y170.653 E13.69009
G1 X119.463 Y170.985 E13.77918
G1 X118.968 Y171.107 E13.81999
G1 X117.872 Y171.307 E13.90909
G1 X117.366 Y171.369 E13.94989
G1 X116.255 Y171.436 E14.03899
G1 X115.745 Y171.436 E14.07979
G1 X114.633 Y171.369 E14.16890
G1 X114.127 Y171.307 E14.20969
G1 X113.032 Y171.107 E14.29879
G1 X112.537 Y170.985 E14.33959
G1 X111.474 Y170.653 E14.42870
G1 X110.997 Y170.473 E14.46949
G1 X109.982 Y170.015 E14.55860
G1 X109.530 Y169.778 E14.59940
G1 X108.577 Y169.202 E14.68851
G1 X108.195 Y168.938 E14.72570
G1 X107.805 Y168.938 E14.75686
G1 X107.423 Y169.202 E14.79405
G1 X106.470 Y169.779 E14.88316
G1 X106.018 Y170.015 E14.92397
G1 X105.003 Y170.473 E15.01308
G1 X104.526 Y170.653 E15.05388
G1 X103.463 Y170.985 E15.14297
G1 X102.968 Y171.107 E15.18377
G1 X101.872 Y171.307 E15.27288
G1 X101.366 Y171.369 E15.31368
G1 X100.255 Y171.436 E15.40277
G1 X99.745 Y171.436 E15.44358
G1 X98.633 Y171.369 E15.53268
G1 X98.127 Y171.307 E15.57348
G1 X97.032 Y171.107 E15.66258
G1 X96.537 Y170.985 E15.70338
G1 X95.474 Y170.653 E15.79249
G1 X94.997 Y170.473 E15.83327
G1 X93.982 Y170.015 E15.92239
G1 X93.530 Y169.778 E15.96319
G1 X92.577 Y169.202 E16.05230
G1 X92.195 Y168.938 E16.08948
G1 X91.805 Y168.938 E16.12065
G1 X91.423 Y169.202 E16.15784
G1 X90.470 Y169.779 E16.24695
G1 X90.018 Y170.015 E16.28775
G1 X89.003 Y170.473 E16.37686
G1 X88.526 Y170.653 E16.41766
G1 X87.463 Y170.985 E16.50676
G1 X86.968 Y171.107 E16.54756
G1 X85.872 Y171.307 E16.63667
G1 X85.366 Y171.369 E16.67746
G1 X84.255 Y171.436 E16.76656
G1 X83.745 Y171.436 E16.80736
G1 X82.633 Y171.369 E16.89647
G1 X82.127 Y171.307 E16.93726
G1 X81.032 Y171.107 E17.02636
G1 X80.537 Y170.985 E17.06716
G1 X79.474 Y170.653 E17.15627
G1 X78.997 Y170.473 E17.19706
G1 X77.982 Y170.015 E17.28617
G1 X77.530 Y169.778 E17.32697
G1 X76.577 Y169.202 E17.41608
G1 X76.195 Y168.938 E17.45327
G1 X75.805 Y168.938 E17.48444
G1 X75.423 Y169.202 E17.52163
G1 X74.470 Y169.779 E17.61074
G1 X74.018 Y170.015 E17.65154
G1 X73.003 Y170.473 E17.74065
G1 X72.526 Y170.653 E17.78145
G1 X71.463 Y170.985 E17.87054
G1 X70.968 Y171.107 E17.91135
G1 X69.872 Y171.307 E18.00045
G1 X69.366 Y171.369 E18.04125
G1 X68.255 Y171.436 E18.13035
G1 X67.745 Y171.436 E18.17115
G1 X66.633 Y171.369 E18.26026
G1 X66.127 Y171.307 E18.30105
G1 X65.032 Y171.107 E18.39015
G1 X64.537 Y170.985 E18.43095
G1 X63.474 Y170.653 E18.52006
G1 X62.997 Y170.473 E18.56085
G1 X61.982 Y170.015 E18.64996
G1 X61.530 Y169.778 E18.69076
G1 X60.577 Y169.202 E18.77987
G1 X60.158 Y168.913 E18.82067
G1 X59.281 Y168.226 E18.90977
G1 X58.899 Y167.888 E18.95056
G1 X58.112 Y167.101 E19.03967
G1 X57.774 Y166.719 E19.08046
G1 X57.087 Y165.842 E19.16957
G1 X56.798 Y165.423 E19.21037
G1 X56.372 Y164.718 E19.27626
G1 X55.985 Y164.018 E19.34025
G1 X55.527 Y163.003 E19.42936
G1 X55.347 Y162.526 E19.47015
G1 X55.015 Y161.463 E19.55926
G1 X54.893 Y160.968 E19.60005
G1 X54.693 Y159.873 E19.68915
G1 X54.631 Y159.367 E19.72995
G1 X54.582 Y158.544 E19.79585
G1 X54.564 Y157.745 E19.85984
G1 X54.631 Y156.634 E19.94893
G1 X54.693 Y156.128 E19.98972
G1 X54.893 Y155.032 E20.07883
G1 X55.015 Y154.537 E20.11963
G1 X55.347 Y153.474 E20.20876
G1 X55.528 Y152.997 E20.24954
G1 X55.985 Y151.982 E20.33864
G1 X56.221 Y151.530 E20.37944
G1 X56.798 Y150.577 E20.46855
G1 X57.062 Y150.195 E20.50574
G1 X57.062 Y149.805 E20.53691
G1 X56.798 Y149.423 E20.57410
G1 X56.221 Y148.470 E20.66321
G1 X55.985 Y148.018 E20.70401
G1 X55.527 Y147.003 E20.79312
G1 X55.347 Y146.526 E20.83391
G1 X55.015 Y145.463 E20.92302
G1 X54.893 Y144.968 E20.96381
G1 X54.693 Y143.873 E21.05291
G1 X54.631 Y143.367 E21.09371
G1 X54.564 Y142.255 E21.18284
G1 X54.564 Y141.745 E21.22363
G1 X54.631 Y140.634 E21.31271
G1 X54.693 Y140.128 E21.35351
G1 X54.893 Y139.032 E21.44262
G1 X55.015 Y138.537 E21.48342
G1 X55.347 Y137.474 E21.57255
G1 X55.528 Y136.997 E21.61333
G1 X55.985 Y135.982 E21.70243
G1 X56.221 Y135.530 E21.74323
G1 X56.798 Y134.577 E21.83233
G1 X57.087 Y134.158 E21.87313
G1 X57.774 Y133.281 E21.96225
G1 X58.112 Y132.899 E22.00304
G1 X58.899 Y132.112 E22.09214
G1 X59.281 Y131.774 E22.13292
G1 X60.158 Y131.087 E22.22204
G1 X60.577 Y130.798 E22.26283
G1 X61.530 Y130.221 E22.35194
G1 X61.929 Y130.012 E22.38794
G1 X62.255 Y130.547 F3600.000
G1 X63.236 Y130.105 E22.47403 F900.000
G1 X63.678 Y129.938 E22.51179
G1 X64.705 Y129.618 E22.59789
G1 X65.163 Y129.505 E22.63567
G1 X66.222 Y129.311 E22.72175
G1 X66.690 Y129.254 E22.75953
G1 X67.764 Y129.189 E22.84560
G1 X68.236 Y129.189 E22.88336
G1 X69.310 Y129.254 E22.96947
G1 X69.779 Y129.311 E23.00724
G1 X70.837 Y129.505 E23.09332
G1 X71.295 Y129.618 E23.13110
G1 X72.322 Y129.938 E23.21718
G1 X72.763 Y130.105 E23.25495
G1 X73.745 Y130.547 E23.34104
G1 X74.163 Y130.766 E23.37882
G1 X75.083 Y131.323 E23.46491
G1 X75.472 Y131.591 E23.50268
G1 X75.784 Y131.836 E23.53445
G1 X76.216 Y131.836 E23.56896
G1 X76.528 Y131.591 E23.60073
G1 X76.917 Y131.323 E23.63850
G1 X77.837 Y130.766 E23.72459
G1 X78.255 Y130.547 E23.76236
G1 X79.236 Y130.105 E23.84845
G1 X79.678 Y129.938 E23.88622
G1 X80.705 Y129.618 E23.97231
G1 X81.163 Y129.505 E24.01009
G1 X82.222 Y129.311 E24.09618
G1 X82.690 Y129.254 E24.13395
G1 X83.764 Y129.189 E24.22002
G1 X84.236 Y129.189 E24.25778
G1 X85.310 Y129.254 E24.34389
G1 X85.779 Y129.311 E24.38167
G1 X86.837 Y129.505 E24.46774
G1 X87.295 Y129.618 E24.50552
G1 X88.322 Y129.938 E24.59161
G1 X88.763 Y130.105 E24.62937
G1 X89.745 Y130.547 E24.71546
G1 X90.163 Y130.766 E24.75324
G1 X91.083 Y131.323 E24.83933
G1 X91.472 Y131.591 E24.87711
G1 X91.784 Y131.836 E24.90887
G1 X92.216 Y131.836 E24.94338
G1 X92.528 Y131.591 E24.97515
G1 X92.917 Y131.323 E25.01292
G1 X93.837 Y130.766 E25.09901
G1 X94.255 Y130.547 E25.13679
G1 X95.236 Y130.105 E25.22287
G1 X95.678 Y129.938 E25.26064
G1 X96.705 Y129.618 E25.34673
G1 X97.163 Y129.505 E25.38451
G1 X98.222 Y129.311 E25.47060
G1 X98.690 Y129.254 E25.50837
G1 X99.764 Y129.189 E25.59444
G1 X100.236 Y129.189 E25.63220
G1 X101.310 Y129.254 E25.71832
G1 X101.779 Y129.311 E25.75609
G1 X102.837 Y129.505 E25.84217
G1 X103.295 Y129.618 E25.87994
G1 X104.322 Y129.938 E25.96603
G1 X104.763 Y130.105 E26.00380
G1 X105.745 Y130.547 E26.08989
G1 X106.163 Y130.766 E26.12767
G1 X107.083 Y131.323 E26.21375
G1 X107.472 Y131.591 E26.25153
G1 X107.784 Y131.836 E26.28329
G1 X108.216 Y131.836 E26.31780
G1 X108.528 Y131.591 E26.34957
G1 X108.917 Y131.323 E26.38734
G1 X109.837 Y130.766 E26.47343
G1 X110.255 Y130.547 E26.51121
G1 X111.236 Y130.105 E26.59730
G1 X111.678 Y129.938 E26.63506
G1 X112.705 Y129.618 E26.72116
G1 X113.163 Y129.505 E26.75894
G1 X114.222 Y129.311 E26.84502
G1 X114.690 Y129.254 E26.88280
G1 X115.764 Y129.189 E26.96886
G1 X116.236 Y129.189 E27.00663
G1 X117.310 Y129.254 E27.09274
G1 X117.779 Y129.311 E27.13051
G1 X118.837 Y129.505 E27.21659
G1 X119.295 Y129.618 E27.25436
G1 X120.322 Y129.938 E27.34045
G1 X120.763 Y130.105 E27.37822
G1 X121.745 Y130.547 E27.46431
G1 X122.163 Y130.766 E27.50209
G1 X123.083 Y131.323 E27.58818
G1 X123.472 Y131.591 E27.62595
G1 X123.784 Y131.836 E27.65772
G1 X124.216 Y131.836 E27.69223
G1 X124.528 Y131.591 E27.72400
G1 X124.917 Y131.323 E27.76177
G1 X125.837 Y130.766 E27.84786
G1 X126.255 Y130.547 E27.88563
G1 X127.236 Y130.105 E27.97172
G1 X127.678 Y129.938 E28.00949
G1 X128.705 Y129.618 E28.09558
G1 X129.163 Y129.505 E28.13336
G1 X130.222 Y129.311 E28.21945
G1 X130.690 Y129.254 E28.25722
G1 X131.764 Y129.189 E28.34329
G1 X132.236 Y129.189 E28.38105
G1 X133.310 Y129.254 E28.46716 F900.000
G1 X133.779 Y129.311 E28.50493
G1 X134.837 Y129.505 E28.59101
G1 X135.295 Y129.618 E28.62879
G1 X136.322 Y129.938 E28.71488
G1 X137.011 Y130.216 E28.77432
G1 X137.745 Y130.547 E28.83871
G1 X138.163 Y130.766 E28.87649
G1 X139.083 Y131.323 E28.96257
G1 X139.472 Y131.591 E29.00035
G1 X140.319 Y132.254 E29.08643
G1 X140.672 Y132.567 E29.12420
G1 X141.433 Y133.328 E29.21029
G1 X141.746 Y133.681 E29.24806
G1 X142.242 Y134.315 E29.31244
G1 X142.677 Y134.917 E29.37189
G1 X143.234 Y135.837 E29.45797
G1 X143.453 Y136.255 E29.49575
G1 X143.895 Y137.236 E29.58185
G1 X144.062 Y137.678 E29.61961
G1 X144.382 Y138.705 E29.70570
G1 X144.495 Y139.163 E29.74348
G1 X144.689 Y140.221 E29.82956
G1 X144.746 Y140.690 E29.86733
G1 X144.811 Y141.764 E29.95340
G1 X144.811 Y142.236 E29.99119
G1 X144.746 Y143.310 E30.07728
G1 X144.689 Y143.778 E30.11505
G1 X144.495 Y144.837 E30.20113
G1 X144.382 Y145.295 E30.23891
G1 X144.062 Y146.322 E30.32499
G1 X143.895 Y146.763 E30.36276
G1 X143.453 Y147.745 E30.44885
G1 X143.234 Y148.163 E30.48663
G1 X142.677 Y149.083 E30.57272
G1 X142.409 Y149.472 E30.61049
G1 X142.164 Y149.784 E30.64226
G1 X142.164 Y150.216 E30.67677
G1 X142.409 Y150.528 E30.70854
G1 X142.677 Y150.917 E30.74632
G1 X143.234 Y151.837 E30.83239
G1 X143.453 Y152.255 E30.87018
G1 X143.895 Y153.236 E30.95627
G1 X144.062 Y153.678 E30.99403
G1 X144.382 Y154.705 E31.08012
G1 X144.495 Y155.163 E31.11790
G1 X144.689 Y156.221 E31.20398
G1 X144.746 Y156.690 E31.24175
G1 X144.811 Y157.764 E31.32782
G1 X144.811 Y158.236 E31.36561
G1 X144.746 Y159.310 E31.45170
G1 X144.689 Y159.778 E31.48947
G1 X144.495 Y160.837 E31.57555
G1 X144.382 Y161.295 E31.61333
G1 X144.062 Y162.322 E31.69941
G1 X143.895 Y162.763 E31.73719
G1 X143.453 Y163.745 E31.82327
G1 X143.234 Y164.163 E31.86105
G1 X142.677 Y165.083 E31.94714
G1 X142.409 Y165.472 E31.98491
G1 X141.746 Y166.319 E32.07100
G1 X141.433 Y166.672 E32.10877
G1 X140.672 Y167.433 E32.19486
G1 X140.319 Y167.746 E32.23263
G1 X139.472 Y168.409 E32.31871
G1 X139.083 Y168.677 E32.35649
G1 X138.163 Y169.234 E32.44258
G1 X137.745 Y169.453 E32.48035
G1 X136.763 Y169.895 E32.56644
G1 X136.322 Y170.062 E32.60422
G1 X135.295 Y170.382 E32.69029
