; generated by Slic3r 1.2.9 on 2017-08-11 at 11:16:52

; external perimeters extrusion width = 0.40mm
; perimeters extrusion width = 0.48mm
; infill extrusion width = 0.48mm
; solid infill extrusion width = 0.48mm
; top infill extrusion width = 0.48mm

M107
M190 S70 ; set bed temperature
M104 S240 ; set temperature
G21 ; set units to millimeters
G90 ; use absolute coordinates
M203 Z4; max speed min/sec
G1 Z20 F200;
G28 X F2000;
G1 X140 F2000;
G28 Y F2000;
G1 Y140 F2000;
G28 Z F200;
G1 Z5 F500 ; lift nozzle

M109 S240 ; wait for temperature to be reached
G21 ; set units to millimeters
G90 ; use absolute coordinates
M82 ; use absolute distances for extrusion
G92 E0
G1 Z0.200 F3600.000
G1 E-2.00000 F2400.00000
G92 E0
G1 X67.213 Y114.079 F3600.000
G1 E2.00000 F2400.00000
G1 X67.851 Y113.711 E2.06028 F900.000
G1 X68.755 Y113.289 E2.14192
G1 X69.448 Y113.037 E2.20223
G1 X70.412 Y112.779 E2.28390
G1 X71.137 Y112.651 E2.34420
G1 X72.316 Y112.564 E2.44092
G1 X80.349 Y112.564 E3.09829
G1 X89.544 Y112.564 E3.85083 F900.000
G1 X90.606 Y112.634 E3.93789
G1 X91.260 Y112.738 E3.99213
G1 X92.134 Y112.948 E4.06564
G1 X92.764 Y113.153 E4.11990
G1 X93.594 Y113.497 E4.19341
G1 X94.185 Y113.797 E4.24765
G1 X94.951 Y114.267 E4.32117
G1 X95.487 Y114.656 E4.37542
G1 X96.287 Y115.357 E4.46246
G1 X134.643 Y153.713 E8.90153
G1 X135.344 Y154.513 E8.98856
G1 X135.733 Y155.049 E9.04282
G1 X136.203 Y155.815 E9.11635
G1 X136.504 Y156.406 E9.17058
G1 X136.847 Y157.236 E9.24410
G1 X137.052 Y157.866 E9.29835
G1 X137.262 Y158.739 E9.37177
G1 X137.365 Y159.394 E9.42608
G1 X137.436 Y160.456 E9.51315
G1 X137.436 Y177.684 E10.92306
G1 X137.420 Y178.052 E10.95319
G1 X137.349 Y178.863 E11.01985
G1 X137.221 Y179.588 E11.08009
G1 X136.963 Y180.552 E11.16173
G1 X136.711 Y181.244 E11.22204
G1 X136.289 Y182.149 E11.30376
G1 X135.921 Y182.787 E11.36401
G1 X135.348 Y183.604 E11.44567
G1 X134.875 Y184.169 E11.50598
G1 X134.168 Y184.875 E11.58775
G1 X133.604 Y185.348 E11.64798
G1 X132.787 Y185.921 E11.72965
G1 X132.149 Y186.289 E11.78992
G1 X131.245 Y186.711 E11.87158
G1 X130.552 Y186.963 E11.93188
G1 X129.588 Y187.221 E12.01360
G1 X128.862 Y187.349 E12.07386
G1 X127.684 Y187.436 E12.17055
G1 X72.316 Y187.436 E16.70170
G1 X71.137 Y187.349 E16.79842
G1 X70.412 Y187.221 E16.85870
G1 X69.448 Y186.963 E16.94036
G1 X68.756 Y186.711 E17.00066
G1 X67.851 Y186.289 E17.08237
G1 X67.213 Y185.921 E17.14264
G1 X66.396 Y185.348 E17.22428
G1 X65.831 Y184.875 E17.28459
G1 X65.125 Y184.169 E17.36633
G1 X64.652 Y183.604 E17.42659
G1 X64.079 Y182.787 E17.50825
G1 X63.711 Y182.149 E17.56854
G1 X63.289 Y181.244 E17.65022
G1 X63.037 Y180.552 E17.71050
G1 X62.779 Y179.588 E17.79220
G1 X62.651 Y178.863 E17.85247
G1 X62.564 Y177.684 E17.94919
G1 X62.564 Y122.316 E22.48033
G1 X62.651 Y121.137 E22.57706
G1 X62.779 Y120.412 E22.63733
G1 X63.037 Y119.448 E22.71902
G1 X63.289 Y118.756 E22.77929
G1 X63.711 Y117.851 E22.86097
G1 X64.079 Y117.213 E22.92125
G1 X64.652 Y116.395 E23.00294
G1 X65.125 Y115.831 E23.06322
G1 X65.831 Y115.125 E23.14491
G1 X66.395 Y114.652 E23.20520
G1 X67.164 Y114.114 E23.28197
G1 X67.549 Y114.607 F3600.000
G1 X68.140 Y114.266 E23.33779 F900.000
G1 X68.995 Y113.867 E23.41497
G1 X69.636 Y113.634 E23.47081
G1 X70.547 Y113.390 E23.54801
G1 X71.219 Y113.271 E23.60385
G1 X72.330 Y113.189 E23.69499
G1 X89.839 Y113.201 E25.12787 F900.000
G1 X90.532 Y113.256 E25.18481
G1 X91.138 Y113.352 E25.23504
G1 X91.964 Y113.550 E25.30453
G1 X92.548 Y113.739 E25.35476
G1 X93.332 Y114.064 E25.42426
G1 X93.879 Y114.343 E25.47448
G1 X94.603 Y114.787 E25.54399
G1 X95.100 Y115.148 E25.59421
G1 X95.854 Y115.808 E25.67623
G1 X134.401 Y154.371 E30.13838
G1 X134.852 Y154.900 E30.19530
G1 X135.213 Y155.397 E30.24554
G1 X135.657 Y156.121 E30.31504
G1 X135.936 Y156.668 E30.36526
G1 X136.261 Y157.452 E30.43477
G1 X136.450 Y158.036 E30.48499
G1 X136.648 Y158.861 E30.55440
G1 X136.744 Y159.468 E30.60469
G1 X136.811 Y160.468 E30.68673
G1 X136.811 Y177.670 E32.09453
G1 X136.729 Y178.782 E32.18571
G1 X136.610 Y179.453 E32.24150
G1 X136.366 Y180.364 E32.31867
G1 X136.133 Y181.005 E32.37451
G1 X135.734 Y181.861 E32.45177
G1 X135.393 Y182.451 E32.50755
G1 X134.852 Y183.224 E32.58475
G1 X134.414 Y183.746 E32.64059
G1 X133.746 Y184.414 E32.71788
G1 X133.224 Y184.852 E32.77365
G1 X132.451 Y185.393 E32.85086
G1 X131.860 Y185.734 E32.90666
G1 X131.005 Y186.133 E32.98386
G1 X130.364 Y186.366 E33.03969
G1 X129.452 Y186.611 E33.11694
G1 X128.781 Y186.729 E33.17275
G1 X127.671 Y186.811 E33.26385
G1 X72.330 Y186.811 E37.79278
G1 X71.219 Y186.729 E37.88391
G1 X70.547 Y186.610 E37.93973
G1 X69.636 Y186.366 E38.01692
G1 X68.995 Y186.133 E38.07276
G1 X68.140 Y185.734 E38.15000
G1 X67.549 Y185.393 E38.20581
G1 X66.776 Y184.852 E38.28299
G1 X66.254 Y184.414 E38.33883
G1 X65.586 Y183.746 E38.41610
G1 X65.148 Y183.224 E38.47189
G1 X64.607 Y182.451 E38.54909
G1 X64.266 Y181.860 E38.60491
G1 X63.867 Y181.005 E38.68213
G1 X63.634 Y180.364 E38.73795
G1 X63.390 Y179.453 E38.81517
G1 X63.271 Y178.781 E38.87098
G1 X63.189 Y177.670 E38.96213
G1 X63.189 Y122.330 E43.49103
G1 X63.271 Y121.219 E43.58218
G1 X63.390 Y120.547 E43.63799
G1 X63.634 Y119.636 E43.71521
G1 X63.867 Y118.995 E43.77102
G1 X64.266 Y118.140 E43.84823
G1 X64.607 Y117.549 E43.90405
G1 X65.148 Y116.776 E43.98127
G1 X65.586 Y116.254 E44.03708
G1 X66.254 Y115.586 E44.11431
G1 X66.776 Y115.148 E44.17013
G1 X67.500 Y114.641 E44.24244
G1 X67.885 Y115.134 F3600.000
G1 X68.429 Y114.821 E44.29379 F900.000
G1 X69.234 Y114.445 E44.36651
G1 X69.824 Y114.230 E44.41788
G1 X70.682 Y114.000 E44.49062
G1 X71.301 Y113.891 E44.54199
G1 X72.030 Y113.827 E44.60191
G1 X72.343 Y113.814 E44.62757
G1 X89.802 Y113.825 E46.05632
G1 X90.459 Y113.877 E46.11024 F900.000
G1 X91.016 Y113.965 E46.15645
G1 X91.794 Y114.152 E46.22193
G1 X92.331 Y114.326 E46.26814
G1 X93.071 Y114.632 E46.33362
G1 X93.574 Y114.889 E46.37982
G1 X94.256 Y115.307 E46.44531
G1 X94.713 Y115.639 E46.49152
G1 X95.421 Y116.258 E46.56852
G1 X133.742 Y154.579 E51.00357
G1 X134.361 Y155.287 E51.08056
G1 X134.693 Y155.744 E51.12678
G1 X135.111 Y156.426 E51.19227
G1 X135.368 Y156.929 E51.23847
G1 X135.559 Y157.393 E51.27949
G1 X135.674 Y157.669 E51.30395
G1 X135.848 Y158.206 E51.35016
G1 X136.035 Y158.983 E51.41556
G1 X136.123 Y159.541 E51.46182
G1 X136.175 Y160.198 E51.51575
G1 X136.186 Y177.657 E52.94452
G1 X136.109 Y178.700 E53.03011
G1 X136.000 Y179.317 E53.08144
G1 X135.770 Y180.176 E53.15415
G1 X135.555 Y180.766 E53.20552
G1 X135.179 Y181.572 E53.27831
G1 X134.866 Y182.115 E53.32963
G1 X134.356 Y182.843 E53.40236
G1 X133.952 Y183.324 E53.45374
G1 X133.323 Y183.953 E53.52656
G1 X132.843 Y184.356 E53.57787
G1 X132.115 Y184.866 E53.65061
G1 X131.571 Y185.179 E53.70195
G1 X130.766 Y185.555 E53.77468
G1 X130.176 Y185.770 E53.82605
G1 X129.317 Y186.000 E53.89883
G1 X128.699 Y186.109 E53.95017
G1 X127.657 Y186.186 E54.03570
G1 X72.343 Y186.186 E58.56239
G1 X71.301 Y186.109 E58.64794
G1 X70.683 Y186.000 E58.69930
G1 X69.824 Y185.770 E58.77203
G1 X69.234 Y185.555 E58.82340
G1 X68.428 Y185.179 E58.89617
G1 X67.885 Y184.866 E58.94751
G1 X67.157 Y184.356 E59.02023
G1 X66.676 Y183.952 E59.07161
G1 X66.047 Y183.323 E59.14440
G1 X65.644 Y182.843 E59.19574
G1 X65.134 Y182.115 E59.26847
G1 X64.821 Y181.571 E59.31982
G1 X64.445 Y180.766 E59.39258
G1 X64.230 Y180.176 E59.44393
G1 X64.000 Y179.317 E59.51669
G1 X63.891 Y178.699 E59.56803
G1 X63.814 Y177.657 E59.65360
G1 X63.814 Y122.343 E64.18027
G1 X63.891 Y121.300 E64.26584
G1 X64.000 Y120.683 E64.31718
G1 X64.230 Y119.824 E64.38994
G1 X64.445 Y119.234 E64.44128
G1 X64.821 Y118.429 E64.51403
G1 X65.134 Y117.885 E64.56538
G1 X65.644 Y117.157 E64.63814
G1 X66.048 Y116.676 E64.68948
G1 X66.676 Y116.048 E64.76224
G1 X67.157 Y115.644 E64.81360
G1 X67.836 Y115.169 E64.88145
G1 X68.221 Y115.662 F3600.000
G1 X68.717 Y115.375 E64.92833 F900.000
G1 X69.473 Y115.023 E64.99658
G1 X70.012 Y114.827 E65.04349
G1 X70.818 Y114.611 E65.11176
G1 X71.382 Y114.511 E65.15867
G1 X72.071 Y114.451 E65.21524
G1 X89.508 Y114.439 E66.64220
G1 X90.385 Y114.498 E66.71418 F900.000
G1 X90.894 Y114.578 E66.75638
G1 X91.625 Y114.754 E66.81783
G1 X92.115 Y114.913 E66.86003
G1 X92.809 Y115.200 E66.92149
G1 X93.268 Y115.434 E66.96367
G1 X93.909 Y115.827 E67.02514
G1 X94.326 Y116.130 E67.06733
G1 X94.988 Y116.709 E67.13931
G1 X133.291 Y155.012 E71.57235
G1 X133.870 Y155.674 E71.64432
G1 X134.173 Y156.092 E71.68652
G1 X134.566 Y156.732 E71.74799
G1 X134.800 Y157.191 E71.79017
G1 X134.982 Y157.632 E71.82918
G1 X135.087 Y157.885 E71.85164
G1 X135.246 Y158.375 E71.89383
G1 X135.422 Y159.105 E71.95522
G1 X135.502 Y159.615 E71.99745
G1 X135.551 Y160.235 E72.04837
G1 X135.561 Y177.643 E73.47301
G1 X135.489 Y178.618 E73.55302
G1 X135.389 Y179.182 E73.59988
G1 X135.173 Y179.988 E73.66813
G1 X134.977 Y180.526 E73.71504
G1 X134.624 Y181.283 E73.78336
G1 X134.338 Y181.779 E73.83022
G1 X133.860 Y182.462 E73.89848
G1 X133.491 Y182.901 E73.94539
G1 X132.901 Y183.492 E74.01374
G1 X132.462 Y183.860 E74.06059
G1 X131.779 Y184.338 E74.12887
G1 X131.283 Y184.625 E74.17574
G1 X130.527 Y184.977 E74.24401
G1 X129.988 Y185.173 E74.29091
G1 X129.182 Y185.389 E74.35922
G1 X128.618 Y185.489 E74.40610
G1 X127.643 Y185.561 E74.48605
G1 X72.357 Y185.561 E79.01051
G1 X71.382 Y185.489 E79.09048
G1 X70.818 Y185.389 E79.13737
G1 X70.012 Y185.173 E79.20564
G1 X69.474 Y184.977 E79.25254
G1 X68.717 Y184.624 E79.32085
G1 X68.221 Y184.338 E79.36772
G1 X67.538 Y183.860 E79.43598
G1 X67.099 Y183.491 E79.48289
G1 X66.509 Y182.901 E79.55121
G1 X66.140 Y182.462 E79.59809
G1 X65.662 Y181.779 E79.66635
G1 X65.375 Y181.283 E79.71324
G1 X65.023 Y180.526 E79.78153
G1 X64.827 Y179.988 E79.82842
G1 X64.611 Y179.182 E79.89671
G1 X64.511 Y178.618 E79.94359
G1 X64.439 Y177.643 E80.02357
G1 X64.439 Y122.357 E84.54801
G1 X64.511 Y121.382 E84.62801
G1 X64.611 Y120.818 E84.67488
G1 X64.827 Y120.012 E84.74317
G1 X65.023 Y119.474 E84.79005
G1 X65.375 Y118.717 E84.85833
G1 X65.662 Y118.221 E84.90522
G1 X66.141 Y117.538 E84.97351
G1 X66.509 Y117.099 E85.02039
G1 X67.099 Y116.509 E85.08869
G1 X67.538 Y116.140 E85.13558
G1 X68.172 Y115.696 E85.19896
G1 X68.557 Y116.189 F3600.000
G1 X69.006 Y115.930 E85.24137 F900.000
G1 X69.713 Y115.601 E85.30517
G1 X70.200 Y115.423 E85.34761
G1 X70.953 Y115.222 E85.41142
G1 X71.464 Y115.132 E85.45385
G1 X72.112 Y115.075 E85.50707
G1 X89.728 Y115.073 E86.94875
G1 X90.312 Y115.119 E86.99664 F900.000
G1 X90.772 Y115.192 E87.03482
G1 X91.455 Y115.355 E87.09225
G1 X91.899 Y115.500 E87.13043
G1 X92.547 Y115.768 E87.18787
G1 X92.963 Y115.980 E87.22604
G1 X93.561 Y116.347 E87.28349
G1 X93.938 Y116.621 E87.32166
G1 X94.555 Y117.159 E87.38862
G1 X132.841 Y155.445 E91.81965
G1 X133.379 Y156.062 E91.88660
G1 X133.653 Y156.439 E91.92478
G1 X134.020 Y157.038 E91.98223
G1 X134.232 Y157.453 E92.02040
G1 X134.405 Y157.871 E92.05740
G1 X134.500 Y158.102 E92.07784
G1 X134.645 Y158.545 E92.11602
G1 X134.808 Y159.227 E92.17339
G1 X134.881 Y159.688 E92.21161
G1 X134.927 Y160.272 E92.25951
G1 X134.936 Y177.630 E93.68002
G1 X134.868 Y178.536 E93.75445
G1 X134.778 Y179.047 E93.79684
G1 X134.577 Y179.800 E93.86063
G1 X134.399 Y180.287 E93.90307
G1 X134.070 Y180.994 E93.96692
G1 X133.811 Y181.443 E94.00932
G1 X133.363 Y182.081 E94.07312
G1 X133.030 Y182.479 E94.11556
G1 X132.478 Y183.031 E94.17944
G1 X132.081 Y183.363 E94.22183
G1 X131.443 Y183.811 E94.28564
G1 X130.994 Y184.070 E94.32805
G1 X130.287 Y184.399 E94.39185
G1 X129.800 Y184.577 E94.43429
G1 X129.046 Y184.779 E94.49813
G1 X128.536 Y184.868 E94.54055
G1 X127.630 Y184.936 E94.61492
G1 X72.370 Y184.936 E99.13715
G1 X71.464 Y184.868 E99.21154
G1 X70.953 Y184.778 E99.25397
G1 X70.200 Y184.577 E99.31777
G1 X69.713 Y184.399 E99.36020
G1 X69.006 Y184.070 E99.42404
G1 X68.557 Y183.811 E99.46645
G1 X67.919 Y183.363 E99.53025
G1 X67.521 Y183.030 E99.57269
G1 X66.970 Y182.478 E99.63654
G1 X66.637 Y182.081 E99.67895
G1 X66.189 Y181.443 E99.74275
G1 X65.930 Y180.994 E99.78518
G1 X65.601 Y180.287 E99.84900
G1 X65.423 Y179.800 E99.89142
G1 X65.222 Y179.047 E99.95525
G1 X65.132 Y178.536 E99.99766
G1 X65.064 Y177.629 E100.07207
G1 X65.064 Y122.370 E104.59428
G1 X65.132 Y121.464 E104.66869
G1 X65.222 Y120.953 E104.71110
G1 X65.423 Y120.200 E104.77492
G1 X65.601 Y119.713 E104.81734
G1 X65.930 Y119.006 E104.88116
G1 X66.189 Y118.557 E104.92358
G1 X66.637 Y117.918 E104.98740
G1 X66.970 Y117.521 E105.02982
G1 X67.521 Y116.970 E105.09365
G1 X67.919 Y116.637 E105.13607
G1 X68.508 Y116.224 E105.19498
G1 X68.893 Y116.717 F3600.000
G1 X69.295 Y116.485 E105.23294 F900.000
G1 X69.952 Y116.179 E105.29227
G1 X70.388 Y116.020 E105.33024
G1 X71.089 Y115.832 E105.38958
G1 X71.545 Y115.752 E105.42755
G1 X72.153 Y115.699 E105.47742
G1 X89.483 Y115.688 E106.89568
G1 X90.238 Y115.740 E106.95763 F900.000
G1 X90.650 Y115.805 E106.99178
G1 X91.285 Y115.957 E107.04520
G1 X91.682 Y116.086 E107.07936
G1 X92.285 Y116.336 E107.13278
G1 X92.657 Y116.526 E107.16693
G1 X93.214 Y116.867 E107.22036
G1 X93.551 Y117.112 E107.25451
G1 X94.121 Y117.610 E107.31645
G1 X132.390 Y155.879 E111.74548
G1 X132.888 Y156.449 E111.80741
G1 X133.133 Y156.786 E111.84157
G1 X133.474 Y157.343 E111.89500
G1 X133.664 Y157.715 E111.92915
G1 X133.914 Y158.318 E111.98258
G1 X134.043 Y158.715 E112.01673
G1 X134.195 Y159.349 E112.07009
G1 X134.260 Y159.762 E112.10429
G1 X134.303 Y160.308 E112.14917
G1 X134.301 Y177.847 E113.58450
G1 X134.248 Y178.455 E113.63440
G1 X134.168 Y178.911 E113.67233
G1 X133.980 Y179.612 E113.73166
G1 X133.821 Y180.048 E113.76963
G1 X133.515 Y180.705 E113.82901
G1 X133.283 Y181.107 E113.86695
G1 X132.867 Y181.701 E113.92628
G1 X132.569 Y182.056 E113.96426
G1 X132.056 Y182.569 E114.02366
G1 X131.701 Y182.867 E114.06159
G1 X131.107 Y183.283 E114.12094
G1 X130.705 Y183.515 E114.15888
G1 X130.048 Y183.821 E114.21822
G1 X129.612 Y183.980 E114.25619
G1 X128.911 Y184.168 E114.31557
G1 X128.454 Y184.248 E114.35351
G1 X127.616 Y184.312 E114.42231
G1 X72.384 Y184.312 E118.94231
G1 X71.546 Y184.248 E119.01112
G1 X71.089 Y184.168 E119.04908
G1 X70.388 Y183.980 E119.10842
G1 X69.952 Y183.821 E119.14639
G1 X69.295 Y183.515 E119.20576
G1 X68.893 Y183.283 E119.24371
G1 X68.299 Y182.867 E119.30304
G1 X67.944 Y182.569 E119.34101
G1 X67.431 Y182.056 E119.40040
G1 X67.133 Y181.701 E119.43834
G1 X66.717 Y181.107 E119.49768
G1 X66.485 Y180.705 E119.53564
G1 X66.179 Y180.048 E119.59499
G1 X66.020 Y179.612 E119.63295
G1 X65.832 Y178.911 E119.69231
G1 X65.752 Y178.454 E119.73026
G1 X65.688 Y177.616 E119.79909
G1 X65.688 Y122.384 E124.31906
G1 X65.752 Y121.545 E124.38789
G1 X65.832 Y121.089 E124.42584
G1 X66.020 Y120.388 E124.48520
G1 X66.179 Y119.952 E124.52315
G1 X66.485 Y119.295 E124.58250
G1 X66.717 Y118.893 E124.62046
G1 X67.133 Y118.299 E124.67982
G1 X67.431 Y117.944 E124.71777
G1 X67.944 Y117.431 E124.77713
G1 X68.299 Y117.133 E124.81509
G1 X68.844 Y116.751 E124.86954
G1 X69.230 Y117.244 F3600.000
G1 X69.584 Y117.040 E124.90302 F900.000
G1 X70.192 Y116.757 E124.95789
G1 X70.576 Y116.616 E124.99140
G1 X71.224 Y116.443 E125.04628
G1 X71.627 Y116.372 E125.07978
G1 X72.193 Y116.322 E125.12630
G1 X89.655 Y116.321 E126.55526
G1 X90.165 Y116.361 E126.59713 F900.000
G1 X90.528 Y116.418 E126.62727
G1 X91.115 Y116.559 E126.67667
G1 X91.466 Y116.673 E126.70681
G1 X92.023 Y116.904 E126.75621
G1 X92.351 Y117.071 E126.78634
G1 X92.866 Y117.387 E126.83575
G1 X93.164 Y117.603 E126.86589
G1 X93.688 Y118.060 E126.92280
G1 X131.940 Y156.312 E131.34982
G1 X132.397 Y156.836 E131.40673
G1 X132.613 Y157.134 E131.43687
G1 X132.929 Y157.649 E131.48629
G1 X133.096 Y157.977 E131.51642
G1 X133.327 Y158.534 E131.56582
G1 X133.441 Y158.885 E131.59596
G1 X133.582 Y159.471 E131.64531
G1 X133.639 Y159.835 E131.67548
G1 X133.679 Y160.345 E131.71735
G1 X133.678 Y177.807 E133.14633
G1 X133.628 Y178.373 E133.19287
G1 X133.557 Y178.776 E133.22634
G1 X133.384 Y179.423 E133.28120
G1 X133.244 Y179.808 E133.31471
G1 X132.960 Y180.416 E133.36962
G1 X132.755 Y180.771 E133.40309
G1 X132.371 Y181.320 E133.45797
G1 X132.108 Y181.633 E133.49147
G1 X131.633 Y182.108 E133.54641
G1 X131.320 Y182.371 E133.57987
