; generated by Slic3r 1.2.9 on 2017-07-22 at 22:45:40

; external perimeters extrusion width = 0.40mm
; perimeters extrusion width = 0.48mm
; infill extrusion width = 0.48mm
; solid infill extrusion width = 0.48mm
; top infill extrusion width = 0.48mm

M107
M190 S70 ; set bed temperature
M104 S240 ; set temperature
G21 ; set units to millimeters
G90 ; use absolute coordinates
M203 Z4; max speed min/sec
G1 Z20 F200;
G28 X F2000;
G1 X140 F2000;
G28 Y F2000;
G1 Y140 F2000;
G28 Z F200;
G1 Z5 F500 ; lift nozzle

M109 S240 ; wait for temperature to be reached
G21 ; set units to millimeters
G90 ; use absolute coordinates
M82 ; use absolute distances for extrusion
G92 E0
G1 Z0.200 F3600.000
G1 E-2.00000 F2400.00000
G92 E0
G1 X75.322 Y137.942 F3600.000
G1 E2.00000 F2400.00000
G1 X75.900 Y137.656 E2.04986 F900.000
G1 X76.230 Y137.517 E2.07752
G1 X77.224 Y137.150 E2.15943
G1 X77.620 Y137.030 E2.19137
G1 X78.764 Y136.769 E2.28208
G1 X79.679 Y136.636 E2.35355
G1 X80.897 Y136.564 E2.44782
G1 X93.310 Y136.569 E3.40727
G1 X94.321 Y136.636 E3.48556 F900.000
G1 X94.958 Y136.719 E3.53523
G1 X96.094 Y136.958 E3.62495
G1 X96.857 Y137.176 E3.68628
G1 X97.691 Y137.485 E3.75504
G1 X98.391 Y137.794 E3.81417
G1 X99.265 Y138.263 E3.89077
G1 X99.827 Y138.596 E3.94129
G1 X100.173 Y138.596 E3.96803
G1 X101.391 Y137.905 E4.07625
G1 X101.900 Y137.656 E4.12007
G1 X102.983 Y137.236 E4.20980
G1 X103.620 Y137.030 E4.26155
G1 X104.764 Y136.769 E4.35226
G1 X105.361 Y136.671 E4.39901
G1 X106.424 Y136.583 E4.48145
G1 X106.897 Y136.564 E4.51802
G1 X119.103 Y136.564 E5.46149
G1 X120.321 Y136.636 E5.55575
G1 X121.236 Y136.769 E5.62723
G1 X122.409 Y137.037 E5.72019
G1 X122.857 Y137.176 E5.75648
G1 X124.074 Y137.644 E5.85721
G1 X124.609 Y137.905 E5.90328
G1 X125.265 Y138.263 E5.96097
G1 X125.690 Y138.513 E5.99911
G1 X126.048 Y138.754 E6.03252
G1 X126.807 Y139.321 E6.10566
G1 X127.126 Y139.583 E6.13764
G1 X128.051 Y140.477 E6.23703
G1 X128.411 Y140.867 E6.27803
G1 X128.662 Y141.171 E6.30855
G1 X129.262 Y141.975 E6.38607
G1 X129.492 Y142.319 E6.41806
G1 X129.737 Y142.735 E6.45541
G1 X130.206 Y143.609 E6.53202
G1 X130.483 Y144.230 E6.58459
G1 X130.763 Y144.982 E6.64664
G1 X130.971 Y145.623 E6.69866
G1 X131.042 Y145.906 E6.72124
G1 X131.231 Y146.764 E6.78914
G1 X131.329 Y147.360 E6.83583
G1 X131.431 Y148.689 E6.93885
G1 X131.431 Y151.311 E7.14149
G1 X131.329 Y152.640 E7.24452
G1 X131.231 Y153.236 E7.29121
G1 X131.072 Y153.966 E7.34892
G1 X130.964 Y154.405 E7.38388
G1 X130.824 Y154.856 E7.42037
G1 X130.357 Y156.073 E7.52117
G1 X130.095 Y156.609 E7.56728
G1 X129.737 Y157.265 E7.62497
G1 X129.487 Y157.689 E7.66302
G1 X129.246 Y158.048 E7.69648
G1 X128.679 Y158.806 E7.76965
G1 X128.417 Y159.127 E7.80167
G1 X128.051 Y159.523 E7.84335
G1 X127.133 Y160.411 E7.94201
G1 X126.216 Y161.120 E8.03165
G1 X125.681 Y161.492 E8.08195
G1 X124.610 Y162.095 E8.17703
G1 X124.100 Y162.344 E8.22091
G1 X122.776 Y162.850 E8.33038
G1 X122.094 Y163.042 E8.38521
G1 X121.236 Y163.231 E8.45309
G1 X120.321 Y163.364 E8.52452
G1 X119.104 Y163.436 E8.61881
G1 X106.897 Y163.436 E9.56229
G1 X105.679 Y163.364 E9.65656
G1 X104.764 Y163.231 E9.72801
G1 X103.593 Y162.963 E9.82086
G1 X103.144 Y162.824 E9.85723
G1 X102.308 Y162.515 E9.92605
G1 X101.609 Y162.206 E9.98516
G1 X100.735 Y161.737 E10.06178
G1 X100.173 Y161.404 E10.11230
G1 X99.827 Y161.404 E10.13903
G1 X99.265 Y161.738 E10.18955
G1 X98.392 Y162.206 E10.26610
G1 X97.770 Y162.483 E10.31873
G1 X96.776 Y162.850 E10.40059
G1 X96.094 Y163.042 E10.45541
G1 X94.958 Y163.281 E10.54513
G1 X94.321 Y163.364 E10.59473
G1 X93.576 Y163.417 E10.65246
G1 X93.104 Y163.436 E10.68903
G1 X80.690 Y163.431 E11.64850
G1 X79.679 Y163.364 E11.72679
G1 X79.042 Y163.281 E11.77640
G1 X77.906 Y163.042 E11.86612
G1 X77.144 Y162.824 E11.92745
G1 X76.308 Y162.515 E11.99627
G1 X75.609 Y162.206 E12.05538
G1 X74.588 Y161.653 E12.14511
G1 X73.952 Y161.246 E12.20344
G1 X73.193 Y160.679 E12.27668
G1 X72.627 Y160.193 E12.33433
G1 X71.806 Y159.373 E12.42404
G1 X71.338 Y158.829 E12.47950
G1 X70.738 Y158.025 E12.55705
G1 X70.347 Y157.412 E12.61325
G1 X69.794 Y156.391 E12.70298
G1 X69.517 Y155.770 E12.75553
G1 X69.150 Y154.775 E12.83751
G1 X69.029 Y154.377 E12.86963
G1 X68.769 Y153.236 E12.96010
G1 X68.636 Y152.321 E13.03158
G1 X68.564 Y151.103 E13.12584
G1 X68.564 Y148.897 E13.29641
G1 X68.583 Y148.424 E13.33298
G1 X68.671 Y147.361 E13.41537
G1 X68.769 Y146.764 E13.46217
G1 X69.037 Y145.593 E13.55501
G1 X69.176 Y145.144 E13.59137
G1 X69.644 Y143.926 E13.69214
G1 X69.905 Y143.391 E13.73822
G1 X70.513 Y142.310 E13.83406
G1 X70.754 Y141.952 E13.86745
G1 X71.321 Y141.193 E13.94060
G1 X71.806 Y140.627 E13.99825
G1 X72.627 Y139.806 E14.08797
G1 X73.171 Y139.338 E14.14344
G1 X73.975 Y138.738 E14.22099
G1 X74.319 Y138.508 E14.25300
G1 X75.269 Y137.971 E14.33733
G1 X75.622 Y138.491 F3600.000
G1 X76.155 Y138.226 E14.38337 F900.000
G1 X76.461 Y138.098 E14.40897
G1 X77.420 Y137.744 E14.48803
G1 X77.786 Y137.632 E14.51761
G1 X78.887 Y137.382 E14.60481
G1 X79.735 Y137.259 E14.67110
G1 X80.904 Y137.189 E14.76160
G1 X93.096 Y137.189 E15.70389
G1 X94.264 Y137.259 E15.79438 F900.000
G1 X94.856 Y137.335 E15.84049
G1 X95.947 Y137.566 E15.92666
G1 X96.655 Y137.768 E15.98357
G1 X97.466 Y138.068 E16.05045
G1 X98.116 Y138.355 E16.10532
G1 X99.095 Y138.886 E16.19143
G1 X99.809 Y139.346 E16.25707
G1 X100.189 Y139.347 E16.28643
G1 X100.904 Y138.886 E16.35218
G1 X101.884 Y138.355 E16.43837
G1 X102.461 Y138.098 E16.48713
G1 X103.420 Y137.744 E16.56619
G1 X104.053 Y137.566 E16.61699
G1 X105.144 Y137.335 E16.70316
G1 X105.735 Y137.259 E16.74926
G1 X106.713 Y137.194 E16.82496
G1 X119.096 Y137.189 E17.78205
G1 X120.264 Y137.259 E17.87255
G1 X121.113 Y137.382 E17.93885
G1 X122.240 Y137.639 E18.02814
G1 X122.655 Y137.768 E18.06174
G1 X123.466 Y138.068 E18.12862
G1 X123.820 Y138.215 E18.15823
G1 X124.318 Y138.458 E18.20102
G1 X125.354 Y139.041 E18.29295
G1 X125.687 Y139.264 E18.32388
G1 X126.422 Y139.813 E18.39482
G1 X126.718 Y140.056 E18.42442
G1 X127.086 Y140.397 E18.46317
G1 X127.938 Y141.275 E18.55775
G1 X128.619 Y142.157 E18.64383
G1 X128.964 Y142.654 E18.69059
G1 X129.542 Y143.682 E18.78179
G1 X129.902 Y144.461 E18.84809
G1 X130.257 Y145.421 E18.92718
G1 X130.368 Y145.789 E18.95693
G1 X130.665 Y147.144 E19.06412
G1 X130.741 Y147.735 E19.11020
G1 X130.798 Y148.551 E19.17344
G1 X130.811 Y151.096 E19.37011
G1 X130.741 Y152.265 E19.46062
G1 X130.618 Y153.113 E19.52690
G1 X130.362 Y154.236 E19.61590
G1 X130.232 Y154.654 E19.64969
G1 X129.932 Y155.466 E19.71665
G1 X129.785 Y155.820 E19.74625
G1 X129.542 Y156.318 E19.78906
G1 X128.960 Y157.354 E19.88091
G1 X128.736 Y157.686 E19.91190
G1 X127.943 Y158.718 E20.01249
G1 X127.603 Y159.086 E20.05120
G1 X126.725 Y159.938 E20.14576
G1 X126.442 Y160.170 E20.17403
G1 X125.665 Y160.751 E20.24900
G1 X125.095 Y161.114 E20.30124
G1 X124.318 Y161.542 E20.36983
G1 X123.539 Y161.902 E20.43614
G1 X122.580 Y162.256 E20.51515
G1 X122.214 Y162.368 E20.54476
G1 X121.113 Y162.618 E20.63198
G1 X120.560 Y162.709 E20.67534
G1 X119.535 Y162.793 E20.75480
G1 X119.096 Y162.811 E20.78878
G1 X106.904 Y162.811 E21.73108
G1 X105.735 Y162.741 E21.82158
G1 X104.887 Y162.618 E21.88786
G1 X103.762 Y162.361 E21.97704
G1 X103.346 Y162.232 E22.01072
G1 X102.533 Y161.932 E22.07765
G1 X102.179 Y161.785 E22.10733
G1 X101.682 Y161.542 E22.15003
G1 X100.904 Y161.114 E22.21870
G1 X100.191 Y160.654 E22.28428
G1 X99.811 Y160.653 E22.31364
G1 X99.095 Y161.114 E22.37943
G1 X98.116 Y161.645 E22.46549
G1 X97.539 Y161.902 E22.51434
G1 X96.580 Y162.256 E22.59335
G1 X95.946 Y162.435 E22.64424
G1 X94.856 Y162.665 E22.73040
G1 X94.265 Y162.741 E22.77645
G1 X93.535 Y162.793 E22.83299
G1 X93.096 Y162.811 E22.86697
G1 X80.713 Y162.806 E23.82408
G1 X79.735 Y162.741 E23.89978
G1 X79.144 Y162.665 E23.94584
G1 X78.054 Y162.435 E24.03200
G1 X77.346 Y162.232 E24.08891
G1 X76.533 Y161.932 E24.15585
G1 X75.884 Y161.645 E24.21070
G1 X74.904 Y161.114 E24.29687
G1 X74.314 Y160.736 E24.35100
G1 X73.578 Y160.186 E24.42202
G1 X73.052 Y159.736 E24.47553
G1 X72.264 Y158.947 E24.56168
G1 X71.830 Y158.443 E24.61316
G1 X71.249 Y157.665 E24.68818
G1 X70.886 Y157.096 E24.74034
G1 X70.355 Y156.116 E24.82651
G1 X70.098 Y155.539 E24.87529
G1 X69.743 Y154.579 E24.95440
G1 X69.632 Y154.211 E24.98415
G1 X69.382 Y153.113 E25.07113
G1 X69.259 Y152.264 E25.13744
G1 X69.189 Y151.096 E25.22793
G1 X69.189 Y148.904 E25.39731
G1 X69.207 Y148.465 E25.43130
G1 X69.291 Y147.441 E25.51067
G1 X69.382 Y146.887 E25.55413
G1 X69.639 Y145.762 E25.64330
G1 X69.768 Y145.346 E25.67697
G1 X70.215 Y144.180 E25.77349
G1 X70.458 Y143.682 E25.81627
G1 X71.041 Y142.645 E25.90822
G1 X71.264 Y142.313 E25.93914
G1 X71.814 Y141.578 E26.01009
G1 X72.264 Y141.053 E26.06359
G1 X73.053 Y140.264 E26.14975
G1 X73.557 Y139.830 E26.20123
G1 X74.335 Y139.249 E26.27626
G1 X74.654 Y139.036 E26.30589
G1 X75.569 Y138.519 E26.38710
G1 X75.921 Y139.039 F3600.000
G1 X76.691 Y138.678 E26.45284 F900.000
G1 X77.616 Y138.337 E26.52904
G1 X77.953 Y138.235 E26.55625
G1 X79.246 Y137.952 E26.65853
G1 X79.792 Y137.881 E26.70107
G1 X80.506 Y137.830 E26.75641
G1 X80.912 Y137.814 E26.78781
G1 X93.264 Y137.818 E27.74253
G1 X94.208 Y137.881 E27.81564 F900.000
G1 X94.754 Y137.952 E27.85820
G1 X95.800 Y138.173 E27.94080
G1 X96.453 Y138.360 E27.99329
G1 X97.241 Y138.652 E28.05829
G1 X97.567 Y138.786 E28.08554
G1 X98.026 Y139.010 E28.12503
G1 X99.019 Y139.569 E28.21308
G1 X99.792 Y140.123 E28.28659
G1 X100.208 Y140.123 E28.31874
G1 X100.988 Y139.564 E28.39296
G1 X101.974 Y139.010 E28.48032
G1 X102.691 Y138.678 E28.54143
G1 X103.616 Y138.337 E28.61763
G1 X104.200 Y138.173 E28.66451
G1 X105.246 Y137.952 E28.74712
G1 X105.792 Y137.881 E28.78966
G1 X106.586 Y137.825 E28.85120
G1 X119.088 Y137.814 E29.81749
G1 X119.494 Y137.830 E29.84889
G1 X120.208 Y137.881 E29.90422
G1 X120.754 Y137.952 E29.94677
G1 X121.800 Y138.173 E30.02938
G1 X122.453 Y138.360 E30.08187
G1 X123.241 Y138.652 E30.14687
G1 X123.841 Y138.916 E30.19748
G1 X125.019 Y139.569 E30.30163
G1 X125.325 Y139.774 E30.33009
G1 X126.037 Y140.306 E30.39882
G1 X126.650 Y140.844 E30.46181
G1 X127.465 Y141.684 E30.55229
G1 X128.240 Y142.695 E30.65072
G1 X128.647 Y143.345 E30.71001
G1 X128.990 Y143.974 E30.76534
G1 X129.203 Y144.411 E30.80295
G1 X129.663 Y145.617 E30.90271
G1 X129.827 Y146.200 E30.94955
G1 X130.005 Y147.009 E31.01357
G1 X130.119 Y147.792 E31.07467
G1 X130.186 Y148.912 E31.16140
G1 X130.175 Y151.414 E31.35483
G1 X130.089 Y152.480 E31.43746
G1 X130.005 Y152.991 E31.47748
G1 X129.827 Y153.800 E31.54149
G1 X129.641 Y154.452 E31.59390
G1 X129.348 Y155.241 E31.65898
G1 X129.084 Y155.841 E31.70961
G1 X128.432 Y157.019 E31.81367
G1 X128.226 Y157.325 E31.84218
G1 X127.470 Y158.310 E31.93819
G1 X127.156 Y158.650 E31.97394
G1 X126.316 Y159.465 E32.06440
G1 X125.305 Y160.240 E32.16283
G1 X124.780 Y160.575 E32.21103
G1 X124.027 Y160.990 E32.27746
G1 X123.309 Y161.322 E32.33860
G1 X122.384 Y161.663 E32.41476
G1 X122.047 Y161.765 E32.44200
G1 X120.991 Y162.005 E32.52571
G1 X120.480 Y162.089 E32.56573
G1 X119.088 Y162.186 E32.67355
G1 X106.912 Y162.186 E33.61466
G1 X105.792 Y162.119 E33.70139
G1 X105.009 Y162.005 E33.76250
G1 X103.930 Y161.760 E33.84802
G1 X103.548 Y161.641 E33.87900
G1 X102.758 Y161.348 E33.94405
G1 X102.159 Y161.084 E33.99464
G1 X101.220 Y160.575 E34.07726
G1 X100.676 Y160.226 E34.12719
G1 X100.208 Y159.877 E34.17233
G1 X99.792 Y159.877 E34.20448
G1 X99.305 Y160.240 E34.25142
G1 X98.780 Y160.575 E34.29962
G1 X97.841 Y161.084 E34.38213
G1 X97.309 Y161.322 E34.42721
G1 X96.384 Y161.663 E34.50336
G1 X96.047 Y161.765 E34.53060
G1 X94.991 Y162.005 E34.61432
G1 X94.208 Y162.119 E34.67541
G1 X93.088 Y162.186 E34.76215
G1 X80.736 Y162.182 E35.71689
G1 X79.792 Y162.119 E35.79000
G1 X79.246 Y162.048 E35.83251
G1 X78.201 Y161.827 E35.91511
G1 X77.548 Y161.641 E35.96760
G1 X76.758 Y161.348 E36.03265
G1 X76.159 Y161.084 E36.08325
G1 X75.220 Y160.575 E36.16586
G1 X74.676 Y160.226 E36.21580
G1 X73.962 Y159.694 E36.28461
G1 X73.478 Y159.278 E36.33397
G1 X72.722 Y158.522 E36.41656
G1 X72.321 Y158.056 E36.46405
G1 X71.760 Y157.305 E36.53654
G1 X71.425 Y156.780 E36.58466
G1 X70.916 Y155.840 E36.66727
G1 X70.678 Y155.309 E36.71228
G1 X70.337 Y154.383 E36.78853
G1 X70.234 Y154.044 E36.81590
G1 X69.995 Y152.991 E36.89939
G1 X69.881 Y152.208 E36.96053
G1 X69.814 Y151.088 E37.04725
G1 X69.814 Y148.912 E37.21545
G1 X69.911 Y147.521 E37.32318
G1 X69.995 Y147.009 E37.36330
G1 X70.240 Y145.930 E37.44880
G1 X70.359 Y145.548 E37.47978
G1 X70.786 Y144.433 E37.57205
G1 X71.010 Y143.974 E37.61154
G1 X71.569 Y142.980 E37.69961
G1 X71.774 Y142.675 E37.72805
G1 X72.306 Y141.962 E37.79679
G1 X72.722 Y141.478 E37.84614
G1 X73.478 Y140.722 E37.92875
G1 X73.944 Y140.321 E37.97624
G1 X74.695 Y139.760 E38.04873
G1 X74.988 Y139.564 E38.07600
G1 X75.868 Y139.068 E38.15408
G1 X76.220 Y139.588 F3600.000
G1 X76.922 Y139.259 E38.21395 F900.000
G1 X77.812 Y138.931 E38.28730
G1 X78.120 Y138.837 E38.31214
G1 X79.348 Y138.568 E38.40930
G1 X79.848 Y138.504 E38.44828
G1 X80.547 Y138.454 E38.50244
G1 X80.920 Y138.439 E38.53125
G1 X93.080 Y138.439 E39.47117
G1 X94.152 Y138.504 E39.55412 F900.000
G1 X94.652 Y138.568 E39.59312
G1 X95.653 Y138.780 E39.67217
G1 X96.251 Y138.951 E39.72024
G1 X97.314 Y139.358 E39.80822
G1 X97.735 Y139.563 E39.84442
G1 X98.350 Y139.899 E39.89856
G1 X98.963 Y140.284 E39.95455
G1 X99.795 Y140.904 E40.03472
G1 X100.209 Y140.903 E40.06675
G1 X101.055 Y140.271 E40.14837
G1 X101.650 Y139.899 E40.20263
G1 X102.666 Y139.368 E40.29122
G1 X103.620 Y138.999 E40.37027
G1 X104.120 Y138.837 E40.41089
G1 X105.132 Y138.608 E40.49108
G1 X105.848 Y138.504 E40.54703
G1 X106.620 Y138.449 E40.60684
G1 X119.080 Y138.439 E41.56990
G1 X119.453 Y138.454 E41.59871
G1 X120.152 Y138.504 E41.65286
G1 X120.652 Y138.568 E41.69186
G1 X121.653 Y138.780 E41.77091
G1 X122.251 Y138.951 E41.81897
G1 X123.016 Y139.235 E41.88209
G1 X123.565 Y139.477 E41.92845
G1 X124.684 Y140.096 E42.02731
G1 X125.653 Y140.799 E42.11980
G1 X126.214 Y141.291 E42.17746
G1 X126.992 Y142.093 E42.26383
G1 X127.729 Y143.055 E42.35748
G1 X128.101 Y143.650 E42.41176
G1 X128.633 Y144.666 E42.50036
G1 X129.070 Y145.813 E42.59521
G1 X129.220 Y146.347 E42.63813
G1 X129.392 Y147.132 E42.70020
G1 X129.496 Y147.848 E42.75614
G1 X129.561 Y148.919 E42.83910
G1 X129.551 Y151.380 E43.02929
G1 X129.469 Y152.400 E43.10836
G1 X129.392 Y152.868 E43.14504
G1 X129.220 Y153.653 E43.20712
G1 X129.049 Y154.250 E43.25512
G1 X128.765 Y155.016 E43.31830
G1 X128.523 Y155.565 E43.36468
G1 X127.904 Y156.684 E43.46346
G1 X127.716 Y156.963 E43.48949
G1 X126.997 Y157.902 E43.58092
G1 X126.709 Y158.214 E43.61370
G1 X125.907 Y158.992 E43.70007
G1 X124.945 Y159.729 E43.79371
G1 X124.464 Y160.036 E43.83786
G1 X123.735 Y160.437 E43.90214
G1 X123.078 Y160.741 E43.95811
G1 X122.188 Y161.069 E44.03142
G1 X121.880 Y161.163 E44.05629
G1 X120.868 Y161.392 E44.13649
G1 X120.400 Y161.469 E44.17317
G1 X119.081 Y161.561 E44.27539
G1 X106.920 Y161.561 E45.21532
G1 X105.601 Y161.469 E45.31750
G1 X105.132 Y161.392 E45.35421
G1 X104.099 Y161.158 E45.43606
G1 X103.750 Y161.049 E45.46435
G1 X102.685 Y160.642 E45.55243
G1 X102.265 Y160.437 E45.58856
G1 X101.317 Y159.905 E45.67257
G1 X101.037 Y159.717 E45.69866
G1 X100.205 Y159.096 E45.77887
G1 X99.791 Y159.097 E45.81090
G1 X98.945 Y159.729 E45.89250
G1 X98.678 Y159.907 E45.91735
G1 X97.735 Y160.437 E46.00093
G1 X97.078 Y160.741 E46.05690
G1 X96.188 Y161.069 E46.13021
G1 X95.880 Y161.163 E46.15508
G1 X94.868 Y161.392 E46.23528
G1 X94.152 Y161.496 E46.29121
G1 X93.081 Y161.561 E46.37418
G1 X80.920 Y161.561 E47.31411
G1 X79.601 Y161.469 E47.41629
G1 X79.132 Y161.392 E47.45300
G1 X78.099 Y161.158 E47.53485
G1 X77.750 Y161.049 E47.56314
G1 X76.685 Y160.642 E47.65122
G1 X76.265 Y160.437 E47.68735
G1 X75.317 Y159.905 E47.77136
G1 X75.037 Y159.717 E47.79745
G1 X74.098 Y158.996 E47.88892
G1 X73.786 Y158.709 E47.92169
G1 X73.008 Y157.907 E48.00802
G1 X72.384 Y157.098 E48.08706
G1 X72.092 Y156.677 E48.12661
G1 X71.563 Y155.735 E48.21014
G1 X71.368 Y155.334 E48.24460
G1 X70.999 Y154.380 E48.32364
G1 X70.837 Y153.878 E48.36446
