; generated by Slic3r 1.2.9 on 2017-07-22 at 22:36:21

; external perimeters extrusion width = 0.40mm
; perimeters extrusion width = 0.48mm
; infill extrusion width = 0.48mm
; solid infill extrusion width = 0.48mm
; top infill extrusion width = 0.48mm

M107
M190 S70 ; set bed temperature
M104 S240 ; set temperature
G21 ; set units to millimeters
G90 ; use absolute coordinates
M203 Z4; max speed min/sec
G1 Z20 F200;
G28 X F2000;
G1 X140 F2000;
G28 Y F2000;
G1 Y140 F2000;
G28 Z F200;
G1 Z5 F500 ; lift nozzle

M109 S240 ; wait for temperature to be reached
G21 ; set units to millimeters
G90 ; use absolute coordinates
M82 ; use absolute distances for extrusion
G92 E0
G1 Z0.200 F3600.000
G1 E-2.00000 F2400.00000
G92 E0
G1 X76.695 Y39.793 F3600.000
G1 E2.00000 F2400.00000
G1 X77.039 Y39.171 E2.05491 F900.000
G1 X77.600 Y38.332 E2.13285
G1 X77.808 Y38.021 E2.16184
G1 X78.251 Y37.465 E2.21676
G1 X79.202 Y36.460 E2.32368
G1 X79.732 Y35.987 E2.37860
G1 X80.838 Y35.156 E2.48550
G1 X81.440 Y34.778 E2.54044
G1 X82.670 Y34.144 E2.64741
G1 X83.326 Y33.872 E2.70231
G1 X84.644 Y33.453 E2.80923
G1 X85.337 Y33.295 E2.86415
G1 X86.707 Y33.103 E2.97108
G1 X87.417 Y33.063 E3.02600
G1 X88.800 Y33.103 E3.13293
G1 X89.506 Y33.183 E3.18785
G1 X90.862 Y33.454 E3.29476
G1 X91.545 Y33.652 E3.34970
G1 X92.837 Y34.146 E3.45661
G1 X93.477 Y34.455 E3.51154
G1 X94.668 Y35.159 E3.61846
G1 X95.247 Y35.571 E3.67339
G1 X96.303 Y36.465 E3.78033
G1 X96.805 Y36.968 E3.83525
G1 X97.084 Y37.299 E3.86873
G1 X97.643 Y37.316 E3.91197
G1 X98.452 Y36.460 E4.00295
G1 X98.982 Y35.987 E4.05788
G1 X100.088 Y35.156 E4.16478
G1 X100.690 Y34.778 E4.21972
G1 X101.920 Y34.144 E4.32668
G1 X102.576 Y33.872 E4.38159
G1 X103.894 Y33.453 E4.48851
G1 X104.587 Y33.295 E4.54343
G1 X105.957 Y33.103 E4.65036
G1 X106.667 Y33.063 E4.70528
G1 X107.675 Y33.092 E4.78322
G1 X108.050 Y33.103 E4.81221 F900.000
G1 X108.756 Y33.183 E4.86712
G1 X110.112 Y33.454 E4.97403
G1 X110.795 Y33.652 E5.02897
G1 X112.087 Y34.146 E5.13589
G1 X112.727 Y34.455 E5.19081
G1 X113.918 Y35.159 E5.29773
G1 X114.497 Y35.571 E5.35267
G1 X115.553 Y36.465 E5.45960
G1 X116.055 Y36.968 E5.51452
G1 X116.946 Y38.026 E5.62145
G1 X117.356 Y38.606 E5.67636
G1 X118.058 Y39.799 E5.78328
G1 X118.365 Y40.439 E5.83821
G1 X118.857 Y41.732 E5.94512
G1 X119.053 Y42.415 E6.00006
G1 X119.340 Y43.949 E6.12069
G1 X124.660 Y91.800 E9.84185
G1 X124.686 Y92.266 E9.87795
G1 X124.686 Y207.734 E18.80243
G1 X124.660 Y208.200 E18.83853
G1 X119.340 Y256.051 E22.55970
G1 X119.053 Y257.584 E22.68032
G1 X118.857 Y258.268 E22.73524
G1 X118.498 Y259.210 E22.81319
G1 X118.365 Y259.561 E22.84219
G1 X118.058 Y260.202 E22.89710
G1 X117.356 Y261.394 E23.00402
G1 X116.946 Y261.974 E23.05896
G1 X116.055 Y263.032 E23.16582
G1 X115.553 Y263.535 E23.22075
G1 X114.496 Y264.429 E23.32778
G1 X113.917 Y264.841 E23.38267
G1 X112.726 Y265.545 E23.48960
G1 X112.087 Y265.854 E23.54449
G1 X110.793 Y266.349 E23.65153
G1 X110.112 Y266.546 E23.70638
G1 X108.754 Y266.817 E23.81336
G1 X108.049 Y266.897 E23.86823
G1 X107.041 Y266.926 E23.94618
G1 X106.665 Y266.937 E23.97524
G1 X105.957 Y266.897 E24.03007
G1 X104.585 Y266.704 E24.13709
G1 X103.894 Y266.547 E24.19192
G1 X102.575 Y266.127 E24.29891
G1 X101.919 Y265.856 E24.35377
G1 X100.691 Y265.223 E24.46055
G1 X100.088 Y264.844 E24.51554
G1 X98.982 Y264.013 E24.62250
G1 X98.452 Y263.540 E24.67742
G1 X97.643 Y262.684 E24.76841
G1 X97.084 Y262.701 E24.81166
G1 X96.805 Y263.032 E24.84510
G1 X96.303 Y263.535 E24.90002
G1 X95.246 Y264.429 E25.00705
G1 X94.667 Y264.841 E25.06195
G1 X93.476 Y265.545 E25.16887
G1 X92.837 Y265.854 E25.22376
G1 X91.543 Y266.349 E25.33081
G1 X90.862 Y266.546 E25.38565
G1 X89.504 Y266.817 E25.49264
G1 X88.799 Y266.897 E25.54750
G1 X87.791 Y266.926 E25.62545
G1 X87.415 Y266.937 E25.65451
G1 X86.707 Y266.897 E25.70934
G1 X85.335 Y266.704 E25.81637
G1 X84.644 Y266.547 E25.87119
G1 X83.325 Y266.127 E25.97818
G1 X82.669 Y265.856 E26.03305
G1 X81.441 Y265.223 E26.13983
G1 X80.838 Y264.844 E26.19482
G1 X79.732 Y264.013 E26.30177
G1 X79.202 Y263.540 E26.35669
G1 X78.251 Y262.534 E26.46369
G1 X77.808 Y261.979 E26.51858
G1 X77.040 Y260.830 E26.62538
G1 X76.695 Y260.208 E26.68037
G1 X76.130 Y258.945 E26.78728
G1 X75.895 Y258.274 E26.84223
G1 X75.550 Y256.935 E26.94913
G1 X75.430 Y256.234 E27.00409
G1 X75.314 Y254.677 E27.12473
G1 X75.314 Y202.473 E31.15964
G1 X75.346 Y201.745 E31.21594
G1 X75.552 Y199.207 E31.41272
G1 X75.700 Y198.265 E31.48642
G1 X76.332 Y195.646 E31.69466
G1 X76.490 Y195.086 E31.73966
G1 X83.074 Y175.130 E33.36383
G1 X83.444 Y173.599 E33.48552
G1 X83.564 Y172.079 E33.60337
G1 X83.564 Y127.921 E37.01642
G1 X83.444 Y126.401 E37.13426
G1 X83.074 Y124.870 E37.25595
G1 X76.428 Y104.706 E38.89691
G1 X75.736 Y101.906 E39.11983
G1 X75.671 Y101.581 E39.14544
G1 X75.537 Y100.647 E39.21840
G1 X75.330 Y98.007 E39.42302
G1 X75.314 Y97.449 E39.46617
G1 X75.314 Y45.322 E43.49507
G1 X75.430 Y43.766 E43.61567
G1 X75.549 Y43.066 E43.67061
G1 X75.895 Y41.726 E43.77756
G1 X76.130 Y41.055 E43.83247
G1 X76.671 Y39.847 E43.93477
G1 X77.255 Y40.072 F3600.000
G1 X77.573 Y39.496 E43.98561 F900.000
G1 X78.119 Y38.680 E44.06152
G1 X78.313 Y38.390 E44.08847
G1 X78.723 Y37.876 E44.13933
G1 X79.638 Y36.909 E44.24217
G1 X80.129 Y36.471 E44.29303
G1 X81.192 Y35.671 E44.39586
G1 X81.750 Y35.321 E44.44673
G1 X82.933 Y34.711 E44.54962
G1 X83.541 Y34.460 E44.60046
G1 X84.809 Y34.056 E44.70331
G1 X85.450 Y33.910 E44.75417
G1 X86.768 Y33.725 E44.85703
G1 X87.425 Y33.689 E44.90788
G1 X88.755 Y33.727 E45.01074
G1 X89.409 Y33.801 E45.06159
G1 X90.714 Y34.062 E45.16443
G1 X91.346 Y34.245 E45.21530
G1 X92.589 Y34.721 E45.31815
G1 X93.181 Y35.007 E45.36900
G1 X94.327 Y35.684 E45.47185
G1 X94.863 Y36.065 E45.52272
G1 X95.879 Y36.925 E45.62558
G1 X96.344 Y37.391 E45.67644
G1 X97.079 Y38.263 E45.76462
G1 X97.670 Y38.256 E45.81033
G1 X97.973 Y37.876 E45.84791
G1 X98.888 Y36.909 E45.95075
G1 X99.379 Y36.471 E46.00161
G1 X100.442 Y35.671 E46.10444
G1 X101.000 Y35.321 E46.15531
G1 X102.183 Y34.711 E46.25820
G1 X102.791 Y34.460 E46.30904
G1 X104.059 Y34.056 E46.41189
G1 X104.700 Y33.910 E46.46275
G1 X106.018 Y33.725 E46.56561
G1 X106.675 Y33.689 E46.61646
G1 X108.005 Y33.727 E46.71932 F900.000
G1 X108.659 Y33.801 E46.77017
G1 X109.964 Y34.062 E46.87301
G1 X110.596 Y34.245 E46.92388
G1 X111.839 Y34.721 E47.02673
G1 X112.431 Y35.007 E47.07758
G1 X113.577 Y35.684 E47.18043
G1 X114.113 Y36.065 E47.23130
G1 X115.129 Y36.925 E47.33416
G1 X115.594 Y37.391 E47.38502
G1 X116.451 Y38.409 E47.48788
G1 X116.831 Y38.946 E47.53872
G1 X117.506 Y40.093 E47.64157
G1 X117.791 Y40.686 E47.69243
G1 X118.263 Y41.930 E47.79527
G1 X118.445 Y42.562 E47.84614
G1 X118.721 Y44.032 E47.96169
G1 X124.037 Y91.852 E51.68049
G1 X124.061 Y92.284 E51.71392
G1 X124.061 Y207.716 E60.63572
G1 X124.037 Y208.148 E60.66916
G1 X118.721 Y255.969 E64.38797
G1 X118.445 Y257.438 E64.50350
G1 X118.263 Y258.070 E64.55436
G1 X117.914 Y258.988 E64.63027
G1 X117.790 Y259.314 E64.65723
G1 X117.506 Y259.907 E64.70808
G1 X116.831 Y261.054 E64.81093
G1 X116.451 Y261.592 E64.86180
G1 X115.594 Y262.609 E64.96460
G1 X115.129 Y263.075 E65.01546
G1 X114.113 Y263.935 E65.11841
G1 X113.577 Y264.316 E65.16924
G1 X112.431 Y264.994 E65.27209
G1 X111.839 Y265.279 E65.32292
G1 X110.595 Y265.756 E65.42589
G1 X109.963 Y265.938 E65.47667
G1 X108.658 Y266.199 E65.57958
G1 X108.005 Y266.273 E65.63038
G1 X107.023 Y266.301 E65.70630
G1 X106.673 Y266.311 E65.73332
G1 X106.018 Y266.275 E65.78408
G1 X104.699 Y266.089 E65.88703
G1 X104.058 Y265.944 E65.93780
G1 X102.789 Y265.540 E66.04071
G1 X102.182 Y265.289 E66.09151
G1 X101.001 Y264.679 E66.19423
G1 X100.443 Y264.329 E66.24515
G1 X99.379 Y263.529 E66.34804
G1 X98.888 Y263.091 E66.39888
G1 X97.973 Y262.124 E66.50181
G1 X97.670 Y261.744 E66.53931
G1 X97.079 Y261.737 E66.58502
G1 X96.344 Y262.609 E66.67318
G1 X95.879 Y263.075 E66.72403
G1 X94.863 Y263.935 E66.82699
G1 X94.327 Y264.316 E66.87782
G1 X93.181 Y264.994 E66.98067
G1 X92.589 Y265.279 E67.03150
G1 X91.345 Y265.756 E67.13446
G1 X90.713 Y265.938 E67.18524
G1 X89.408 Y266.199 E67.28816
G1 X88.755 Y266.273 E67.33895
G1 X87.773 Y266.301 E67.41487
G1 X87.423 Y266.311 E67.44189
G1 X86.768 Y266.275 E67.49266
G1 X85.449 Y266.089 E67.59561
G1 X84.808 Y265.944 E67.64637
G1 X83.539 Y265.540 E67.74929
G1 X82.932 Y265.289 E67.80009
G1 X81.751 Y264.679 E67.90281
G1 X81.193 Y264.329 E67.95373
G1 X80.129 Y263.529 E68.05661
G1 X79.638 Y263.091 E68.10746
G1 X78.723 Y262.124 E68.21039
G1 X78.313 Y261.610 E68.26121
G1 X77.574 Y260.505 E68.36395
G1 X77.255 Y259.928 E68.41487
G1 X76.711 Y258.714 E68.51771
G1 X76.494 Y258.092 E68.56859
G1 X76.161 Y256.804 E68.67142
G1 X76.051 Y256.155 E68.72231
G1 X75.939 Y254.664 E68.83787
G1 X75.939 Y202.480 E72.87120
G1 X75.969 Y201.790 E72.92461
G1 X76.173 Y199.280 E73.11919
G1 X76.312 Y198.392 E73.18869
G1 X76.939 Y195.796 E73.39511
G1 X77.086 Y195.271 E73.43722
G1 X83.675 Y175.302 E75.06249
G1 X84.055 Y173.748 E75.18612
G1 X84.189 Y172.104 E75.31359
G1 X84.189 Y127.896 E78.73048
G1 X84.063 Y126.301 E78.85412
G1 X83.675 Y124.698 E78.98159
G1 X77.029 Y104.536 E80.62239
G1 X76.286 Y101.469 E80.86629
G1 X76.159 Y100.589 E80.93504
G1 X75.953 Y97.969 E81.13818
G1 X75.939 Y97.448 E81.17844
G1 X75.939 Y45.336 E85.20620
G1 X76.051 Y43.845 E85.32172
G1 X76.161 Y43.196 E85.37259
G1 X76.494 Y41.907 E85.47547
G1 X76.711 Y41.287 E85.52631
G1 X77.230 Y40.127 E85.62454
G1 X77.815 Y40.351 F3600.000
G1 X78.107 Y39.822 E85.67132 F900.000
G1 X78.639 Y39.027 E85.74519
G1 X78.818 Y38.759 E85.77011
G1 X79.195 Y38.286 E85.81689
G1 X80.074 Y37.358 E85.91567
G1 X80.525 Y36.954 E85.96246
G1 X81.547 Y36.186 E86.06122
G1 X82.060 Y35.865 E86.10802
G1 X83.196 Y35.278 E86.20684
G1 X83.755 Y35.047 E86.25362
G1 X84.973 Y34.660 E86.35240
G1 X85.563 Y34.525 E86.39918
G1 X86.829 Y34.348 E86.49798
G1 X87.433 Y34.314 E86.54476
G1 X88.711 Y34.351 E86.64355
G1 X89.312 Y34.419 E86.69033
G1 X90.566 Y34.670 E86.78910
G1 X91.147 Y34.838 E86.83590
G1 X92.341 Y35.295 E86.93468
G1 X92.886 Y35.558 E86.98147
G1 X93.986 Y36.208 E87.08025
G1 X94.480 Y36.559 E87.12705
G1 X95.455 Y37.385 E87.22585
G1 X95.883 Y37.814 E87.27263
G1 X96.706 Y38.791 E87.37142
G1 X97.060 Y39.292 E87.41882
G1 X97.718 Y39.283 E87.46961
G1 X98.068 Y38.759 E87.51831
G1 X98.445 Y38.286 E87.56510
G1 X99.324 Y37.358 E87.66388
G1 X99.775 Y36.954 E87.71066
G1 X100.797 Y36.186 E87.80943
G1 X101.310 Y35.865 E87.85623
G1 X102.446 Y35.278 E87.95505
G1 X103.005 Y35.047 E88.00182
G1 X104.223 Y34.660 E88.10060
G1 X104.813 Y34.525 E88.14739
G1 X106.079 Y34.348 E88.24618
G1 X106.683 Y34.314 E88.29297
G1 X107.639 Y34.342 E88.36684
G1 X107.961 Y34.351 E88.39175 F900.000
G1 X108.562 Y34.419 E88.43854
G1 X109.816 Y34.670 E88.53731
G1 X110.397 Y34.838 E88.58411
G1 X111.591 Y35.295 E88.68289
G1 X112.136 Y35.558 E88.72968
G1 X113.236 Y36.208 E88.82846
G1 X113.730 Y36.559 E88.87526
G1 X114.705 Y37.385 E88.97405
G1 X115.133 Y37.814 E89.02084
G1 X115.956 Y38.791 E89.11963
G1 X116.306 Y39.285 E89.16640
G1 X116.954 Y40.387 E89.26519
G1 X117.216 Y40.933 E89.31198
G1 X117.670 Y42.127 E89.41075
G1 X117.837 Y42.709 E89.45755
G1 X118.101 Y44.114 E89.56801
G1 X123.414 Y91.904 E93.28446
G1 X123.436 Y92.301 E93.31522
G1 X123.436 Y207.699 E102.23435
G1 X123.414 Y208.096 E102.26510
G1 X118.101 Y255.886 E105.98156
G1 X117.837 Y257.291 E106.09201
G1 X117.670 Y257.873 E106.13880
G1 X117.330 Y258.766 E106.21268
G1 X117.216 Y259.068 E106.23760
G1 X116.954 Y259.613 E106.28439
G1 X116.306 Y260.715 E106.38317
G1 X115.956 Y261.209 E106.42996
G1 X115.133 Y262.186 E106.52870
G1 X114.705 Y262.615 E106.57549
G1 X113.729 Y263.441 E106.67437
G1 X113.236 Y263.792 E106.72113
G1 X112.136 Y264.442 E106.81991
G1 X111.591 Y264.705 E106.86667
G1 X110.396 Y265.163 E106.96556
G1 X109.815 Y265.330 E107.01228
G1 X108.561 Y265.581 E107.11112
G1 X107.960 Y265.649 E107.15786
G1 X106.682 Y265.686 E107.25672
G1 X106.078 Y265.652 E107.30342
G1 X105.131 Y265.519 E107.37739
G1 X104.812 Y265.474 E107.40230
G1 X104.222 Y265.340 E107.44900
G1 X103.004 Y264.952 E107.54784
G1 X102.445 Y264.721 E107.59458
G1 X101.311 Y264.136 E107.69324
G1 X100.797 Y263.814 E107.74009
G1 X99.775 Y263.046 E107.83890
G1 X99.324 Y262.642 E107.88568
G1 X98.445 Y261.713 E107.98453
G1 X98.068 Y261.240 E108.03129
G1 X97.718 Y260.717 E108.07996
G1 X97.060 Y260.708 E108.13075
G1 X96.706 Y261.209 E108.17817
G1 X95.883 Y262.186 E108.27691
G1 X95.455 Y262.615 E108.32370
G1 X94.479 Y263.441 E108.42257
G1 X93.986 Y263.792 E108.46933
G1 X92.886 Y264.442 E108.56812
G1 X92.341 Y264.705 E108.61488
G1 X91.146 Y265.163 E108.71377
G1 X90.565 Y265.330 E108.76049
G1 X89.311 Y265.581 E108.85933
G1 X88.710 Y265.649 E108.90606
G1 X87.432 Y265.686 E109.00492
G1 X86.828 Y265.652 E109.05163
G1 X85.562 Y265.474 E109.15050
G1 X84.972 Y265.340 E109.19721
G1 X83.754 Y264.952 E109.29605
G1 X83.195 Y264.721 E109.34278
G1 X82.061 Y264.136 E109.44145
G1 X81.547 Y263.814 E109.48829
G1 X80.525 Y263.046 E109.58710
G1 X80.074 Y262.642 E109.63389
G1 X79.195 Y261.713 E109.73274
G1 X78.818 Y261.240 E109.77950
G1 X78.108 Y260.179 E109.87818
G1 X77.815 Y259.649 E109.92502
G1 X77.292 Y258.482 E110.02380
G1 X77.092 Y257.911 E110.07060
G1 X76.773 Y256.673 E110.16937
G1 X76.671 Y256.076 E110.21618
G1 X76.564 Y254.651 E110.32666
G1 X76.564 Y202.487 E114.35840
G1 X76.592 Y201.834 E114.40893
G1 X76.794 Y199.353 E114.60130
G1 X76.924 Y198.518 E114.66662
G1 X77.546 Y195.946 E114.87120
G1 X77.683 Y195.457 E114.91043
G1 X84.276 Y175.474 E116.53679
G1 X84.674 Y173.848 E116.66621
G1 X84.814 Y172.129 E116.79946
G1 X84.814 Y127.871 E120.22021
G1 X84.681 Y126.202 E120.34962
G1 X84.276 Y124.526 E120.48287
G1 X77.630 Y104.366 E122.12353
G1 X76.900 Y101.357 E122.36280
G1 X76.781 Y100.531 E122.42736
G1 X76.577 Y97.930 E122.62900
G1 X76.564 Y97.446 E122.66638
G1 X76.564 Y45.349 E126.69300
G1 X76.671 Y43.924 E126.80344
G1 X76.773 Y43.327 E126.85024
G1 X77.092 Y42.089 E126.94904
G1 X77.292 Y41.518 E126.99582
G1 X77.790 Y40.406 E127.08998
G1 X78.374 Y40.631 F3600.000
G1 X78.642 Y40.147 E127.13269 F900.000
G1 X79.158 Y39.374 E127.20453
G1 X79.323 Y39.128 E127.22741
G1 X79.667 Y38.696 E127.27013
G1 X80.510 Y37.806 E127.36484
G1 X80.922 Y37.438 E127.40756
G1 X81.901 Y36.702 E127.50226
G1 X82.369 Y36.408 E127.54499
G1 X83.459 Y35.846 E127.63974
G1 X83.969 Y35.635 E127.68244
G1 X85.137 Y35.263 E127.77715
G1 X85.676 Y35.141 E127.81987
G1 X86.890 Y34.970 E127.91460
G1 X87.442 Y34.940 E127.95731
G1 X88.667 Y34.975 E128.05203
G1 X89.216 Y35.037 E128.09474
G1 X90.417 Y35.277 E128.18945
G1 X90.948 Y35.431 E128.23218
G1 X92.093 Y35.869 E128.32689
G1 X92.591 Y36.109 E128.36961
G1 X93.645 Y36.733 E128.46433
G1 X94.096 Y37.053 E128.50705
G1 X95.031 Y37.845 E128.60178
G1 X95.422 Y38.236 E128.64449
G1 X96.211 Y39.174 E128.73921
G1 X96.531 Y39.625 E128.78193
G1 X97.001 Y40.425 E128.85371
G1 X97.692 Y40.445 E128.90713
G1 X98.573 Y39.128 E129.02955
G1 X98.917 Y38.696 E129.07227
G1 X99.760 Y37.806 E129.16698
G1 X100.172 Y37.438 E129.20970
G1 X101.151 Y36.702 E129.30440
G1 X101.619 Y36.408 E129.34713
G1 X102.709 Y35.846 E129.44188
G1 X103.219 Y35.635 E129.48458
G1 X104.387 Y35.263 E129.57930
G1 X104.926 Y35.141 E129.62201
G1 X105.847 Y35.011 E129.69386
G1 X106.140 Y34.970 E129.71674
G1 X106.692 Y34.940 E129.75945
G1 X107.917 Y34.975 E129.85417 F900.000
G1 X108.466 Y35.037 E129.89689
G1 X109.667 Y35.277 E129.99159
G1 X110.198 Y35.431 E130.03432
G1 X111.343 Y35.869 E130.12904
G1 X111.841 Y36.109 E130.17175
G1 X112.895 Y36.733 E130.26647
G1 X113.346 Y37.053 E130.30920
G1 X114.281 Y37.845 E130.40392
G1 X114.672 Y38.236 E130.44664
G1 X115.461 Y39.174 E130.54136
G1 X115.781 Y39.625 E130.58407
G1 X116.402 Y40.681 E130.67878
G1 X116.641 Y41.179 E130.72151
G1 X117.076 Y42.325 E130.81621
G1 X117.229 Y42.856 E130.85894
G1 X117.481 Y44.196 E130.96432
G1 X122.791 Y91.956 E134.67842
G1 X122.811 Y92.318 E134.70650
G1 X122.811 Y207.682 E143.62295
G1 X122.791 Y208.044 E143.65103
G1 X117.481 Y255.804 E147.36514
G1 X117.229 Y257.144 E147.47050
G1 X117.077 Y257.675 E147.51322
G1 X116.746 Y258.544 E147.58507
G1 X116.641 Y258.821 E147.60796
