; generated by Slic3r 1.2.9 on 2017-08-30 at 14:29:58

; external perimeters extrusion width = 0.40mm
; perimeters extrusion width = 0.48mm
; infill extrusion width = 0.48mm
; solid infill extrusion width = 0.48mm
; top infill extrusion width = 0.48mm

M107
M190 S70 ; set bed temperature
M104 S240 ; set temperature
G21 ; set units to millimeters
G90 ; use absolute coordinates
M203 Z4; max speed min/sec
G1 Z20 F200;
G28 X F2000;
G1 X140 F2000;
G28 Y F2000;
G1 Y140 F2000;
G28 Z F200;
G1 Z5 F500 ; lift nozzle

M109 S240 ; wait for temperature to be reached
G21 ; set units to millimeters
G90 ; use absolute coordinates
M82 ; use absolute distances for extrusion
G92 E0
G1 Z0.200 F3600.000
G1 E-2.00000 F2400.00000
G92 E0
G1 X60.026 Y115.393 F3600.000
G1 E2.00000 F2400.00000
G1 X60.710 Y115.068 E2.05860 F900.000
G1 X61.177 Y114.875 E2.09761
G1 X61.931 Y114.610 E2.15936
G1 X62.672 Y114.403 E2.21888
G1 X63.401 Y114.250 E2.27641
G1 X63.900 Y114.173 E2.31548
G1 X64.534 Y114.103 E2.36473
G1 X65.318 Y114.066 E2.42545
G1 X134.192 Y114.064 E7.74867
G1 X134.783 Y114.069 E7.79441 F900.000
G1 X135.465 Y114.103 E7.84713
G1 X136.599 Y114.250 E7.93554
G1 X137.328 Y114.403 E7.99314
G1 X137.934 Y114.570 E8.04171
G1 X138.958 Y114.928 E8.12554
G1 X139.973 Y115.392 E8.21178
G1 X140.944 Y115.954 E8.29849
G1 X141.576 Y116.387 E8.35772
G1 X142.056 Y116.761 E8.40477
G1 X142.877 Y117.497 E8.48998
G1 X143.634 Y118.316 E8.57617
G1 X144.304 Y119.194 E8.66154
G1 X144.641 Y119.704 E8.70873
G1 X145.022 Y120.365 E8.76777
G1 X145.506 Y121.379 E8.85460
G1 X145.889 Y122.430 E8.94102
G1 X146.165 Y123.475 E9.02458
G1 X146.284 Y124.095 E9.07339
G1 X146.378 Y124.831 E9.13074
G1 X146.416 Y125.334 E9.16975
G1 X146.436 Y125.967 E9.21864
G1 X146.436 Y174.033 E12.93371
G1 X146.397 Y174.968 E13.00600
G1 X146.250 Y176.100 E13.09422
G1 X146.048 Y177.016 E13.16673
G1 X145.775 Y177.916 E13.23944
G1 X145.432 Y178.791 E13.31204
G1 X145.108 Y179.473 E13.37044
G1 X144.809 Y180.014 E13.41823
G1 X144.214 Y180.936 E13.50305
G1 X143.634 Y181.684 E13.57621
G1 X143.000 Y182.380 E13.64896
G1 X142.181 Y183.137 E13.73515
G1 X141.434 Y183.715 E13.80814
G1 X140.645 Y184.233 E13.88107
G1 X139.818 Y184.686 E13.95400
G1 X138.823 Y185.125 E14.03806
G1 X138.233 Y185.338 E14.08653
G1 X137.517 Y185.548 E14.14415
G1 X136.600 Y185.749 E14.21672
G1 X135.668 Y185.879 E14.28947
G1 X134.676 Y185.934 E14.36622
G1 X65.469 Y185.936 E19.71530
G1 X64.837 Y185.917 E19.76414
G1 X63.770 Y185.810 E19.84699
G1 X62.669 Y185.596 E19.93370
G1 X61.767 Y185.338 E20.00623
G1 X60.712 Y184.933 E20.09360
G1 X59.865 Y184.522 E20.16632
G1 X59.055 Y184.046 E20.23894
G1 X58.286 Y183.508 E20.31147
G1 X57.688 Y183.025 E20.37094
G1 X57.240 Y182.615 E20.41782
G1 X56.477 Y181.814 E20.50334
G1 X55.886 Y181.075 E20.57646
G1 X55.268 Y180.147 E20.66264
G1 X54.749 Y179.183 E20.74723
G1 X54.493 Y178.617 E20.79532
G1 X54.225 Y177.915 E20.85335
G1 X53.952 Y177.016 E20.92595
G1 X53.716 Y175.902 E21.01400
G1 X53.591 Y174.793 E21.10024
G1 X53.564 Y174.032 E21.15912
G1 X53.564 Y125.968 E24.87397
G1 X53.584 Y125.335 E24.92293
G1 X53.622 Y124.831 E24.96195
G1 X53.751 Y123.900 E25.03465
G1 X53.904 Y123.171 E25.09222
G1 X54.163 Y122.266 E25.16497
G1 X54.427 Y121.543 E25.22445
G1 X54.749 Y120.817 E25.28586
G1 X54.979 Y120.365 E25.32505
G1 X55.454 Y119.555 E25.39761
G1 X55.887 Y118.925 E25.45669
G1 X56.476 Y118.187 E25.52967
G1 X56.999 Y117.621 E25.58922
G1 X57.560 Y117.089 E25.64903
G1 X58.285 Y116.492 E25.72158
G1 X58.694 Y116.195 E25.76065
G1 X59.354 Y115.768 E25.82145
G1 X59.973 Y115.421 E25.87622
G1 X60.313 Y115.948 F3600.000
G1 X60.966 Y115.638 E25.93206 F900.000
G1 X61.398 Y115.460 E25.96822
G1 X62.115 Y115.207 E26.02697
G1 X62.821 Y115.010 E26.08361
G1 X63.516 Y114.865 E26.13846
G1 X63.979 Y114.793 E26.17468
G1 X64.585 Y114.725 E26.22181
G1 X65.332 Y114.691 E26.27960
G1 X134.179 Y114.689 E31.60083
G1 X134.763 Y114.693 E31.64593 F900.000
G1 X135.414 Y114.725 E31.69633
G1 X136.484 Y114.865 E31.77976
G1 X137.180 Y115.010 E31.83467
G1 X137.760 Y115.170 E31.88116
G1 X138.727 Y115.508 E31.96035
G1 X139.685 Y115.947 E32.04183
G1 X140.602 Y116.477 E32.12370
G1 X141.204 Y116.890 E32.18011
G1 X141.665 Y117.248 E32.22520
G1 X142.440 Y117.943 E32.30567
G1 X143.155 Y118.717 E32.38710
G1 X143.788 Y119.546 E32.46772
G1 X144.110 Y120.034 E32.51294
G1 X144.473 Y120.665 E32.56918
G1 X144.930 Y121.622 E32.65115
G1 X145.292 Y122.614 E32.73279
G1 X145.553 Y123.602 E32.81174
G1 X145.667 Y124.196 E32.85846
G1 X145.757 Y124.897 E32.91314
G1 X145.811 Y125.969 E32.99610
G1 X145.811 Y174.031 E36.71078
G1 X145.774 Y174.917 E36.77931
G1 X145.635 Y175.985 E36.86257
G1 X145.445 Y176.853 E36.93128
G1 X145.186 Y177.706 E37.00018
G1 X144.862 Y178.535 E37.06898
G1 X144.553 Y179.186 E37.12462
G1 X144.267 Y179.704 E37.17040
G1 X143.704 Y180.575 E37.25051
G1 X143.155 Y181.283 E37.31983
G1 X142.554 Y181.942 E37.38876
G1 X141.780 Y182.657 E37.47019
G1 X141.073 Y183.206 E37.53935
G1 X140.325 Y183.696 E37.60845
G1 X139.541 Y184.126 E37.67755
G1 X138.601 Y184.540 E37.75695
G1 X138.037 Y184.744 E37.80336
G1 X137.355 Y184.945 E37.85829
G1 X136.486 Y185.135 E37.92706
G1 X135.602 Y185.257 E37.99599
G1 X134.664 Y185.310 E38.06863
G1 X65.471 Y185.311 E43.41653
G1 X64.866 Y185.292 E43.46330
G1 X63.858 Y185.191 E43.54159
G1 X62.818 Y184.989 E43.62350
G1 X61.963 Y184.744 E43.69223
G1 X60.967 Y184.362 E43.77470
G1 X60.165 Y183.973 E43.84361
G1 X59.397 Y183.523 E43.91242
G1 X58.668 Y183.014 E43.98116
G1 X58.098 Y182.553 E44.03779
G1 X57.669 Y182.161 E44.08272
G1 X56.948 Y181.404 E44.16349
G1 X56.389 Y180.703 E44.23276
G1 X55.805 Y179.827 E44.31418
G1 X55.314 Y178.917 E44.39408
G1 X55.069 Y178.374 E44.44013
G1 X54.814 Y177.706 E44.49543
G1 X54.555 Y176.854 E44.56424
G1 X54.333 Y175.802 E44.64734
G1 X54.214 Y174.754 E44.72881
G1 X54.189 Y174.029 E44.78487
G1 X54.193 Y125.737 E48.51738
G1 X54.225 Y125.085 E48.56788
G1 X54.333 Y124.198 E48.63692
G1 X54.474 Y123.476 E48.69374
G1 X54.670 Y122.740 E48.75263
G1 X54.813 Y122.295 E48.78879
G1 X55.137 Y121.467 E48.85749
G1 X55.448 Y120.813 E48.91342
G1 X55.889 Y120.036 E48.98249
G1 X56.295 Y119.427 E49.03906
G1 X56.748 Y118.836 E49.09660
G1 X57.052 Y118.479 E49.13289
G1 X57.670 Y117.838 E49.20165
G1 X58.220 Y117.343 E49.25893
G1 X58.927 Y116.795 E49.32801
G1 X59.536 Y116.388 E49.38464
G1 X60.260 Y115.976 E49.44903
G1 X60.601 Y116.503 F3600.000
G1 X61.221 Y116.208 E49.50210 F900.000
G1 X61.620 Y116.044 E49.53542
G1 X62.300 Y115.804 E49.59117
G1 X62.970 Y115.617 E49.64492
G1 X63.630 Y115.479 E49.69708
G1 X64.057 Y115.413 E49.73046
G1 X64.636 Y115.348 E49.77546
G1 X65.345 Y115.315 E49.83033
G1 X134.168 Y115.314 E55.14964
G1 X134.742 Y115.318 E55.19404 F900.000
G1 X135.363 Y115.348 E55.24210
G1 X136.370 Y115.479 E55.32056
G1 X137.031 Y115.617 E55.37277
G1 X137.585 Y115.770 E55.41720
G1 X138.495 Y116.089 E55.49175
G1 X139.398 Y116.502 E55.56846
G1 X140.261 Y117.000 E55.64548
G1 X140.833 Y117.392 E55.69908
G1 X141.273 Y117.735 E55.74221
G1 X142.002 Y118.390 E55.81794
G1 X142.676 Y119.118 E55.89461
G1 X143.272 Y119.898 E55.97048
G1 X143.580 Y120.365 E56.01373
G1 X143.925 Y120.964 E56.06717
G1 X144.354 Y121.865 E56.14428
G1 X144.696 Y122.799 E56.22115
G1 X144.941 Y123.729 E56.29548
G1 X145.050 Y124.296 E56.34011
G1 X145.135 Y124.963 E56.39211
G1 X145.186 Y125.972 E56.47015
G1 X145.186 Y174.028 E60.18446
G1 X145.152 Y174.866 E60.24922
G1 X145.021 Y175.870 E60.32752
G1 X144.842 Y176.691 E60.39244
G1 X144.598 Y177.497 E60.45752
G1 X144.291 Y178.280 E60.52251
G1 X143.998 Y178.898 E60.57541
G1 X143.724 Y179.394 E60.61917
G1 X143.195 Y180.213 E60.69457
G1 X142.675 Y180.882 E60.76004
G1 X142.108 Y181.505 E60.82516
G1 X141.379 Y182.178 E60.90183
G1 X140.711 Y182.696 E60.96715
G1 X140.005 Y183.159 E61.03242
G1 X139.265 Y183.565 E61.09770
G1 X138.380 Y183.956 E61.17245
G1 X137.840 Y184.151 E61.21679
G1 X137.192 Y184.341 E61.26903
G1 X136.371 Y184.521 E61.33399
G1 X135.536 Y184.636 E61.39911
G1 X134.651 Y184.685 E61.46764
G1 X65.261 Y184.682 E66.83083
G1 X64.636 Y184.652 E66.87917
G1 X64.057 Y184.587 E66.92417
G1 X63.226 Y184.441 E66.98940
G1 X62.302 Y184.196 E67.06331
G1 X61.505 Y183.911 E67.12868
G1 X60.602 Y183.498 E67.20548
G1 X59.867 Y183.081 E67.27079
G1 X59.168 Y182.609 E67.33598
G1 X58.399 Y181.985 E67.41253
G1 X57.996 Y181.608 E67.45515
G1 X57.516 Y181.102 E67.50907
G1 X56.981 Y180.451 E67.57420
G1 X56.419 Y179.634 E67.65080
G1 X55.936 Y178.766 E67.72759
G1 X55.544 Y177.880 E67.80249
G1 X55.349 Y177.342 E67.84670
G1 X55.159 Y176.691 E67.89913
G1 X54.950 Y175.702 E67.97729
G1 X54.838 Y174.716 E68.05399
G1 X54.814 Y174.027 E68.10723
G1 X54.818 Y125.758 E71.83796
G1 X54.848 Y125.136 E71.88611
G1 X54.950 Y124.298 E71.95134
G1 X55.084 Y123.613 E72.00526
G1 X55.270 Y122.915 E72.06113
G1 X55.402 Y122.505 E72.09445
G1 X55.708 Y121.722 E72.15936
G1 X56.003 Y121.101 E72.21251
G1 X56.419 Y120.367 E72.27775
G1 X56.804 Y119.789 E72.33145
G1 X57.235 Y119.228 E72.38609
G1 X57.515 Y118.899 E72.41952
G1 X58.098 Y118.293 E72.48448
G1 X58.621 Y117.822 E72.53888
G1 X59.288 Y117.305 E72.60413
G1 X59.867 Y116.919 E72.65788
G1 X60.548 Y116.531 E72.71845
G1 X60.888 Y117.058 F3600.000
G1 X61.476 Y116.779 E72.76875 F900.000
G1 X61.841 Y116.629 E72.79922
G1 X62.485 Y116.401 E72.85198
G1 X63.118 Y116.224 E72.90285
G1 X63.745 Y116.093 E72.95232
G1 X64.135 Y116.033 E72.98285
G1 X64.687 Y115.971 E73.02573
G1 X65.358 Y115.940 E73.07768
G1 X134.158 Y115.939 E78.39526
G1 X135.312 Y115.971 E78.48447 F900.000
G1 X136.255 Y116.093 E78.55795
G1 X136.882 Y116.224 E78.60748
G1 X137.411 Y116.370 E78.64983
G1 X138.264 Y116.669 E78.71975
G1 X139.110 Y117.057 E78.79169
G1 X139.919 Y117.523 E78.86386
G1 X140.461 Y117.895 E78.91464
G1 X140.881 Y118.222 E78.95582
G1 X141.565 Y118.836 E79.02681
G1 X142.196 Y119.519 E79.09871
G1 X142.755 Y120.250 E79.16983
G1 X143.050 Y120.696 E79.21112
G1 X143.376 Y121.264 E79.26176
G1 X143.778 Y122.108 E79.33401
G1 X144.099 Y122.984 E79.40609
G1 X144.329 Y123.856 E79.47581
G1 X144.433 Y124.396 E79.51835
G1 X144.514 Y125.029 E79.56768
G1 X144.561 Y125.974 E79.64080
G1 X144.561 Y174.026 E83.35473
G1 X144.529 Y174.814 E83.41573
G1 X144.433 Y175.603 E83.47714
G1 X144.276 Y176.382 E83.53851
G1 X144.057 Y177.147 E83.60003
G1 X143.778 Y177.893 E83.66158
G1 X143.376 Y178.736 E83.73377
G1 X142.976 Y179.420 E83.79506
G1 X142.605 Y179.962 E83.84583
G1 X142.277 Y180.382 E83.88699
G1 X141.662 Y181.067 E83.95817
G1 X141.083 Y181.609 E84.01947
G1 X140.461 Y182.106 E84.08100
G1 X139.685 Y182.622 E84.15301
G1 X138.988 Y183.005 E84.21446
G1 X138.159 Y183.372 E84.28456
G1 X137.644 Y183.558 E84.32683
G1 X137.029 Y183.738 E84.37637
G1 X136.256 Y183.907 E84.43754
G1 X135.470 Y184.014 E84.49884
G1 X134.638 Y184.060 E84.56326
G1 X65.281 Y184.058 E89.92386
G1 X64.687 Y184.029 E89.96985
G1 X64.135 Y183.967 E90.01273
G1 X63.353 Y183.829 E90.07413
G1 X62.486 Y183.599 E90.14347
G1 X61.736 Y183.331 E90.20500
G1 X60.889 Y182.943 E90.27703
G1 X60.197 Y182.551 E90.33850
G1 X59.539 Y182.106 E90.39987
G1 X58.818 Y181.522 E90.47161
G1 X58.433 Y181.162 E90.51232
G1 X57.979 Y180.682 E90.56340
G1 X57.476 Y180.069 E90.62471
G1 X56.950 Y179.303 E90.69650
G1 X56.496 Y178.490 E90.76851
G1 X56.128 Y177.659 E90.83875
G1 X55.943 Y177.146 E90.88091
G1 X55.762 Y176.528 E90.93063
G1 X55.567 Y175.602 E91.00383
G1 X55.462 Y174.677 E91.07577
G1 X55.439 Y174.025 E91.12619
G1 X55.442 Y125.779 E94.85513
G1 X55.471 Y125.187 E94.90094
G1 X55.567 Y124.398 E94.96235
G1 X55.694 Y123.750 E95.01337
G1 X55.870 Y123.089 E95.06623
G1 X55.991 Y122.714 E95.09671
G1 X56.278 Y121.978 E95.15782
G1 X56.557 Y121.389 E95.20820
G1 X56.949 Y120.697 E95.26962
G1 X57.314 Y120.150 E95.32044
G1 X57.722 Y119.619 E95.37217
G1 X57.979 Y119.318 E95.40275
G1 X58.527 Y118.748 E95.46391
G1 X59.022 Y118.302 E95.51542
G1 X59.650 Y117.814 E95.57685
G1 X60.197 Y117.449 E95.62772
G1 X60.835 Y117.086 E95.68446
G1 X61.176 Y117.612 F3600.000
G1 X62.062 Y117.213 E95.75961 F900.000
G1 X62.669 Y116.998 E95.80936
G1 X63.267 Y116.831 E95.85735
G1 X64.214 Y116.653 E95.93179
G1 X64.738 Y116.594 E95.97256
G1 X65.433 Y116.564 E96.02632
G1 X134.168 Y116.564 E101.33885
G1 X135.261 Y116.594 E101.42341 F900.000
G1 X136.140 Y116.708 E101.49192
G1 X136.733 Y116.831 E101.53875
G1 X137.236 Y116.970 E101.57903
G1 X138.033 Y117.250 E101.64432
G1 X138.823 Y117.612 E101.71149
G1 X139.578 Y118.047 E101.77881
G1 X140.090 Y118.397 E101.82678
G1 X140.490 Y118.709 E101.86600
G1 X141.127 Y119.282 E101.93225
G1 X141.717 Y119.920 E101.99939
G1 X142.239 Y120.602 E102.06576
G1 X142.520 Y121.026 E102.10508
G1 X142.828 Y121.563 E102.15292
G1 X143.202 Y122.351 E102.22032
G1 X143.502 Y123.168 E102.28761
G1 X143.717 Y123.982 E102.35271
G1 X143.816 Y124.496 E102.39317
G1 X143.893 Y125.095 E102.43982
G1 X143.936 Y125.977 E102.50803
G1 X143.936 Y174.023 E106.22157
G1 X143.906 Y174.763 E106.27881
G1 X143.816 Y175.503 E106.33640
G1 X143.669 Y176.233 E106.39395
G1 X143.464 Y176.950 E106.45163
G1 X143.202 Y177.650 E106.50934
G1 X142.828 Y178.437 E106.57668
G1 X142.453 Y179.079 E106.63415
G1 X142.102 Y179.591 E106.68211
G1 X141.790 Y179.991 E106.72131
G1 X141.216 Y180.630 E106.78774
G1 X140.673 Y181.138 E106.84523
G1 X140.089 Y181.603 E106.90292
G1 X139.365 Y182.086 E106.97016
G1 X138.712 Y182.444 E107.02777
G1 X137.937 Y182.787 E107.09322
G1 X137.448 Y182.964 E107.13344
G1 X136.866 Y183.134 E107.18028
G1 X136.141 Y183.292 E107.23765
G1 X135.404 Y183.393 E107.29513
G1 X134.625 Y183.435 E107.35544
G1 X65.302 Y183.433 E112.71346
G1 X64.738 Y183.406 E112.75709
G1 X64.214 Y183.347 E112.79785
G1 X63.480 Y183.217 E112.85543
G1 X62.670 Y183.002 E112.92018
G1 X61.968 Y182.750 E112.97788
G1 X61.177 Y182.388 E113.04513
G1 X60.528 Y182.020 E113.10277
G1 X59.911 Y181.603 E113.16032
G1 X59.238 Y181.058 E113.22725
G1 X58.871 Y180.716 E113.26605
G1 X58.442 Y180.263 E113.31429
G1 X57.971 Y179.687 E113.37179
G1 X57.480 Y178.973 E113.43876
G1 X57.056 Y178.213 E113.50599
G1 X56.713 Y177.437 E113.57157
G1 X56.536 Y176.949 E113.61167
G1 X56.365 Y176.366 E113.65868
G1 X56.183 Y175.501 E113.72694
G1 X56.085 Y174.638 E113.79411
G1 X56.064 Y174.022 E113.84172
G1 X56.067 Y125.800 E117.56887
G1 X56.094 Y125.238 E117.61234
G1 X56.183 Y124.498 E117.66992
G1 X56.303 Y123.887 E117.71805
G1 X56.470 Y123.264 E117.76790
G1 X56.580 Y122.924 E117.79553
G1 X56.849 Y122.233 E117.85285
G1 X57.112 Y121.676 E117.90045
G1 X57.480 Y121.028 E117.95804
G1 X57.824 Y120.512 E118.00599
G1 X58.209 Y120.011 E118.05482
G1 X58.442 Y119.738 E118.08255
G1 X58.956 Y119.203 E118.13990
G1 X59.423 Y118.781 E118.18853
G1 X60.011 Y118.324 E118.24613
G1 X60.528 Y117.979 E118.29412
G1 X61.123 Y117.641 E118.34704
G1 X61.463 Y118.167 F3600.000
G1 X62.284 Y117.797 E118.41658 F900.000
G1 X62.854 Y117.595 E118.46333
G1 X63.416 Y117.438 E118.50844
G1 X64.292 Y117.273 E118.57735
G1 X64.789 Y117.217 E118.61599
G1 X65.440 Y117.189 E118.66636
G1 X134.158 Y117.188 E123.97763
G1 X135.098 Y117.209 E124.05029 F900.000
G1 X135.902 Y117.300 E124.11282
G1 X136.703 Y117.469 E124.17609
G1 X137.253 Y117.629 E124.22036
G1 X137.716 Y117.797 E124.25846
G1 X138.536 Y118.167 E124.32790
G1 X139.236 Y118.570 E124.39037
G1 X139.806 Y118.966 E124.44398
G1 X140.263 Y119.334 E124.48936
G1 X140.616 Y119.657 E124.52633
G1 X141.165 Y120.236 E124.58799
G1 X141.723 Y120.954 E124.65829
G1 X141.989 Y121.357 E124.69564
G1 X142.279 Y121.863 E124.74068
G1 X142.627 Y122.593 E124.80322
G1 X142.905 Y123.353 E124.86574
G1 X143.105 Y124.109 E124.92622
G1 X143.199 Y124.597 E124.96459
G1 X143.271 Y125.161 E125.00857
G1 X143.312 Y125.979 E125.07186
G1 X143.312 Y174.021 E128.78502
G1 X143.283 Y174.712 E128.83849
G1 X143.200 Y175.403 E128.89226
G1 X143.062 Y176.084 E128.94599
G1 X142.870 Y176.754 E128.99983
G1 X142.627 Y177.407 E129.05370
G1 X142.279 Y178.137 E129.11619
G1 X141.929 Y178.737 E129.16985
G1 X141.600 Y179.219 E129.21500
G1 X141.303 Y179.599 E129.25225
G1 X140.769 Y180.192 E129.31392
G1 X140.262 Y180.666 E129.36759
G1 X139.718 Y181.101 E129.42145
G1 X139.045 Y181.549 E129.48391
G1 X138.435 Y181.884 E129.53770
G1 X137.716 Y182.203 E129.59849
G1 X137.252 Y182.371 E129.63664
