; generated by Slic3r 1.2.9 on 2017-08-19 at 00:05:35

; external perimeters extrusion width = 0.40mm
; perimeters extrusion width = 0.48mm
; infill extrusion width = 0.48mm
; solid infill extrusion width = 0.48mm
; top infill extrusion width = 0.48mm

M107
M190 S70 ; set bed temperature
M104 S240 ; set temperature
G21 ; set units to millimeters
G90 ; use absolute coordinates
M203 Z4; max speed min/sec
G1 Z20 F200;
G28 X F2000;
G1 X140 F2000;
G28 Y F2000;
G1 Y140 F2000;
G28 Z F200;
G1 Z5 F500 ; lift nozzle

M109 S240 ; wait for temperature to be reached
G21 ; set units to millimeters
G90 ; use absolute coordinates
M82 ; use absolute distances for extrusion
G92 E0
G1 Z0.200 F3600.000
G1 E-2.00000 F2400.00000
G92 E0
G1 X93.204 Y159.649 F3600.000
G1 E2.00000 F2400.00000
G1 X93.203 Y160.156 E2.04059 F900.000
G1 X88.264 Y165.086 E2.59901
G1 X72.081 Y165.086 E3.89388
G1 X67.140 Y160.144 E4.45310
G1 X67.146 Y144.545 E5.70129
G1 X72.086 Y139.614 E6.25982
G1 X88.264 Y139.614 E7.55442
G1 X91.342 Y142.686 E7.90237
G1 X91.957 Y142.601 E7.95207
G1 X92.456 Y141.710 E8.03379
G1 X93.053 Y140.793 E8.12134
G1 X93.248 Y140.525 E8.14786
G1 X93.936 Y139.673 E8.23543
G1 X94.688 Y138.879 E8.32300
G1 X95.500 Y138.145 E8.41056
G1 X96.368 Y137.478 E8.49813
G1 X97.002 Y137.054 E8.55921
G1 X97.951 Y136.508 E8.64676
G1 X98.769 Y136.117 E8.71935
G1 X99.245 Y135.911 E8.76084
G1 X100.276 Y135.545 E8.84840
G1 X101.333 Y135.260 E8.93596
G1 X102.409 Y135.060 E9.02354
G1 X103.497 Y134.944 E9.11111
G1 X104.342 Y134.914 E9.17880
G1 X119.173 Y134.917 E10.36556
G1 X120.183 Y134.970 E10.44649
G1 X121.269 Y135.112 E10.53407
G1 X122.339 Y135.338 E10.62163
G1 X123.389 Y135.647 E10.70919
G1 X124.411 Y136.038 E10.79676
G1 X125.399 Y136.508 E10.88432
G1 X126.065 Y136.881 E10.94539
G1 X126.982 Y137.478 E11.03293
G1 X127.250 Y137.673 E11.05946
G1 X128.102 Y138.361 E11.14705
G1 X128.896 Y139.113 E11.23459
G1 X129.630 Y139.925 E11.32217
G1 X133.194 Y144.447 E11.78285
G1 X132.574 Y145.724 E11.89647
G1 X132.548 Y145.927 E11.91282
G1 X132.715 Y146.834 E11.98661
G1 X132.805 Y147.591 E12.04765
G1 X132.858 Y148.601 E12.12858
G1 X132.861 Y155.844 E12.70816
G1 X127.919 Y160.786 E13.26737
G1 X95.431 Y160.786 E15.86705
G1 X93.975 Y159.331 E16.03175
G1 X93.260 Y159.626 E16.09370
G1 X92.582 Y158.143 F3600.000
G1 X92.579 Y159.897 E16.23398 F900.000
G1 X88.005 Y164.461 E16.75103
G1 X72.340 Y164.461 E18.00451
G1 X67.765 Y159.885 E18.52230
G1 X67.770 Y144.805 E19.72901
G1 X72.344 Y140.239 E20.24617
G1 X88.006 Y140.239 E21.49940
G1 X91.531 Y143.758 E21.89795
G1 X92.173 Y143.643 E21.95012
G1 X92.495 Y142.943 E22.01175
G1 X92.995 Y142.026 E22.09538
G1 X93.566 Y141.150 E22.17901
G1 X94.204 Y140.322 E22.26266
G1 X94.904 Y139.546 E22.34630
G1 X95.663 Y138.828 E22.42994
G1 X96.477 Y138.171 E22.51358
G1 X97.339 Y137.580 E22.59723
G1 X98.245 Y137.059 E22.68085
G1 X99.030 Y136.684 E22.75050
G1 X99.473 Y136.493 E22.78904
G1 X100.458 Y136.143 E22.87267
G1 X101.467 Y135.871 E22.95631
G1 X102.494 Y135.679 E23.03996
G1 X103.534 Y135.568 E23.12360
G1 X104.348 Y135.539 E23.18883
G1 X119.155 Y135.542 E24.37363
G1 X120.122 Y135.592 E24.45113
G1 X121.159 Y135.727 E24.53478
G1 X122.182 Y135.942 E24.61841
G1 X122.892 Y136.143 E24.67752
G1 X124.161 Y136.611 E24.78568
G1 X125.105 Y137.059 E24.86932
G1 X125.749 Y137.420 E24.92842
G1 X126.873 Y138.171 E25.03658
G1 X127.687 Y138.828 E25.12024
G1 X128.446 Y139.546 E25.20385
G1 X129.146 Y140.322 E25.28751
G1 X132.461 Y144.526 E25.71589
G1 X131.920 Y145.640 E25.81498
G1 X131.894 Y145.843 E25.83132
G1 X132.096 Y146.919 E25.91896
G1 X132.183 Y147.652 E25.97804
G1 X132.233 Y148.620 E26.05553
G1 X132.236 Y155.585 E26.61292
G1 X127.660 Y160.161 E27.13071
G1 X95.690 Y160.161 E29.68897
G1 X93.353 Y157.825 E29.95333
G1 X92.638 Y158.121 E30.01527
G1 X91.961 Y156.638 F3600.000
G1 X91.955 Y159.637 E30.25525 F900.000
G1 X87.747 Y163.836 E30.73094
G1 X72.599 Y163.836 E31.94302
G1 X68.389 Y159.627 E32.41939
G1 X68.395 Y145.065 E33.58462
G1 X72.603 Y140.864 E34.06040
G1 X87.747 Y140.864 E35.27226
G1 X91.762 Y144.871 E35.72616
G1 X92.429 Y144.725 E35.78085
G1 X92.758 Y143.865 E35.85451
G1 X93.186 Y142.965 E35.93423
G1 X93.682 Y142.101 E36.01394
G1 X94.245 Y141.279 E36.09365
G1 X94.870 Y140.504 E36.17336
G1 X95.554 Y139.780 E36.25307
G1 X96.293 Y139.112 E36.33279
G1 X97.082 Y138.504 E36.41250
G1 X97.917 Y137.959 E36.49222
G1 X98.791 Y137.482 E36.57192
G1 X99.701 Y137.075 E36.65164
G1 X100.639 Y136.741 E36.73135
G1 X101.601 Y136.481 E36.81105
G1 X102.580 Y136.298 E36.89078
G1 X103.570 Y136.192 E36.97049
G1 X104.354 Y136.164 E37.03327
G1 X119.137 Y136.167 E38.21611
G1 X120.061 Y136.214 E38.29017
G1 X121.049 Y136.342 E38.36989
G1 X122.024 Y136.547 E38.44960
G1 X122.711 Y136.741 E38.50674
G1 X123.910 Y137.183 E38.60901
G1 X124.559 Y137.482 E38.66615
G1 X125.433 Y137.959 E38.74586
G1 X126.496 Y138.670 E38.84813
G1 X127.271 Y139.295 E38.92786
G1 X127.995 Y139.979 E39.00755
G1 X128.663 Y140.718 E39.08728
G1 X131.728 Y144.605 E39.48336
G1 X131.260 Y145.571 E39.56920
G1 X131.236 Y145.786 E39.58656
G1 X131.477 Y147.005 E39.68595
G1 X131.583 Y147.995 E39.76565
G1 X131.611 Y148.779 E39.82843
G1 X131.611 Y155.327 E40.35233
G1 X127.402 Y159.536 E40.82870
G1 X95.948 Y159.536 E43.34553
G1 X92.732 Y156.319 E43.70955
G1 X92.016 Y156.615 E43.77150
G1 X91.336 Y155.132 F3600.000
G1 X91.330 Y159.377 E44.11122 F900.000
G1 X87.488 Y163.211 E44.54555
G1 X72.858 Y163.211 E45.71624
G1 X69.014 Y159.368 E46.15118
G1 X69.019 Y145.324 E47.27492
G1 X72.861 Y141.489 E47.70934
G1 X87.489 Y141.489 E48.87982
G1 X91.331 Y145.324 E49.31423
G1 X91.334 Y147.087 E49.45530
G1 X92.460 Y147.197 E49.54587
G1 X92.667 Y146.160 E49.63052
G1 X92.914 Y145.245 E49.70630
G1 X93.232 Y144.353 E49.78208
G1 X93.737 Y143.259 E49.87847
G1 X94.208 Y142.438 E49.95426
G1 X94.743 Y141.656 E50.03004
G1 X95.170 Y141.115 E50.08522
G1 X95.439 Y140.808 E50.11787
G1 X95.987 Y140.230 E50.18162
G1 X96.494 Y139.762 E50.23680
G1 X97.231 Y139.168 E50.31258
G1 X98.013 Y138.633 E50.38838
G1 X99.064 Y138.045 E50.48475
G1 X99.928 Y137.657 E50.56054
G1 X100.575 Y137.419 E50.61571
G1 X101.484 Y137.152 E50.69148
G1 X102.411 Y136.957 E50.76731
G1 X103.350 Y136.836 E50.84309
G1 X104.361 Y136.789 E50.92401
G1 X119.118 Y136.791 E52.10488
G1 X120.000 Y136.836 E52.17551
G1 X120.939 Y136.957 E52.25131
G1 X121.866 Y137.152 E52.32708
G1 X122.530 Y137.339 E52.38226
G1 X123.660 Y137.756 E52.47865
G1 X124.516 Y138.162 E52.55443
G1 X125.117 Y138.499 E52.60960
G1 X126.119 Y139.168 E52.70599
G1 X126.856 Y139.762 E52.78179
G1 X127.545 Y140.412 E52.85755
G1 X128.180 Y141.115 E52.93335
G1 X130.995 Y144.685 E53.29713
G1 X130.595 Y145.509 E53.37042
G1 X130.575 Y145.738 E53.38879
G1 X130.683 Y146.160 E53.42364
G1 X130.818 Y146.836 E53.47885
G1 X130.959 Y148.032 E53.57520
G1 X130.986 Y148.785 E53.63553
G1 X130.986 Y155.068 E54.13823
G1 X127.143 Y158.911 E54.57317
G1 X96.207 Y158.911 E57.04858
G1 X92.108 Y154.812 E57.51247
G1 X91.392 Y155.109 E57.57449
G1 E55.57449 F2400.00000
G92 E0
G1 X97.530 Y142.935 F3600.000
G1 X104.396 Y141.350 F3600.000
G1 X121.889 Y141.643 F3600.000
G1 X123.779 Y142.135 F3600.000
G1 X124.559 Y142.409 F3600.000
G1 X125.084 Y142.615 F3600.000
G1 X125.138 Y142.637 F3600.000
G1 X127.425 Y140.350 F3600.000
G1 X130.262 Y144.764 F3600.000
G1 E2.00000 F2400.00000
G1 X129.929 Y145.450 E2.06098 F900.000
G1 X129.909 Y145.679 E2.07935
G1 X130.073 Y146.293 E2.13026
G1 X130.202 Y146.946 E2.18350
G1 X130.335 Y148.069 E2.27397
G1 X130.361 Y148.792 E2.33184
G1 X130.361 Y154.809 E2.81333
G1 X126.884 Y158.286 E3.20686
G1 X96.466 Y158.286 E5.64084
G1 X92.989 Y154.809 E6.03436
G1 X92.989 Y148.792 E6.51585
G1 X93.033 Y147.836 E6.59237
G1 X93.111 Y147.176 E6.64558
G1 X93.250 Y146.429 E6.70638
G1 X93.332 Y146.067 E6.73609
G1 X93.512 Y145.427 E6.78930
G1 X93.814 Y144.581 E6.86116
G1 X94.182 Y143.762 E6.93303
G1 X94.735 Y142.775 E7.02352
G1 X95.104 Y142.222 E7.07672
G1 X95.567 Y141.620 E7.13754
G1 X95.804 Y141.334 E7.16724
G1 X96.256 Y140.846 E7.22045
G1 X97.086 Y140.078 E7.31095
G1 X97.609 Y139.666 E7.36416
G1 X98.235 Y139.236 E7.42497
G1 X98.549 Y139.038 E7.45468
G1 X99.129 Y138.713 E7.50788
G1 X100.156 Y138.239 E7.59838
G1 X101.002 Y137.937 E7.67024
G1 X101.642 Y137.757 E7.72344
G1 X102.751 Y137.536 E7.81396
G1 X103.644 Y137.440 E7.88581
G1 X104.367 Y137.414 E7.94369
G1 X119.100 Y137.416 E9.12260
G1 X119.938 Y137.458 E9.18979
G1 X120.599 Y137.536 E9.24302
G1 X121.708 Y137.757 E9.33350
G1 X122.570 Y138.009 E9.40536
G1 X123.194 Y138.239 E9.45858
G1 X124.013 Y138.607 E9.53043
G1 X125.000 Y139.160 E9.62093
G1 X125.741 Y139.666 E9.69278
G1 X126.264 Y140.078 E9.74600
G1 X127.094 Y140.846 E9.83649
G1 X127.697 Y141.511 E9.90836
G1 X130.224 Y144.717 E10.23503
G1 X129.529 Y144.844 F3600.000
G1 X129.263 Y145.391 E10.28370 F900.000
G1 X129.243 Y145.620 E10.30206
G1 X129.462 Y146.427 E10.36903
G1 X129.587 Y147.056 E10.42031
G1 X129.711 Y148.106 E10.50489
G1 X129.737 Y148.798 E10.56031
G1 X129.737 Y154.550 E11.02060
G1 X126.625 Y157.662 E11.37270
G1 X96.725 Y157.662 E13.76526
G1 X93.613 Y154.550 E14.11736
G1 X93.613 Y148.798 E14.57764
G1 X93.655 Y147.898 E14.64974
G1 X93.730 Y147.262 E14.70099
G1 X93.888 Y146.427 E14.76893
G1 X94.110 Y145.608 E14.83685
G1 X94.397 Y144.809 E14.90479
G1 X94.745 Y144.034 E14.97273
G1 X95.091 Y143.400 E15.03058
G1 X95.261 Y143.112 E15.05734
G1 X95.740 Y142.411 E15.12527
G1 X96.272 Y141.749 E15.19320
G1 X96.854 Y141.131 E15.26114
G1 X97.483 Y140.561 E15.32907
G1 X98.155 Y140.042 E15.39700
G1 X98.865 Y139.577 E15.46494
G1 X99.610 Y139.169 E15.53286
G1 X100.384 Y138.822 E15.60080
G1 X101.183 Y138.535 E15.66873
G1 X102.002 Y138.313 E15.73665
G1 X102.837 Y138.155 E15.80460
G1 X103.681 Y138.064 E15.87253
G1 X104.492 Y138.038 E15.93747
G1 X118.977 Y138.038 E17.09654 F900.000
G1 X119.669 Y138.064 E17.15195
G1 X120.513 Y138.155 E17.21991
G1 X121.550 Y138.362 E17.30450
G1 X122.365 Y138.600 E17.37244
G1 X122.966 Y138.822 E17.42369
G1 X123.926 Y139.264 E17.50829
G1 X124.485 Y139.577 E17.55954
G1 X125.195 Y140.042 E17.62746
G1 X125.867 Y140.561 E17.69540
G1 X126.496 Y141.131 E17.76334
G1 X127.078 Y141.749 E17.83127
G1 X129.491 Y144.797 E18.14232
G1 X128.796 Y144.923 F3600.000
G1 X128.592 Y145.344 E18.17969 F900.000
G1 X128.575 Y145.585 E18.19907
G1 X128.852 Y146.561 E18.28026
G1 X129.001 Y147.347 E18.34427
G1 X129.087 Y148.142 E18.40827
G1 X129.112 Y148.804 E18.46123
G1 X129.112 Y154.291 E18.90032
G1 X126.366 Y157.037 E19.21100
G1 X96.984 Y157.037 E21.56213
G1 X94.238 Y154.291 E21.87281
G1 X94.238 Y148.804 E22.31189
G1 X94.263 Y148.142 E22.36486
G1 X94.349 Y147.347 E22.42886
G1 X94.476 Y146.673 E22.48377
G1 X94.541 Y146.382 E22.50759
G1 X94.765 Y145.615 E22.57159
G1 X95.049 Y144.867 E22.63560
G1 X95.390 Y144.143 E22.69961
G1 X95.788 Y143.449 E22.76361
G1 X96.130 Y142.937 E22.81289
G1 X96.549 Y142.393 E22.86781
G1 X97.157 Y141.712 E22.94089
G1 X97.739 Y141.164 E23.00489
G1 X98.363 Y140.663 E23.06890
G1 X99.024 Y140.212 E23.13291
G1 X99.882 Y139.732 E23.21162
G1 X100.442 Y139.474 E23.26091
G1 X101.190 Y139.190 E23.32491
G1 X102.136 Y138.923 E23.40363
G1 X102.741 Y138.803 E23.45294
G1 X103.534 Y138.702 E23.51694
G1 X104.379 Y138.663 E23.58461
G1 X118.320 Y138.663 E24.70017
G1 X119.063 Y138.665 E24.75960 F900.000
G1 X119.816 Y138.702 E24.81992
G1 X120.609 Y138.803 E24.88393
G1 X121.393 Y138.966 E24.94793
G1 X121.985 Y139.133 E24.99721
G1 X122.738 Y139.404 E25.06122
G1 X123.468 Y139.732 E25.12522
G1 X124.169 Y140.116 E25.18923
G1 X124.987 Y140.663 E25.26795
G1 X125.611 Y141.164 E25.33196
G1 X126.193 Y141.712 E25.39595
G1 X126.731 Y142.304 E25.45997
G1 X128.758 Y144.876 E25.72203
G1 X128.062 Y145.003 F3600.000
G1 X127.913 Y145.311 E25.74943 F900.000
G1 X127.901 Y145.566 E25.76983
G1 X128.043 Y145.971 E25.80424
G1 X128.241 Y146.695 E25.86431
G1 X128.382 Y147.433 E25.92440
G1 X128.464 Y148.179 E25.98447
G1 X128.487 Y148.810 E26.03498
G1 X128.487 Y154.032 E26.45287
G1 X126.107 Y156.412 E26.72212
G1 X97.243 Y156.412 E29.03183
G1 X94.863 Y154.032 E29.30108
G1 X94.863 Y148.810 E29.71896
G1 X94.899 Y148.020 E29.78223
G1 X94.993 Y147.275 E29.84231
G1 X95.146 Y146.540 E29.90239
G1 X95.356 Y145.819 E29.96246
G1 X95.622 Y145.117 E30.02254
G1 X95.869 Y144.580 E30.06987
G1 X96.231 Y143.922 E30.12994
G1 X96.642 Y143.294 E30.19002
G1 X97.102 Y142.701 E30.25010
G1 X97.607 Y142.145 E30.31018
G1 X98.154 Y141.631 E30.37026
G1 X98.740 Y141.161 E30.43034
G1 X99.361 Y140.739 E30.49042
G1 X100.013 Y140.367 E30.55049
G1 X100.600 Y140.089 E30.60246
G1 X101.546 Y139.732 E30.68338
G1 X102.270 Y139.534 E30.74346
G1 X103.008 Y139.393 E30.80354
G1 X103.754 Y139.311 E30.86362
G1 X104.492 Y139.288 E30.92267
G1 X118.965 Y139.288 E32.08077 F900.000
G1 X119.596 Y139.311 E32.13127
G1 X120.342 Y139.393 E32.19137
G1 X121.235 Y139.571 E32.26419
G1 X121.956 Y139.781 E32.32426
G1 X122.510 Y139.986 E32.37159
G1 X123.195 Y140.294 E32.43166
G1 X123.989 Y140.739 E32.50450
G1 X124.610 Y141.161 E32.56457
G1 X125.074 Y141.527 E32.61189
G1 X125.630 Y142.032 E32.67197
G1 X126.144 Y142.579 E32.73205
G1 X128.025 Y144.956 E32.97457
G1 X127.329 Y145.082 F3600.000
G1 X127.235 Y145.278 E32.99194 F900.000
G1 X127.222 Y145.532 E33.01234
G1 X127.445 Y146.153 E33.06509
G1 X127.631 Y146.829 E33.12124
G1 X127.762 Y147.519 E33.17740
G1 X127.840 Y148.216 E33.23354
G1 X127.862 Y148.816 E33.28160
G1 X127.862 Y153.774 E33.67828
G1 X125.849 Y155.787 E33.90611
G1 X97.501 Y155.787 E36.17440
G1 X95.488 Y153.774 E36.40222
G1 X95.488 Y148.816 E36.79890
G1 X95.510 Y148.216 E36.84696
G1 X95.588 Y147.519 E36.90311
G1 X95.702 Y146.917 E36.95213
G1 X95.946 Y146.024 E37.02618
G1 X96.194 Y145.368 E37.08234
G1 X96.432 Y144.853 E37.12770
G1 X96.726 Y144.316 E37.17672
G1 X97.155 Y143.652 E37.23998
G1 X97.586 Y143.097 E37.29614
G1 X98.058 Y142.578 E37.35229
G1 X98.672 Y142.011 E37.41923
G1 X99.227 Y141.580 E37.47538
G1 X99.813 Y141.195 E37.53154
G1 X100.428 Y140.857 E37.58768
G1 X100.943 Y140.619 E37.63305
G1 X101.728 Y140.330 E37.69999
G1 X102.404 Y140.144 E37.75614
G1 X102.960 Y140.034 E37.80151
G1 X103.791 Y139.935 E37.86844
G1 X104.391 Y139.913 E37.91650
G1 X118.320 Y139.913 E39.03107
G1 X119.026 Y139.914 E39.08756 F900.000
G1 X119.693 Y139.946 E39.14100
G1 X120.390 Y140.034 E39.19716
G1 X121.077 Y140.176 E39.25331
G1 X121.751 Y140.371 E39.30946
G1 X122.283 Y140.568 E39.35482
G1 X122.922 Y140.857 E39.41097
G1 X123.537 Y141.195 E39.46712
G1 X124.233 Y141.660 E39.53406
G1 X124.780 Y142.098 E39.59022
G1 X125.292 Y142.578 E39.64637
G1 X125.764 Y143.097 E39.70252
G1 X127.292 Y145.035 E39.89998
G1 X126.596 Y145.162 F3600.000
G1 X126.551 Y145.255 E39.90823 F900.000
G1 X126.543 Y145.522 E39.92966
G1 X126.813 Y146.229 E39.99019
G1 X126.994 Y146.856 E40.04241
G1 X127.126 Y147.495 E40.09465
G1 X127.216 Y148.253 E40.15569
G1 X127.237 Y148.822 E40.20129
G1 X127.237 Y153.515 E40.57677
G1 X125.590 Y155.162 E40.76317
G1 X97.760 Y155.162 E42.99004
G1 X96.113 Y153.515 E43.17644
G1 X96.113 Y148.822 E43.55192
G1 X96.143 Y148.143 E43.60635
G1 X96.224 Y147.495 E43.65858
G1 X96.356 Y146.856 E43.71080
G1 X96.537 Y146.229 E43.76303
G1 X96.767 Y145.618 E43.81525
G1 X96.994 Y145.126 E43.85865
G1 X97.309 Y144.554 E43.91087
G1 X97.668 Y144.009 E43.96309
G1 X98.069 Y143.494 E44.01533
G1 X98.508 Y143.012 E44.06755
G1 X98.985 Y142.565 E44.11977
G1 X99.495 Y142.158 E44.17200
G1 X100.035 Y141.792 E44.22423
G1 X100.602 Y141.469 E44.27645
G1 X101.193 Y141.192 E44.32868
G1 X101.804 Y140.962 E44.38090
G1 X102.431 Y140.781 E44.43312
G1 X103.070 Y140.649 E44.48536
G1 X103.718 Y140.568 E44.53758
G1 X104.492 Y140.538 E44.59957
G1 X118.953 Y140.538 E45.75668 F900.000
G1 X119.632 Y140.568 E45.81111
G1 X120.171 Y140.632 E45.85452
G1 X120.812 Y140.755 E45.90673
G1 X121.441 Y140.928 E45.95896
G1 X122.157 Y141.192 E46.02001
G1 X122.748 Y141.469 E46.07224
G1 X123.221 Y141.734 E46.11563
G1 X123.855 Y142.158 E46.17668
G1 X124.365 Y142.565 E46.22892
G1 X124.841 Y143.012 E46.28113
G1 X125.210 Y143.410 E46.32453
G1 X126.559 Y145.115 E46.49852
G1 X125.863 Y145.241 F3600.000
G1 X125.855 Y145.532 E46.52181 F900.000
G1 X126.043 Y145.948 E46.55831
G1 X126.223 Y146.434 E46.59974
