; generated by Slic3r 1.2.9 on 2017-08-19 at 00:29:36

; external perimeters extrusion width = 0.40mm
; perimeters extrusion width = 0.48mm
; infill extrusion width = 0.48mm
; solid infill extrusion width = 0.48mm
; top infill extrusion width = 0.48mm

M107
M190 S70 ; set bed temperature
M104 S240 ; set temperature
G21 ; set units to millimeters
G90 ; use absolute coordinates
M203 Z4; max speed min/sec
G1 Z20 F200;
G28 X F2000;
G1 X140 F2000;
G28 Y F2000;
G1 Y140 F2000;
G28 Z F200;
G1 Z5 F500 ; lift nozzle

M109 S240 ; wait for temperature to be reached
G21 ; set units to millimeters
G90 ; use absolute coordinates
M82 ; use absolute distances for extrusion
G92 E0
G1 Z0.200 F3600.000
G1 E-2.00000 F2400.00000
G92 E0
G1 X65.842 Y120.557 F3600.000
G1 E2.00000 F2400.00000
G1 X66.480 Y120.236 E2.05714 F900.000
G1 X67.040 Y119.990 E2.10609
G1 X67.801 Y119.708 E2.17099
G1 X68.484 Y119.500 E2.22814
G1 X69.273 Y119.313 E2.29301
G1 X69.977 Y119.191 E2.35019
G1 X70.783 Y119.102 E2.41511
G1 X71.395 Y119.069 E2.46415
G1 X108.828 Y119.064 E5.45942
G1 X109.716 Y119.101 E5.53052 F900.000
G1 X110.626 Y119.206 E5.60388
G1 X111.526 Y119.378 E5.67715
G1 X112.411 Y119.615 E5.75048
G1 X113.273 Y119.916 E5.82356
G1 X114.115 Y120.281 E5.89697
G1 X114.925 Y120.705 E5.97016
G1 X115.702 Y121.189 E6.04336
G1 X116.442 Y121.728 E6.11669
G1 X117.142 Y122.322 E6.19013
G1 X117.793 Y122.963 E6.26322
G1 X118.397 Y123.652 E6.33652
G1 X118.948 Y124.382 E6.40970
G1 X119.445 Y125.153 E6.48312
G1 X119.881 Y125.954 E6.55604
G1 X120.259 Y126.788 E6.62932
G1 X120.636 Y127.841 E6.71887
G1 X120.895 Y128.826 E6.80032
G1 X121.086 Y129.927 E6.88972
G1 X121.174 Y130.941 E6.97122
G1 X121.186 Y149.698 E8.47209
G1 X121.552 Y150.064 E8.51351
G1 X128.506 Y150.067 E9.06997
G1 X129.521 Y150.129 E9.15129
G1 X130.431 Y150.257 E9.22485
G1 X131.024 Y150.377 E9.27328
G1 X131.759 Y150.570 E9.33407
G1 X132.388 Y150.772 E9.38692
G1 X132.961 Y150.991 E9.43604
G1 X133.521 Y151.236 E9.48498
G1 X134.068 Y151.509 E9.53385
G1 X134.600 Y151.807 E9.58263
G1 X135.116 Y152.131 E9.63141
G1 X135.701 Y152.543 E9.68863
G1 X136.331 Y153.048 E9.75327
G1 X136.863 Y153.529 E9.81063
G1 X137.428 Y154.109 E9.87547
G1 X137.896 Y154.651 E9.93272
G1 X138.384 Y155.291 E9.99714
G1 X138.783 Y155.888 E10.05458
G1 X139.193 Y156.592 E10.11984
G1 X139.512 Y157.225 E10.17653
G1 X139.834 Y157.975 E10.24186
G1 X140.074 Y158.646 E10.29884
G1 X140.301 Y159.428 E10.36398
G1 X140.458 Y160.131 E10.42162
G1 X140.586 Y160.928 E10.48624
G1 X140.656 Y161.638 E10.54334
G1 X140.686 Y162.472 E10.61007
G1 X140.683 Y163.760 E10.71317
G1 X140.656 Y164.363 E10.76147
G1 X140.579 Y165.125 E10.82278
G1 X140.437 Y165.976 E10.89182
G1 X140.249 Y166.767 E10.95685
G1 X139.976 Y167.641 E11.03013
G1 X139.639 Y168.494 E11.10354
G1 X139.242 Y169.317 E11.17665
G1 X138.888 Y169.941 E11.23404
G1 X138.390 Y170.699 E11.30661
G1 X137.896 Y171.349 E11.37196
G1 X137.293 Y172.037 E11.44519
G1 X136.641 Y172.679 E11.51835
G1 X136.097 Y173.148 E11.57587
G1 X135.369 Y173.697 E11.64884
G1 X134.600 Y174.193 E11.72200
G1 X134.063 Y174.494 E11.77123
G1 X133.342 Y174.846 E11.83543
G1 X132.774 Y175.084 E11.88475
G1 X132.201 Y175.292 E11.93355
G1 X131.521 Y175.498 E11.99043
G1 X130.924 Y175.645 E12.03958
G1 X130.321 Y175.762 E12.08871
G1 X129.717 Y175.849 E12.13754
G1 X129.115 Y175.906 E12.18598
G1 X128.327 Y175.936 E12.24902
G1 X118.882 Y175.936 E13.00480
G1 X118.623 Y176.063 E13.02790
G1 X118.199 Y176.586 E13.08181
G1 X117.721 Y177.112 E13.13866
G1 X117.139 Y177.680 E13.20374
G1 X116.602 Y178.144 E13.26049
G1 X116.117 Y178.519 E13.30962
G1 X115.614 Y178.870 E13.35866
G1 X115.094 Y179.196 E13.40782
G1 X114.391 Y179.583 E13.47202
G1 X113.832 Y179.850 E13.52155
G1 X113.177 Y180.121 E13.57828
G1 X112.413 Y180.385 E13.64298
G1 X111.822 Y180.551 E13.69207
G1 X111.127 Y180.707 E13.74907
G1 X110.522 Y180.809 E13.79816
G1 X109.916 Y180.881 E13.84704
G1 X109.109 Y180.931 E13.91173
G1 X71.723 Y180.936 E16.90323
G1 X71.092 Y180.919 E16.95375
G1 X70.479 Y180.871 E17.00301
G1 X69.677 Y180.762 E17.06777
G1 X69.072 Y180.644 E17.11707
G1 X68.386 Y180.473 E17.17360
G1 X67.802 Y180.293 E17.22252
G1 X67.224 Y180.083 E17.27171
G1 X66.486 Y179.767 E17.33599
G1 X65.934 Y179.492 E17.38533
G1 X65.401 Y179.193 E17.43424
G1 X64.884 Y178.869 E17.48304
G1 X64.382 Y178.519 E17.53200
G1 X63.821 Y178.081 E17.58899
G1 X63.360 Y177.680 E17.63786
G1 X62.920 Y177.257 E17.68670
G1 X62.500 Y176.812 E17.73563
G1 X61.978 Y176.191 E17.80056
G1 X61.612 Y175.703 E17.84937
G1 X61.110 Y174.938 E17.92261
G1 X60.665 Y174.138 E17.99586
G1 X60.281 Y173.308 E18.06900
G1 X60.023 Y172.638 E18.12646
G1 X59.751 Y171.767 E18.19952
G1 X59.543 Y170.875 E18.27280
G1 X59.410 Y170.046 E18.33997
G1 X59.332 Y169.162 E18.41100
G1 X59.314 Y168.525 E18.46199
G1 X59.314 Y131.474 E21.42671
G1 X59.352 Y130.532 E21.50218
G1 X59.441 Y129.727 E21.56697
G1 X59.563 Y129.023 E21.62413
G1 X59.751 Y128.233 E21.68912
G1 X59.958 Y127.550 E21.74624
G1 X60.241 Y126.789 E21.81121
G1 X60.531 Y126.135 E21.86845
G1 X60.905 Y125.415 E21.93338
G1 X61.270 Y124.804 E21.99034
G1 X61.731 Y124.132 E22.05554
G1 X62.169 Y123.571 E22.11250
G1 X62.708 Y122.962 E22.17752
G1 X63.213 Y122.457 E22.23468
G1 X63.820 Y121.920 E22.29952
G1 X64.383 Y121.481 E22.35672
G1 X65.053 Y121.021 E22.42171
G1 X65.790 Y120.586 E22.49019
G1 X66.140 Y121.106 F3600.000
G1 X66.744 Y120.802 E22.54426 F900.000
G1 X67.276 Y120.569 E22.59075
G1 X68.000 Y120.300 E22.65258
G1 X68.647 Y120.104 E22.70667
G1 X69.399 Y119.925 E22.76848
G1 X70.065 Y119.810 E22.82258
G1 X70.833 Y119.724 E22.88444
G1 X71.414 Y119.694 E22.93101
G1 X108.774 Y119.689 E25.92045
G1 X109.666 Y119.724 E25.99187 F900.000
G1 X110.531 Y119.824 E26.06155
G1 X111.385 Y119.987 E26.13114
G1 X112.226 Y120.212 E26.20078
G1 X113.226 Y120.570 E26.28575
G1 X114.018 Y120.929 E26.35539
G1 X114.783 Y121.346 E26.42508
G1 X115.513 Y121.817 E26.49463
G1 X116.278 Y122.399 E26.57151
G1 X116.929 Y122.979 E26.64127
G1 X117.534 Y123.604 E26.71085
G1 X118.091 Y124.271 E26.78042
G1 X118.599 Y124.980 E26.85022
G1 X119.050 Y125.720 E26.91957
G1 X119.447 Y126.493 E26.98910
G1 X119.787 Y127.294 E27.05872
G1 X120.067 Y128.121 E27.12857
G1 X120.325 Y129.151 E27.21355
G1 X120.478 Y130.103 E27.29070
G1 X120.556 Y131.162 E27.37573
G1 X120.561 Y150.323 E28.90890
G1 X120.927 Y150.689 E28.95033
G1 X128.494 Y150.691 E29.55585
G1 X129.360 Y150.741 E29.62522
G1 X130.030 Y150.824 E29.67928
G1 X130.601 Y150.925 E29.72566
G1 X131.166 Y151.055 E29.77206
G1 X131.725 Y151.212 E29.81848
G1 X132.320 Y151.412 E29.86873
G1 X132.993 Y151.683 E29.92674
G1 X133.521 Y151.930 E29.97342
G1 X134.030 Y152.200 E30.01951
G1 X134.528 Y152.496 E30.06589
G1 X135.089 Y152.871 E30.11989
G1 X135.706 Y153.339 E30.18185
G1 X136.220 Y153.783 E30.23621
G1 X136.772 Y154.322 E30.29796
G1 X137.350 Y154.970 E30.36742
G1 X137.765 Y155.503 E30.42145
G1 X138.203 Y156.140 E30.48329
G1 X138.550 Y156.720 E30.53744
G1 X138.906 Y157.406 E30.59923
G1 X139.181 Y158.026 E30.65351
G1 X139.479 Y158.838 E30.72278
G1 X139.695 Y159.583 E30.78484
G1 X139.845 Y160.248 E30.83937
G1 X139.967 Y161.008 E30.90096
G1 X140.033 Y161.680 E30.95499
G1 X140.061 Y162.474 E31.01852
G1 X140.059 Y163.748 E31.12050
G1 X140.033 Y164.321 E31.16638
G1 X139.960 Y165.041 E31.22433
G1 X139.825 Y165.851 E31.28998
G1 X139.646 Y166.604 E31.35194
G1 X139.387 Y167.434 E31.42154
G1 X139.066 Y168.245 E31.49126
G1 X138.689 Y169.026 E31.56070
G1 X138.254 Y169.779 E31.63026
G1 X137.850 Y170.380 E31.68819
G1 X137.350 Y171.030 E31.75385
G1 X136.771 Y171.679 E31.82342
G1 X136.150 Y172.281 E31.89266
G1 X135.479 Y172.841 E31.96260
G1 X134.773 Y173.346 E32.03202
G1 X134.109 Y173.756 E32.09446
G1 X133.525 Y174.068 E32.14743
G1 X133.000 Y174.314 E32.19388
G1 X132.456 Y174.537 E32.24087
G1 X131.909 Y174.730 E32.28729
G1 X131.357 Y174.895 E32.33339
G1 X130.791 Y175.035 E32.38006
G1 X130.219 Y175.146 E32.42672
G1 X129.456 Y175.250 E32.48834
G1 X128.879 Y175.294 E32.53460
G1 X128.274 Y175.311 E32.58305
G1 X118.570 Y175.311 E33.35957
G1 X118.305 Y175.445 E33.38332
G1 X117.911 Y175.956 E33.43497
G1 X117.470 Y176.467 E33.48894
G1 X116.929 Y177.021 E33.55097
G1 X116.428 Y177.475 E33.60499
G1 X115.939 Y177.871 E33.65536
G1 X115.352 Y178.294 E33.71329
G1 X114.856 Y178.610 E33.76032
G1 X114.275 Y178.939 E33.81374
G1 X113.757 Y179.198 E33.86012
G1 X113.045 Y179.503 E33.92204
G1 X112.495 Y179.702 E33.96890
G1 X111.852 Y179.897 E34.02263
G1 X111.106 Y180.074 E34.08402
G1 X110.434 Y180.190 E34.13854
G1 X109.858 Y180.259 E34.18496
G1 X109.089 Y180.306 E34.24660
G1 X71.725 Y180.311 E37.23640
G1 X71.126 Y180.295 E37.28435
G1 X70.544 Y180.249 E37.33111
G1 X69.970 Y180.176 E37.37740
G1 X69.257 Y180.045 E37.43543
G1 X68.647 Y179.896 E37.48565
G1 X68.090 Y179.730 E37.53219
G1 X67.543 Y179.537 E37.57855
G1 X67.004 Y179.316 E37.62520
G1 X66.482 Y179.071 E37.67130
G1 X65.889 Y178.755 E37.72508
G1 X65.394 Y178.455 E37.77137
G1 X64.870 Y178.100 E37.82206
G1 X64.294 Y177.661 E37.88000
G1 X63.853 Y177.283 E37.92644
G1 X63.432 Y176.886 E37.97279
G1 X63.031 Y176.467 E38.01920
G1 X62.590 Y175.956 E38.07320
G1 X62.236 Y175.499 E38.11949
G1 X61.797 Y174.859 E38.18160
G1 X61.356 Y174.110 E38.25110
G1 X60.972 Y173.330 E38.32068
G1 X60.645 Y172.523 E38.39039
G1 X60.380 Y171.696 E38.45982
G1 X60.175 Y170.851 E38.52940
G1 X60.030 Y169.968 E38.60104
G1 X59.955 Y169.127 E38.66855
G1 X59.939 Y168.523 E38.71692
G1 X59.939 Y131.476 E41.68135
G1 X59.968 Y130.676 E41.74542
G1 X60.060 Y129.815 E41.81471
G1 X60.175 Y129.149 E41.86880
G1 X60.354 Y128.396 E41.93072
G1 X60.550 Y127.750 E41.98478
G1 X60.820 Y127.024 E42.04668
G1 X61.094 Y126.406 E42.10084
G1 X61.450 Y125.719 E42.16271
G1 X61.796 Y125.142 E42.21661
G1 X62.236 Y124.501 E42.27873
G1 X62.650 Y123.970 E42.33263
G1 X63.163 Y123.390 E42.39458
G1 X63.641 Y122.912 E42.44866
G1 X64.219 Y122.401 E42.51045
G1 X64.753 Y121.985 E42.56458
G1 X65.391 Y121.547 E42.62650
G1 X66.088 Y121.135 E42.69130
G1 X66.438 Y121.655 F3600.000
G1 X67.008 Y121.369 E42.74230 F900.000
G1 X67.511 Y121.148 E42.78632
G1 X68.200 Y120.892 E42.84510
G1 X68.810 Y120.707 E42.89611
G1 X69.524 Y120.537 E42.95486
G1 X70.153 Y120.428 E43.00590
G1 X70.883 Y120.347 E43.06469
G1 X71.433 Y120.318 E43.10879
G1 X108.816 Y120.314 E46.10010
G1 X109.803 Y120.363 E46.17915 F900.000
G1 X110.619 Y120.471 E46.24502
G1 X111.428 Y120.639 E46.31109
G1 X112.217 Y120.864 E46.37678
G1 X112.990 Y121.148 E46.44269
G1 X113.741 Y121.489 E46.50864
G1 X114.465 Y121.884 E46.57464
G1 X115.228 Y122.380 E46.64747
G1 X115.879 Y122.879 E46.71312
G1 X116.495 Y123.429 E46.77919
G1 X117.068 Y124.020 E46.84509
G1 X117.681 Y124.765 E46.92227
G1 X118.177 Y125.478 E46.99177
G1 X118.595 Y126.189 E47.05774
G1 X118.959 Y126.927 E47.12357
G1 X119.268 Y127.692 E47.18966
G1 X119.520 Y128.475 E47.25542
G1 X119.730 Y129.362 E47.32836
G1 X119.878 Y130.361 E47.40916
G1 X119.932 Y131.182 E47.47500
G1 X119.936 Y150.948 E49.05664
G1 X120.302 Y151.314 E49.09807
G1 X128.316 Y151.314 E49.73932
G1 X129.114 Y151.347 E49.80319
G1 X129.848 Y151.428 E49.86229
G1 X130.389 Y151.520 E49.90621
G1 X130.926 Y151.638 E49.95018
G1 X131.456 Y151.783 E49.99418
G1 X131.974 Y151.952 E50.03779
G1 X132.490 Y152.148 E50.08196
G1 X132.994 Y152.369 E50.12597
G1 X133.485 Y152.614 E50.16994
G1 X133.964 Y152.883 E50.21381
G1 X134.501 Y153.224 E50.26475
G1 X135.098 Y153.654 E50.32361
G1 X135.589 Y154.058 E50.37450
G1 X136.190 Y154.620 E50.44035
G1 X136.691 Y155.160 E50.49929
G1 X137.098 Y155.655 E50.55054
G1 X137.574 Y156.320 E50.61598
G1 X137.961 Y156.948 E50.67501
G1 X138.263 Y157.513 E50.72627
G1 X138.602 Y158.261 E50.79203
G1 X138.857 Y158.945 E50.85043
G1 X139.043 Y159.559 E50.90174
G1 X139.213 Y160.277 E50.96075
G1 X139.347 Y161.088 E51.02659
G1 X139.409 Y161.722 E51.07756
G1 X139.436 Y162.476 E51.13789
G1 X139.434 Y163.736 E51.23874
G1 X139.409 Y164.279 E51.28221
G1 X139.341 Y164.957 E51.33679
G1 X139.213 Y165.725 E51.39906
G1 X139.043 Y166.441 E51.45795
G1 X138.797 Y167.227 E51.52387
G1 X138.494 Y167.995 E51.58989
G1 X138.136 Y168.735 E51.65566
G1 X137.724 Y169.448 E51.72154
G1 X137.344 Y170.014 E51.77611
G1 X136.869 Y170.631 E51.83839
G1 X136.321 Y171.245 E51.90428
G1 X135.733 Y171.815 E51.96986
G1 X135.097 Y172.346 E52.03609
G1 X134.429 Y172.825 E52.10185
G1 X133.798 Y173.214 E52.16117
G1 X133.247 Y173.508 E52.21116
G1 X132.749 Y173.742 E52.25515
G1 X132.235 Y173.952 E52.29964
G1 X131.540 Y174.192 E52.35848
G1 X131.011 Y174.340 E52.40243
G1 X130.473 Y174.463 E52.44656
G1 X129.848 Y174.572 E52.49735
G1 X129.302 Y174.637 E52.54130
G1 X128.272 Y174.686 E52.62385
G1 X118.247 Y174.686 E53.42604
G1 X117.976 Y174.827 E53.45045
G1 X117.540 Y175.418 E53.50924
G1 X117.068 Y175.979 E53.56792
G1 X116.627 Y176.442 E53.61909
G1 X116.090 Y176.942 E53.67778
G1 X115.598 Y177.346 E53.72873
G1 X115.154 Y177.672 E53.77278
G1 X114.577 Y178.049 E53.82795
G1 X114.062 Y178.345 E53.87547
G1 X113.493 Y178.631 E53.92646
G1 X112.817 Y178.921 E53.98530
G1 X112.295 Y179.110 E54.02967
G1 X111.689 Y179.293 E54.08036
G1 X110.980 Y179.462 E54.13872
G1 X110.347 Y179.572 E54.19013
G1 X109.801 Y179.637 E54.23410
G1 X109.070 Y179.682 E54.29269
G1 X71.727 Y179.686 E57.28080
G1 X70.697 Y179.637 E57.36332
G1 X70.065 Y179.559 E57.41426
G1 X69.524 Y179.463 E57.45822
G1 X68.990 Y179.340 E57.50210
G1 X68.460 Y179.192 E57.54610
G1 X67.935 Y179.016 E57.59047
G1 X67.254 Y178.743 E57.64915
G1 X66.760 Y178.511 E57.69282
G1 X66.200 Y178.213 E57.74355
G1 X65.732 Y177.929 E57.78739
G1 X65.236 Y177.594 E57.83530
G1 X64.688 Y177.175 E57.89047
G1 X64.270 Y176.818 E57.93446
G1 X63.871 Y176.441 E57.97836
G1 X63.491 Y176.045 E58.02231
G1 X63.075 Y175.563 E58.07324
G1 X62.740 Y175.129 E58.11710
G1 X62.275 Y174.446 E58.18324
G1 X61.864 Y173.734 E58.24900
G1 X61.506 Y172.993 E58.31489
G1 X61.202 Y172.225 E58.38096
G1 X60.957 Y171.441 E58.44669
G1 X60.770 Y170.639 E58.51260
G1 X60.642 Y169.818 E58.57903
G1 X60.575 Y169.005 E58.64437
G1 X60.564 Y131.478 E61.64718
G1 X60.591 Y130.718 E61.70801
G1 X60.678 Y129.903 E61.77364
G1 X60.787 Y129.275 E61.82466
G1 X60.957 Y128.559 E61.88352
G1 X61.142 Y127.949 E61.93450
G1 X61.398 Y127.260 E61.99333
G1 X61.657 Y126.676 E62.04442
G1 X61.996 Y126.024 E62.10323
G1 X62.322 Y125.479 E62.15407
G1 X62.740 Y124.871 E62.21311
G1 X63.131 Y124.370 E62.26395
G1 X63.618 Y123.819 E62.32283
G1 X64.069 Y123.368 E62.37384
G1 X64.619 Y122.882 E62.43257
G1 X65.122 Y122.489 E62.48363
G1 X65.728 Y122.073 E62.54248
G1 X66.386 Y121.684 E62.60359
G1 X66.736 Y122.205 F3600.000
G1 X67.271 Y121.935 E62.65153 F900.000
G1 X67.747 Y121.727 E62.69309
G1 X68.399 Y121.484 E62.74880
G1 X68.973 Y121.310 E62.79675
G1 X69.650 Y121.149 E62.85244
G1 X70.241 Y121.047 E62.90040
G1 X70.933 Y120.970 E62.95613
G1 X71.452 Y120.943 E62.99776
G1 X108.770 Y120.939 E65.98386
G1 X109.566 Y120.970 E66.04762 F900.000
G1 X110.340 Y121.059 E66.10991
G1 X111.236 Y121.236 E66.18301
G1 X112.025 Y121.459 E66.24859
G1 X112.754 Y121.727 E66.31081
G1 X113.463 Y122.049 E66.37307
G1 X114.147 Y122.422 E66.43538
G1 X114.865 Y122.889 E66.50393
G1 X115.480 Y123.360 E66.56593
G1 X116.159 Y123.974 E66.63920
G1 X116.722 Y124.572 E66.70491
G1 X117.210 Y125.178 E66.76714
G1 X117.694 Y125.884 E66.83567
G1 X118.083 Y126.556 E66.89778
G1 X118.422 Y127.257 E66.96009
G1 X118.721 Y128.020 E67.02565
G1 X118.985 Y128.896 E67.09888
G1 X119.149 Y129.654 E67.16098
G1 X119.257 Y130.426 E67.22329
G1 X119.307 Y131.201 E67.28545
G1 X119.311 Y151.573 E68.91556
G1 X119.677 Y151.939 E68.95699
G1 X128.310 Y151.939 E69.64779
G1 X128.986 Y151.964 E69.70187
G1 X129.500 Y152.013 E69.74320
G1 X130.020 Y152.088 E69.78527
G1 X130.522 Y152.186 E69.82614
G1 X131.031 Y152.311 E69.86814
G1 X131.523 Y152.459 E69.90921
G1 X132.013 Y152.632 E69.95079
G1 X132.493 Y152.828 E69.99230
G1 X132.965 Y153.050 E70.03404
G1 X133.421 Y153.291 E70.07526
G1 X133.936 Y153.600 E70.12331
G1 X134.574 Y154.042 E70.18547
G1 X135.116 Y154.475 E70.24098
G1 X135.660 Y154.974 E70.30004
G1 X136.100 Y155.434 E70.35099
G1 X136.553 Y155.973 E70.40732
G1 X137.009 Y156.598 E70.46924
G1 X137.332 Y157.109 E70.51754
G1 X137.666 Y157.716 E70.57302
