; generated by Slic3r 1.2.9 on 2017-08-19 at 00:28:16

; external perimeters extrusion width = 0.40mm
; perimeters extrusion width = 0.48mm
; infill extrusion width = 0.48mm
; solid infill extrusion width = 0.48mm
; top infill extrusion width = 0.48mm

M107
M190 S70 ; set bed temperature
M104 S240 ; set temperature
G21 ; set units to millimeters
G90 ; use absolute coordinates
M203 Z4; max speed min/sec
G1 Z20 F200;
G28 X F2000;
G1 X140 F2000;
G28 Y F2000;
G1 Y140 F2000;
G28 Z F200;
G1 Z5 F500 ; lift nozzle

M109 S240 ; wait for temperature to be reached
G21 ; set units to millimeters
G90 ; use absolute coordinates
M82 ; use absolute distances for extrusion
G92 E0
G1 Z0.200 F3600.000
G1 E-2.00000 F2400.00000
G92 E0
G1 X68.687 Y124.462 F3600.000
G1 E2.00000 F2400.00000
G1 X69.377 Y124.121 E2.06157 F900.000
G1 X70.459 Y123.703 E2.15438
G1 X71.430 Y123.456 E2.23463
G1 X72.422 Y123.325 E2.31469
G1 X72.974 Y123.289 E2.35889
G1 X83.526 Y123.289 E3.20326
G1 X84.077 Y123.325 E3.24746
G1 X85.069 Y123.456 E3.32752 F900.000
G1 X86.041 Y123.703 E3.40776
G1 X87.123 Y124.121 E3.50055
G1 X87.812 Y124.462 E3.56213
G1 X90.091 Y125.861 E3.77608
G1 X92.238 Y129.698 E4.12788
G1 X92.244 Y148.139 E5.60351
G1 X92.610 Y148.505 E5.64493
G1 X131.461 Y148.511 E8.75373
G1 X132.861 Y148.748 E8.86731
G1 X134.159 Y149.201 E8.97732
G1 X135.062 Y149.644 E9.05782
G1 X136.176 Y150.364 E9.16392
G1 X137.170 Y151.258 E9.27094
G1 X138.141 Y152.459 E9.39451
G1 X138.731 Y153.429 E9.48534
G1 X139.383 Y154.924 E9.61588
G1 X139.739 Y156.629 E9.75526
G1 X139.739 Y168.210 E10.68195
G1 X139.502 Y169.611 E10.79561
G1 X139.048 Y170.909 E10.90566
G1 X138.606 Y171.813 E10.98615
G1 X137.886 Y172.926 E11.09225
G1 X136.992 Y173.920 E11.19928
G1 X135.791 Y174.892 E11.32285
G1 X134.821 Y175.481 E11.41369
G1 X133.326 Y176.134 E11.54423
G1 X131.621 Y176.489 E11.68360
G1 X72.539 Y176.489 E16.41116
G1 X71.139 Y176.252 E16.52482
G1 X69.840 Y175.798 E16.63488
G1 X68.937 Y175.356 E16.71538
G1 X67.824 Y174.636 E16.82148
G1 X66.829 Y173.742 E16.92848
G1 X65.858 Y172.541 E17.05205
G1 X65.269 Y171.571 E17.14289
G1 X64.616 Y170.076 E17.27343
G1 X64.260 Y168.371 E17.41280
G1 X64.260 Y129.701 E20.50713
G1 X66.408 Y125.862 E20.85911
G1 X68.636 Y124.494 E21.06830
G1 X68.990 Y125.010 F3600.000
G1 X69.628 Y124.694 E21.12531 F900.000
G1 X70.649 Y124.300 E21.21287
G1 X71.549 Y124.070 E21.28717
G1 X72.484 Y123.947 E21.36263
G1 X72.994 Y123.914 E21.40355
G1 X83.505 Y123.914 E22.24465
G1 X84.016 Y123.947 E22.28557 F900.000
G1 X84.951 Y124.070 E22.36102
G1 X85.850 Y124.300 E22.43532
G1 X86.871 Y124.694 E22.52286
G1 X87.510 Y125.010 E22.57988
G1 X89.625 Y126.309 E22.77851
G1 X91.613 Y129.861 E23.10426
G1 X91.619 Y148.764 E24.61684
G1 X91.985 Y149.130 E24.65826
G1 X131.409 Y149.136 E27.81283
G1 X132.704 Y149.355 E27.91800
G1 X133.918 Y149.779 E28.02082
G1 X134.754 Y150.189 E28.09536
G1 X135.795 Y150.862 E28.19452
G1 X136.716 Y151.690 E28.29360
G1 X137.629 Y152.819 E28.40984
G1 X138.175 Y153.717 E28.49395
G1 X138.785 Y155.115 E28.61597
G1 X139.114 Y156.694 E28.74502
G1 X139.114 Y168.158 E29.66234
G1 X138.894 Y169.454 E29.76758
G1 X138.471 Y170.668 E29.87044
G1 X138.061 Y171.504 E29.94497
G1 X137.388 Y172.545 E30.04412
G1 X136.560 Y173.466 E30.14322
G1 X135.431 Y174.380 E30.25947
G1 X134.532 Y174.925 E30.34358
G1 X133.135 Y175.535 E30.46559
G1 X131.556 Y175.865 E30.59464
G1 X72.592 Y175.865 E35.31282
G1 X71.295 Y175.645 E35.41807
G1 X70.082 Y175.221 E35.52093
G1 X69.245 Y174.811 E35.59547
G1 X68.205 Y174.138 E35.69462
G1 X67.284 Y173.310 E35.79370
G1 X66.370 Y172.181 E35.90994
G1 X65.824 Y171.283 E35.99405
G1 X65.215 Y169.885 E36.11607
G1 X64.885 Y168.306 E36.24512
G1 X64.885 Y129.863 E39.32124
G1 X66.874 Y126.309 E39.64715
G1 X68.938 Y125.041 E39.84103
G1 X69.292 Y125.557 F3600.000
G1 X69.880 Y125.267 E39.89348 F900.000
G1 X70.839 Y124.896 E39.97578
G1 X71.667 Y124.685 E40.04414
G1 X72.545 Y124.570 E40.11499
G1 X73.014 Y124.539 E40.15263
G1 X83.485 Y124.539 E40.99046
G1 X83.954 Y124.570 E41.02811
G1 X84.832 Y124.685 E41.09895 F900.000
G1 X85.660 Y124.896 E41.16730
G1 X86.619 Y125.266 E41.24959
G1 X87.207 Y125.557 E41.30205
G1 X89.159 Y126.756 E41.48537
G1 X90.988 Y130.024 E41.78506
G1 X90.994 Y149.389 E43.33459
G1 X91.360 Y149.755 E43.37600
G1 X131.356 Y149.760 E46.57636
G1 X132.548 Y149.963 E46.67311
G1 X133.676 Y150.357 E46.76875
G1 X134.446 Y150.733 E46.83732
G1 X135.414 Y151.359 E46.92953
G1 X136.261 Y152.121 E47.02069
G1 X137.117 Y153.179 E47.12961
G1 X137.619 Y154.006 E47.20699
G1 X138.186 Y155.306 E47.32047
G1 X138.489 Y156.758 E47.43920
G1 X138.489 Y168.105 E48.34715
G1 X138.287 Y169.298 E48.44397
G1 X137.893 Y170.427 E48.53964
G1 X137.516 Y171.196 E48.60821
G1 X136.890 Y172.164 E48.70042
G1 X136.129 Y173.011 E48.79159
G1 X135.070 Y173.867 E48.90051
G1 X134.244 Y174.369 E48.97789
G1 X132.944 Y174.937 E49.09137
G1 X131.492 Y175.240 E49.21010
G1 X72.645 Y175.240 E53.91891
G1 X71.452 Y175.037 E54.01574
G1 X70.323 Y174.643 E54.11141
G1 X69.553 Y174.266 E54.17999
G1 X68.586 Y173.641 E54.27219
G1 X67.738 Y172.879 E54.36334
G1 X66.882 Y171.821 E54.47226
G1 X66.380 Y170.994 E54.54964
G1 X65.813 Y169.694 E54.66313
G1 X65.510 Y168.242 E54.78185
G1 X65.510 Y130.026 E57.83978
G1 X67.340 Y126.756 E58.13962
G1 X69.241 Y125.589 E58.31818
G1 X69.595 Y126.105 F3600.000
G1 X70.131 Y125.839 E58.36607 F900.000
G1 X71.030 Y125.492 E58.44312
G1 X71.786 Y125.300 E58.50553
G1 X72.606 Y125.192 E58.57177
G1 X73.035 Y125.164 E58.60614
G1 X83.464 Y125.164 E59.44070
G1 X83.893 Y125.192 E59.47507 F900.000
G1 X84.714 Y125.300 E59.54130
G1 X85.470 Y125.492 E59.60371
G1 X86.368 Y125.839 E59.68075
G1 X86.904 Y126.105 E59.72865
G1 X88.693 Y127.203 E59.89666
G1 X90.364 Y130.187 E60.17029
G1 X90.370 Y150.014 E61.75676
G1 X90.736 Y150.380 E61.79818
G1 X131.303 Y150.385 E65.04431
G1 X132.392 Y150.570 E65.13265
G1 X133.435 Y150.934 E65.22110
G1 X134.138 Y151.278 E65.28371
G1 X135.033 Y151.857 E65.36898
G1 X135.806 Y152.553 E65.45221
G1 X136.605 Y153.540 E65.55379
G1 X137.063 Y154.294 E65.62444
G1 X137.588 Y155.496 E65.72941
G1 X137.864 Y156.823 E65.83781
G1 X137.864 Y168.052 E66.73639
G1 X137.680 Y169.142 E66.82479
G1 X137.315 Y170.185 E66.91327
G1 X136.971 Y170.888 E66.97587
G1 X136.393 Y171.783 E67.06114
G1 X135.697 Y172.557 E67.14438
G1 X134.710 Y173.355 E67.24597
G1 X133.955 Y173.813 E67.31662
G1 X132.753 Y174.338 E67.42158
G1 X131.427 Y174.615 E67.52998
G1 X72.697 Y174.615 E72.22942
G1 X71.608 Y174.430 E72.31783
G1 X70.564 Y174.066 E72.40631
G1 X69.861 Y173.722 E72.46892
G1 X68.967 Y173.143 E72.55419
G1 X68.193 Y172.447 E72.63741
G1 X67.395 Y171.460 E72.73900
G1 X66.936 Y170.706 E72.80965
G1 X66.412 Y169.503 E72.91461
G1 X66.135 Y168.177 E73.02301
G1 X66.135 Y130.189 E76.06274
G1 X67.805 Y127.204 E76.33651
G1 X69.544 Y126.136 E76.49975
G1 X69.898 Y126.652 F3600.000
G1 X70.383 Y126.412 E76.54308 F900.000
G1 X71.220 Y126.089 E76.61488
G1 X71.904 Y125.914 E76.67135
G1 X72.668 Y125.814 E76.73298
G1 X73.055 Y125.789 E76.76408
G1 X83.444 Y125.789 E77.59536
G1 X83.832 Y125.814 E77.62646
G1 X84.595 Y125.914 E77.68808 F900.000
G1 X85.279 Y126.089 E77.74455
G1 X86.116 Y126.412 E77.81633
G1 X86.602 Y126.652 E77.85967
G1 X88.228 Y127.651 E78.01237
G1 X89.739 Y130.350 E78.25994
G1 X89.745 Y150.639 E79.88336
G1 X90.111 Y151.005 E79.92477
G1 X131.250 Y151.010 E83.21669
G1 X132.235 Y151.177 E83.29661
G1 X133.194 Y151.512 E83.37787
G1 X133.830 Y151.823 E83.43452
G1 X134.652 Y152.355 E83.51284
G1 X135.352 Y152.984 E83.58815
G1 X136.092 Y153.900 E83.68241
G1 X136.507 Y154.583 E83.74633
G1 X136.989 Y155.687 E83.84276
G1 X137.240 Y156.887 E83.94084
G1 X137.240 Y168.000 E84.83005
G1 X137.072 Y168.985 E84.91003
G1 X136.738 Y169.944 E84.99132
G1 X136.426 Y170.580 E85.04796
G1 X135.895 Y171.402 E85.12628
G1 X135.266 Y172.102 E85.20160
G1 X134.350 Y172.843 E85.29586
G1 X133.667 Y173.257 E85.35978
G1 X132.562 Y173.740 E85.45622
G1 X131.362 Y173.990 E85.55429
G1 X72.750 Y173.990 E90.24436
G1 X71.764 Y173.823 E90.32435
G1 X70.805 Y173.488 E90.40564
G1 X70.169 Y173.177 E90.46229
G1 X69.348 Y172.645 E90.54060
G1 X68.648 Y172.016 E90.61590
G1 X67.907 Y171.100 E90.71016
G1 X67.492 Y170.417 E90.77409
G1 X67.010 Y169.313 E90.87052
G1 X66.760 Y168.113 E90.96860
G1 X66.760 Y130.352 E93.99013
G1 X68.271 Y127.651 E94.23782
G1 X69.847 Y126.684 E94.38575
G1 X70.200 Y127.200 F3600.000
G1 X70.635 Y126.985 E94.42452 F900.000
G1 X71.410 Y126.685 E94.49107
G1 X72.022 Y126.529 E94.54159
G1 X72.729 Y126.436 E94.59861
G1 X73.076 Y126.413 E94.62643
G1 X83.424 Y126.413 E95.45444
G1 X83.771 Y126.436 E95.48227 F900.000
G1 X84.477 Y126.529 E95.53928
G1 X85.089 Y126.685 E95.58981
G1 X85.865 Y126.985 E95.65634
G1 X86.299 Y127.199 E95.69511
G1 X87.762 Y128.098 E95.83250
G1 X89.114 Y130.513 E96.05401
G1 X89.120 Y151.263 E97.71438
G1 X89.486 Y151.629 E97.75580
G1 X131.198 Y151.635 E101.09349
G1 X132.079 Y151.785 E101.16500
G1 X132.953 Y152.090 E101.23907
G1 X133.522 Y152.368 E101.28976
G1 X134.271 Y152.853 E101.36113
G1 X134.897 Y153.416 E101.42851
G1 X135.580 Y154.260 E101.51544
G1 X135.951 Y154.871 E101.57264
G1 X136.391 Y155.878 E101.66054
G1 X136.615 Y156.952 E101.74830
G1 X136.615 Y167.947 E102.62814
G1 X136.465 Y168.829 E102.69970
G1 X136.160 Y169.703 E102.77380
G1 X135.882 Y170.272 E102.82448
G1 X135.397 Y171.021 E102.89585
G1 X134.834 Y171.647 E102.96324
G1 X133.989 Y172.331 E103.05017
G1 X133.378 Y172.702 E103.10736
G1 X132.372 Y173.141 E103.19527
G1 X131.298 Y173.365 E103.28303
G1 X72.802 Y173.365 E107.96372
G1 X71.921 Y173.215 E108.03529
G1 X71.046 Y172.910 E108.10939
G1 X70.477 Y172.632 E108.16008
G1 X69.729 Y172.147 E108.23145
G1 X69.102 Y171.584 E108.29882
G1 X68.419 Y170.740 E108.38575
G1 X68.048 Y170.129 E108.44295
G1 X67.609 Y169.122 E108.53086
G1 X67.385 Y168.048 E108.61861
G1 X67.385 Y130.515 E111.62194
G1 X68.737 Y128.098 E111.84356
G1 X70.149 Y127.231 E111.97618
G1 X70.503 Y127.747 F3600.000
G1 X70.886 Y127.557 E112.01038 F900.000
G1 X71.601 Y127.282 E112.07168
G1 X72.141 Y127.144 E112.11626
G1 X72.790 Y127.058 E112.16867
G1 X73.096 Y127.038 E112.19322
G1 X83.403 Y127.038 E113.01795
G1 X83.709 Y127.058 E113.04251
G1 X84.359 Y127.144 E113.09491 F900.000
G1 X84.898 Y127.282 E113.13949
G1 X85.613 Y127.557 E113.20077
G1 X85.996 Y127.747 E113.23498
G1 X87.296 Y128.545 E113.35706
G1 X88.489 Y130.677 E113.55251
G1 X88.495 Y151.888 E115.24982
G1 X88.861 Y152.254 E115.29124
G1 X131.145 Y152.260 E118.67471
G1 X131.922 Y152.392 E118.73781
G1 X132.712 Y152.667 E118.80470
G1 X133.214 Y152.913 E118.84942
G1 X133.890 Y153.350 E118.91385
G1 X134.442 Y153.847 E118.97330
G1 X135.068 Y154.621 E119.05290
G1 X135.395 Y155.160 E119.10337
G1 X135.792 Y156.069 E119.18275
G1 X135.990 Y157.016 E119.26018
G1 X135.990 Y167.895 E120.13065
G1 X135.858 Y168.673 E120.19379
G1 X135.582 Y169.462 E120.26070
G1 X135.337 Y169.964 E120.30541
G1 X134.899 Y170.640 E120.36984
G1 X134.402 Y171.193 E120.42930
G1 X133.629 Y171.818 E120.50891
G1 X133.090 Y172.146 E120.55937
G1 X132.181 Y172.542 E120.63876
G1 X131.233 Y172.740 E120.71618
G1 X72.855 Y172.740 E125.38751
G1 X72.077 Y172.608 E125.45066
G1 X71.288 Y172.333 E125.51757
G1 X70.786 Y172.087 E125.56229
G1 X70.110 Y171.650 E125.62672
G1 X69.557 Y171.153 E125.68616
G1 X68.931 Y170.379 E125.76576
G1 X68.604 Y169.840 E125.81623
G1 X68.207 Y168.931 E125.89562
G1 X68.010 Y167.984 E125.97304
G1 X68.010 Y130.678 E128.95817
G1 X69.203 Y128.545 E129.15372
G1 X70.452 Y127.778 E129.27103
G1 X70.806 Y128.294 F3600.000
G1 X71.138 Y128.130 E129.30067 F900.000
G1 X71.791 Y127.878 E129.35671
G1 X72.259 Y127.759 E129.39535
G1 X73.117 Y127.663 E129.46439
G1 X83.383 Y127.663 E130.28585
G1 X84.240 Y127.759 E130.35490 F900.000
G1 X84.708 Y127.878 E130.39353
G1 X85.361 Y128.130 E130.44956
G1 X85.693 Y128.294 E130.47921
G1 X86.830 Y128.993 E130.58598
G1 X87.864 Y130.840 E130.75537
G1 X87.870 Y152.513 E132.48963
G1 X88.236 Y152.879 E132.53105
G1 X131.092 Y152.885 E135.96030
G1 X131.766 Y152.999 E136.01498
G1 X132.470 Y153.245 E136.07468
G1 X132.906 Y153.458 E136.11344
G1 X133.509 Y153.848 E136.17092
G1 X133.988 Y154.279 E136.22245
G1 X134.556 Y154.981 E136.29472
G1 X134.839 Y155.448 E136.33846
G1 X135.194 Y156.260 E136.40932
G1 X135.365 Y157.081 E136.47642
G1 X135.365 Y167.842 E137.33752
G1 X135.251 Y168.516 E137.39224
G1 X135.005 Y169.221 E137.45196
G1 X134.792 Y169.656 E137.49071
G1 X134.401 Y170.259 E137.54820
G1 X133.971 Y170.738 E137.59973
G1 X133.269 Y171.306 E137.67201
G1 X132.801 Y171.590 E137.71574
G1 X131.990 Y171.944 E137.78660
G1 X131.169 Y172.115 E137.85370
G1 X72.908 Y172.115 E142.51566
G1 X72.233 Y172.001 E142.57038
G1 X71.529 Y171.755 E142.63010
G1 X71.094 Y171.542 E142.66886
G1 X70.491 Y171.152 E142.72634
G1 X70.012 Y170.721 E142.77787
G1 X69.444 Y170.019 E142.85014
G1 X69.160 Y169.552 E142.89388
G1 X68.806 Y168.740 E142.96474
G1 X68.634 Y167.919 E143.03184
G1 X68.634 Y130.841 E145.99877
G1 X69.669 Y128.993 E146.16825
G1 X70.755 Y128.326 E146.27023
G1 X71.108 Y128.842 F3600.000
G1 X71.389 Y128.703 E146.29532 F900.000
G1 X71.982 Y128.474 E146.34611
G1 X72.377 Y128.373 E146.37880
G1 X73.137 Y128.288 E146.43997
G1 X83.362 Y128.288 E147.25815
G1 X83.587 Y128.303 E147.27616
G1 X84.122 Y128.373 E147.31935 F900.000
G1 X84.518 Y128.474 E147.35204
G1 X85.110 Y128.703 E147.40282
G1 X85.391 Y128.842 E147.42791
G1 X86.365 Y129.440 E147.51936
G1 X87.240 Y131.003 E147.66269
G1 X87.246 Y153.138 E149.43390
G1 X87.612 Y153.504 E149.47532
G1 X131.040 Y153.510 E152.95034
G1 X131.610 Y153.606 E152.99661
G1 X132.229 Y153.823 E153.04913
G1 X132.597 Y154.003 E153.08192
G1 X133.128 Y154.346 E153.13246
G1 X133.533 Y154.710 E153.17606
G1 X134.043 Y155.341 E153.24101
G1 X134.283 Y155.737 E153.27801
G1 X134.595 Y156.451 E153.34034
G1 X134.740 Y157.145 E153.39713
G1 X134.740 Y167.789 E154.24885
G1 X134.643 Y168.360 E154.29515
G1 X134.427 Y168.980 E154.34768
G1 X134.247 Y169.348 E154.38047
G1 X133.904 Y169.878 E154.43101
G1 X133.539 Y170.283 E154.47461
G1 X132.908 Y170.794 E154.53956
G1 X132.513 Y171.034 E154.57657
G1 X131.799 Y171.345 E154.63890
G1 X131.104 Y171.490 E154.69568
G1 X72.960 Y171.490 E159.34826
G1 X72.390 Y171.394 E159.39457
G1 X71.770 Y171.177 E159.44710
G1 X71.402 Y170.997 E159.47990
G1 X70.872 Y170.654 E159.53043
G1 X70.466 Y170.290 E159.57403
G1 X69.956 Y169.659 E159.63897
G1 X69.716 Y169.263 E159.67598
G1 X69.404 Y168.549 E159.73831
G1 X69.259 Y167.855 E159.79510
G1 X69.259 Y131.004 E162.74383
G1 X70.134 Y129.440 E162.88723
G1 X71.057 Y128.873 E162.97390
G1 X71.411 Y129.389 F3600.000
G1 X71.641 Y129.275 E162.99443 F900.000
G1 X72.172 Y129.071 E163.03996
G1 X72.496 Y128.988 E163.06671
G1 X73.158 Y128.913 E163.12000
G1 X83.342 Y128.913 E163.93491
G1 X84.003 Y128.988 E163.98820 F900.000
G1 X84.327 Y129.071 E164.01495
G1 X84.858 Y129.275 E164.06048
G1 X85.088 Y129.389 E164.08100
G1 X85.899 Y129.887 E164.15715
G1 X86.615 Y131.166 E164.27442
G1 X86.621 Y153.763 E166.08257
G1 X86.987 Y154.129 E166.12399
G1 X130.987 Y154.135 E169.64479
G1 X131.453 Y154.214 E169.68265
G1 X131.988 Y154.400 E169.72798
G1 X132.289 Y154.548 E169.75481
G1 X132.747 Y154.844 E169.79840
G1 X133.078 Y155.142 E169.83408
G1 X133.531 Y155.702 E169.89169
G1 X133.728 Y156.025 E169.92197
G1 X133.997 Y156.641 E169.97578
G1 X134.115 Y157.210 E170.02223
G1 X134.115 Y167.737 E170.86459
G1 X134.036 Y168.204 E170.90247
G1 X133.849 Y168.738 E170.94781
G1 X133.702 Y169.040 E170.97464
G1 X133.406 Y169.497 E171.01823
G1 X133.108 Y169.829 E171.05391
G1 X132.548 Y170.281 E171.11153
G1 X132.225 Y170.478 E171.14181
G1 X131.608 Y170.747 E171.19561
G1 X131.040 Y170.865 E171.24207
G1 X73.013 Y170.865 E175.88528
G1 X72.546 Y170.786 E175.92317
G1 X72.011 Y170.600 E175.96850
G1 X71.710 Y170.452 E175.99534
G1 X71.253 Y170.156 E176.03893
G1 X70.921 Y169.858 E176.07460
G1 X70.468 Y169.298 E176.13222
G1 X70.272 Y168.975 E176.16250
G1 X70.003 Y168.359 E176.21630
G1 X69.884 Y167.790 E176.26276
G1 X69.884 Y131.167 E179.19329
G1 X70.600 Y129.887 E179.31062
G1 X71.360 Y129.421 E179.38198
G1 X71.714 Y129.937 F3600.000
G1 X71.893 Y129.848 E179.39794 F900.000
G1 X72.362 Y129.667 E179.43822
