; generated by Slic3r 1.2.9 on 2017-08-21 at 15:55:24

; external perimeters extrusion width = 0.40mm
; perimeters extrusion width = 0.48mm
; infill extrusion width = 0.48mm
; solid infill extrusion width = 0.48mm
; top infill extrusion width = 0.48mm

M107
M190 S70 ; set bed temperature
M104 S240 ; set temperature
G21 ; set units to millimeters
G90 ; use absolute coordinates
M203 Z4; max speed min/sec
G1 Z20 F200;
G28 X F2000;
G1 X140 F2000;
G28 Y F2000;
G1 Y140 F2000;
G28 Z F200;
G1 Z5 F500 ; lift nozzle

M109 S240 ; wait for temperature to be reached
G21 ; set units to millimeters
G90 ; use absolute coordinates
M82 ; use absolute distances for extrusion
G92 E0
G1 Z0.200 F3600.000
G1 E-2.00000 F2400.00000
G92 E0
G1 X91.441 Y137.152 F3600.000
G1 E2.00000 F2400.00000
G1 X92.601 Y136.451 E2.10847 F900.000
G1 X93.290 Y136.107 E2.17012
G1 X94.288 Y135.657 E2.25769
G1 X94.765 Y135.477 E2.29851
G1 X96.059 Y135.073 E2.40692
G1 X96.554 Y134.951 E2.44776
G1 X97.886 Y134.707 E2.55613
G1 X98.393 Y134.646 E2.59693
G1 X99.745 Y134.564 E2.70533
G1 X100.514 Y134.580 E2.76693
G1 X101.607 Y134.646 E2.85455 F900.000
G1 X102.113 Y134.707 E2.89530
G1 X103.446 Y134.951 E3.00377
G1 X104.190 Y135.151 E3.06539
G1 X105.235 Y135.477 E3.15300
G1 X105.712 Y135.658 E3.19381
G1 X106.948 Y136.214 E3.30221
G1 X107.399 Y136.450 E3.34299
G1 X108.559 Y137.151 E3.45143
G1 X109.184 Y137.602 E3.51309
G1 X110.045 Y138.277 E3.60066
G1 X110.427 Y138.615 E3.64145
G1 X111.385 Y139.574 E3.74994
G1 X111.723 Y139.955 E3.79070
G1 X112.559 Y141.022 E3.89912
G1 X112.848 Y141.441 E3.93991
G1 X113.549 Y142.600 E4.04830
G1 X113.786 Y143.052 E4.08912
G1 X114.342 Y144.287 E4.19751
G1 X114.523 Y144.764 E4.23835
G1 X114.926 Y146.057 E4.34671
G1 X115.048 Y146.553 E4.38756
G1 X115.293 Y147.886 E4.49597
G1 X115.354 Y148.392 E4.53680
G1 X115.436 Y149.745 E4.64527
G1 X115.436 Y150.255 E4.68606
G1 X115.354 Y151.606 E4.79439
G1 X115.293 Y152.113 E4.83525
G1 X115.048 Y153.446 E4.94371
G1 X114.926 Y153.942 E4.98450
G1 X114.523 Y155.236 E5.09301
G1 X114.342 Y155.712 E5.13376
G1 X113.893 Y156.710 E5.22128
G1 X113.549 Y157.399 E5.28294
G1 X112.848 Y158.559 E5.39141
G1 X112.559 Y158.979 E5.43218
G1 X111.723 Y160.045 E5.54060
G1 X111.385 Y160.427 E5.58139
G1 X110.427 Y161.385 E5.68985
G1 X110.044 Y161.724 E5.73069
G1 X108.978 Y162.559 E5.83905
G1 X108.336 Y162.983 E5.90071
G1 X107.399 Y163.549 E5.98826
G1 X106.948 Y163.786 E6.02904
G1 X105.712 Y164.342 E6.13747
G1 X105.236 Y164.523 E6.17822
G1 X103.942 Y164.926 E6.28672
G1 X103.446 Y165.048 E6.32752
G1 X102.114 Y165.293 E6.43595
G1 X101.607 Y165.354 E6.47676
G1 X100.255 Y165.436 E6.58517
G1 X99.745 Y165.436 E6.62596
G1 X98.392 Y165.354 E6.73442
G1 X97.886 Y165.293 E6.77526
G1 X96.553 Y165.048 E6.88366
G1 X96.057 Y164.926 E6.92452
G1 X94.764 Y164.523 E7.03288
G1 X94.287 Y164.342 E7.07371
G1 X93.052 Y163.786 E7.18209
G1 X92.601 Y163.549 E7.22289
G1 X91.441 Y162.848 E7.33131
G1 X90.816 Y162.398 E7.39296
G1 X89.955 Y161.723 E7.48052
G1 X89.573 Y161.385 E7.52132
G1 X88.616 Y160.427 E7.62969
G1 X88.277 Y160.045 E7.67052
G1 X87.441 Y158.978 E7.77901
G1 X87.152 Y158.559 E7.81978
G1 X86.585 Y157.622 E7.90734
G1 X86.214 Y156.948 E7.96900
G1 X85.657 Y155.712 E8.07743
G1 X85.477 Y155.235 E8.11821
G1 X85.074 Y153.942 E8.22662
G1 X84.952 Y153.447 E8.26743
G1 X84.707 Y152.114 E8.37586
G1 X84.646 Y151.608 E8.41666
G1 X84.564 Y150.255 E8.52511
G1 X84.564 Y149.745 E8.56590
G1 X84.646 Y148.392 E8.67439
G1 X84.707 Y147.886 E8.71514
G1 X84.951 Y146.554 E8.82349
G1 X85.073 Y146.059 E8.86433
G1 X85.477 Y144.765 E8.97277
G1 X85.657 Y144.288 E9.01357
G1 X86.214 Y143.052 E9.12202
G1 X86.451 Y142.601 E9.16280
G1 X87.017 Y141.664 E9.25036
G1 X87.441 Y141.021 E9.31202
G1 X88.277 Y139.955 E9.42043
G1 X88.615 Y139.573 E9.46123
G1 X89.573 Y138.615 E9.56967
G1 X89.955 Y138.277 E9.61047
G1 X91.021 Y137.441 E9.71888
G1 X91.391 Y137.186 E9.75485
G1 X91.780 Y137.677 F3600.000
G1 X92.908 Y136.995 E9.86030 F900.000
G1 X93.547 Y136.676 E9.91741
G1 X94.527 Y136.235 E10.00347
G1 X94.969 Y136.068 E10.04127
G1 X96.226 Y135.676 E10.14666
G1 X96.685 Y135.563 E10.18447
G1 X97.980 Y135.325 E10.28983
G1 X98.449 Y135.268 E10.32761
G1 X99.764 Y135.189 E10.43298
G1 X100.235 Y135.189 E10.47070
G1 X101.551 Y135.268 E10.57618 F900.000
G1 X102.019 Y135.325 E10.61392
G1 X103.315 Y135.563 E10.71936
G1 X104.004 Y135.748 E10.77645
G1 X105.031 Y136.068 E10.86255
G1 X105.473 Y136.235 E10.90033
G1 X106.674 Y136.776 E11.00572
G1 X107.092 Y136.995 E11.04347
G1 X108.219 Y137.676 E11.14889
G1 X108.798 Y138.094 E11.20598
G1 X109.645 Y138.757 E11.29208
G1 X109.998 Y139.070 E11.32985
G1 X110.930 Y140.002 E11.43531
G1 X111.243 Y140.355 E11.47305
G1 X112.055 Y141.392 E11.57845
G1 X112.323 Y141.781 E11.61622
G1 X113.005 Y142.908 E11.72160
G1 X113.224 Y143.326 E11.75939
G1 X113.765 Y144.527 E11.86476
G1 X113.932 Y144.968 E11.90257
G1 X114.324 Y146.225 E12.00792
G1 X114.437 Y146.684 E12.04575
G1 X114.675 Y147.980 E12.15113
G1 X114.732 Y148.449 E12.18894
G1 X114.811 Y149.764 E12.29438
G1 X114.811 Y150.236 E12.33215
G1 X114.732 Y151.550 E12.43747
G1 X114.675 Y152.019 E12.47530
G1 X114.437 Y153.315 E12.58073
G1 X114.324 Y153.774 E12.61851
G1 X113.932 Y155.032 E12.72398
G1 X113.765 Y155.473 E12.76172
G1 X113.324 Y156.453 E12.84773
G1 X113.005 Y157.092 E12.90486
G1 X112.323 Y158.220 E13.01031
G1 X112.055 Y158.608 E13.04806
G1 X111.243 Y159.645 E13.15345
G1 X110.930 Y159.998 E13.19123
G1 X109.998 Y160.930 E13.29666
G1 X109.644 Y161.243 E13.33448
G1 X108.608 Y162.055 E13.43982
G1 X108.012 Y162.449 E13.49694
G1 X107.092 Y163.005 E13.58298
G1 X106.674 Y163.224 E13.62075
G1 X105.473 Y163.765 E13.72615
G1 X105.032 Y163.932 E13.76388
G1 X103.774 Y164.324 E13.86936
G1 X103.315 Y164.437 E13.90713
G1 X102.020 Y164.675 E14.01254
G1 X101.551 Y164.732 E14.05033
G1 X100.236 Y164.811 E14.15572
G1 X99.764 Y164.811 E14.19349
G1 X98.449 Y164.732 E14.29893
G1 X97.980 Y164.675 E14.33674
G1 X96.684 Y164.437 E14.44212
G1 X96.225 Y164.324 E14.47995
G1 X94.968 Y163.932 E14.58530
G1 X94.527 Y163.765 E14.62310
G1 X93.326 Y163.224 E14.72847
G1 X92.908 Y163.005 E14.76625
G1 X91.781 Y162.323 E14.87164
G1 X91.202 Y161.906 E14.92876
G1 X90.355 Y161.243 E15.01481
G1 X90.002 Y160.930 E15.05258
G1 X89.071 Y159.999 E15.15794
G1 X88.757 Y159.645 E15.19575
G1 X87.945 Y158.608 E15.30121
G1 X87.677 Y158.219 E15.33896
G1 X87.120 Y157.299 E15.42501
G1 X86.776 Y156.674 E15.48213
G1 X86.235 Y155.472 E15.58755
G1 X86.068 Y155.031 E15.62531
G1 X85.676 Y153.774 E15.73070
G1 X85.563 Y153.315 E15.76848
G1 X85.325 Y152.020 E15.87389
G1 X85.268 Y151.551 E15.91167
G1 X85.189 Y150.236 E16.01710
G1 X85.189 Y149.764 E16.05486
G1 X85.269 Y148.448 E16.16033
G1 X85.325 Y147.980 E16.19806
G1 X85.563 Y146.685 E16.30340
G1 X85.676 Y146.226 E16.34121
G1 X86.068 Y144.969 E16.44662
G1 X86.235 Y144.527 E16.48440
G1 X86.776 Y143.326 E16.58983
G1 X86.995 Y142.908 E16.62759
G1 X87.551 Y141.988 E16.71363
G1 X87.945 Y141.392 E16.77077
G1 X88.757 Y140.355 E16.87616
G1 X89.070 Y140.002 E16.91394
G1 X90.002 Y139.070 E17.01935
G1 X90.355 Y138.757 E17.05713
G1 X91.392 Y137.945 E17.16252
G1 X91.731 Y137.711 E17.19547
G1 X92.120 Y138.202 F3600.000
G1 X93.215 Y137.540 E17.29789 F900.000
G1 X93.803 Y137.246 E17.35048
G1 X94.767 Y136.813 E17.43503
G1 X95.173 Y136.659 E17.46980
G1 X96.394 Y136.278 E17.57217
G1 X96.816 Y136.174 E17.60696
G1 X98.074 Y135.943 E17.70930
G1 X98.506 Y135.891 E17.74405
G1 X99.783 Y135.814 E17.84641
G1 X100.439 Y135.827 E17.89896
G1 X101.494 Y135.891 E17.98354 F900.000
G1 X101.925 Y135.943 E18.01826
G1 X103.184 Y136.174 E18.12068
G1 X103.819 Y136.344 E18.17328
G1 X104.828 Y136.659 E18.25782
G1 X105.234 Y136.813 E18.29258
G1 X106.400 Y137.338 E18.39495
G1 X106.785 Y137.539 E18.42968
G1 X107.880 Y138.201 E18.53208
G1 X108.413 Y138.586 E18.58464
G1 X109.245 Y139.237 E18.66922
G1 X109.570 Y139.525 E18.70397
G1 X110.475 Y140.431 E18.80641
G1 X110.763 Y140.755 E18.84113
G1 X111.552 Y141.763 E18.94351
G1 X111.798 Y142.120 E18.97826
G1 X112.460 Y143.215 E19.08061
G1 X112.662 Y143.599 E19.11538
G1 X113.187 Y144.766 E19.21774
G1 X113.341 Y145.172 E19.25252
G1 X113.722 Y146.393 E19.35485
G1 X113.826 Y146.816 E19.38965
G1 X114.057 Y148.074 E19.49202
G1 X114.109 Y148.505 E19.52680
G1 X114.186 Y149.783 E19.62922
G1 X114.186 Y150.217 E19.66396
G1 X114.109 Y151.493 E19.76627
G1 X114.057 Y151.925 E19.80107
G1 X113.826 Y153.184 E19.90348
G1 X113.722 Y153.606 E19.93824
G1 X113.341 Y154.828 E20.04069
G1 X113.187 Y155.234 E20.07540
G1 X112.754 Y156.197 E20.15991
G1 X112.460 Y156.785 E20.21250
G1 X111.798 Y157.880 E20.31492
G1 X111.552 Y158.238 E20.34965
G1 X110.763 Y159.245 E20.45203
G1 X110.475 Y159.570 E20.48678
G1 X109.570 Y160.475 E20.58919
G1 X109.244 Y160.763 E20.62398
G1 X108.237 Y161.552 E20.72631
G1 X107.689 Y161.914 E20.77891
G1 X106.785 Y162.460 E20.86343
G1 X106.401 Y162.662 E20.89817
G1 X105.234 Y163.187 E21.00056
G1 X104.828 Y163.341 E21.03527
G1 X103.606 Y163.722 E21.13772
G1 X103.184 Y163.826 E21.17247
G1 X101.925 Y164.057 E21.27486
G1 X101.494 Y164.109 E21.30962
G1 X100.217 Y164.186 E21.41199
G1 X99.783 Y164.186 E21.44674
G1 X98.505 Y164.109 E21.54916
G1 X98.074 Y164.057 E21.58394
G1 X96.816 Y163.826 E21.68631
G1 X96.393 Y163.722 E21.72111
G1 X95.172 Y163.341 E21.82344
G1 X94.766 Y163.187 E21.85822
G1 X93.600 Y162.662 E21.96056
G1 X93.215 Y162.460 E21.99532
G1 X92.120 Y161.798 E22.09770
G1 X91.587 Y161.414 E22.15029
G1 X90.755 Y160.763 E22.23483
G1 X90.430 Y160.475 E22.26958
G1 X89.526 Y159.570 E22.37191
G1 X89.238 Y159.245 E22.40670
G1 X88.448 Y158.237 E22.50914
G1 X88.202 Y157.880 E22.54387
G1 X87.655 Y156.976 E22.62840
G1 X87.338 Y156.400 E22.68100
G1 X86.813 Y155.233 E22.78339
G1 X86.659 Y154.827 E22.81812
G1 X86.278 Y153.606 E22.92050
G1 X86.174 Y153.184 E22.95526
G1 X85.943 Y151.926 E23.05764
G1 X85.891 Y151.494 E23.09240
G1 X85.814 Y150.217 E23.19481
G1 X85.814 Y149.783 E23.22955
G1 X85.891 Y148.505 E23.33199
G1 X85.943 Y148.074 E23.36670
G1 X86.174 Y146.816 E23.46902
G1 X86.278 Y146.394 E23.50381
G1 X86.659 Y145.173 E23.60620
G1 X86.813 Y144.767 E23.64096
G1 X87.338 Y143.599 E23.74337
G1 X87.540 Y143.215 E23.77811
G1 X88.086 Y142.311 E23.86264
G1 X88.448 Y141.762 E23.91524
G1 X89.237 Y140.755 E24.01761
G1 X89.525 Y140.430 E24.05237
G1 X90.430 Y139.525 E24.15476
G1 X90.755 Y139.237 E24.18951
G1 X91.762 Y138.448 E24.29189
G1 X92.070 Y138.236 E24.32181
G1 X92.459 Y138.727 F3600.000
G1 X93.522 Y138.084 E24.42121 F900.000
G1 X94.060 Y137.816 E24.46927
G1 X95.006 Y137.390 E24.55230
G1 X95.377 Y137.249 E24.58405
G1 X96.562 Y136.880 E24.68340
G1 X96.948 Y136.785 E24.71516
G1 X98.169 Y136.561 E24.81449
G1 X98.562 Y136.514 E24.84622
G1 X99.801 Y136.439 E24.94556
G1 X100.197 Y136.439 E24.97724
G1 X101.438 Y136.514 E25.07667 F900.000
G1 X101.831 Y136.561 E25.10837
G1 X103.053 Y136.785 E25.20776
G1 X103.633 Y136.941 E25.25579
G1 X104.624 Y137.250 E25.33886
G1 X104.994 Y137.390 E25.37060
G1 X106.127 Y137.900 E25.46994
G1 X106.478 Y138.084 E25.50166
G1 X107.540 Y138.726 E25.60103
G1 X108.027 Y139.078 E25.64906
G1 X108.844 Y139.718 E25.73213
G1 X109.141 Y139.981 E25.76386
G1 X110.020 Y140.859 E25.86327
G1 X110.282 Y141.156 E25.89497
G1 X111.048 Y142.133 E25.99433
G1 X111.273 Y142.459 E26.02606
G1 X111.916 Y143.522 E26.12539
G1 X112.100 Y143.873 E26.15714
G1 X112.610 Y145.005 E26.25648
G1 X112.750 Y145.376 E26.28823
G1 X113.120 Y146.561 E26.38755
G1 X113.215 Y146.947 E26.41932
G1 X113.438 Y148.168 E26.51867
G1 X113.486 Y148.562 E26.55043
G1 X113.561 Y149.802 E26.64982
G1 X113.561 Y150.198 E26.68155
G1 X113.486 Y151.437 E26.78084
G1 X113.439 Y151.831 E26.81261
G1 X113.215 Y153.053 E26.91200
G1 X113.120 Y153.438 E26.94373
G1 X112.750 Y154.624 E27.04315
G1 X112.610 Y154.994 E27.07485
G1 X112.184 Y155.940 E27.15785
G1 X111.916 Y156.478 E27.20591
G1 X111.273 Y157.541 E27.30531
G1 X111.048 Y157.867 E27.33702
G1 X110.282 Y158.844 E27.43637
G1 X110.019 Y159.141 E27.46810
G1 X109.141 Y160.019 E27.56749
G1 X108.844 Y160.283 E27.59926
G1 X107.867 Y161.048 E27.69857
G1 X107.366 Y161.379 E27.74663
G1 X106.478 Y161.916 E27.82965
G1 X106.127 Y162.100 E27.86137
G1 X104.994 Y162.610 E27.96073
G1 X104.624 Y162.750 E27.99242
G1 X103.438 Y163.120 E28.09185
G1 X103.053 Y163.215 E28.12358
G1 X101.831 Y163.439 E28.22295
G1 X101.438 Y163.486 E28.25468
G1 X100.198 Y163.561 E28.35403
G1 X99.802 Y163.561 E28.38576
G1 X98.562 Y163.486 E28.48515
G1 X98.168 Y163.438 E28.51691
G1 X96.947 Y163.215 E28.61626
G1 X96.561 Y163.120 E28.64803
G1 X95.376 Y162.750 E28.74735
G1 X95.005 Y162.610 E28.77910
G1 X93.873 Y162.100 E28.87843
G1 X93.522 Y161.916 E28.91017
G1 X92.460 Y161.273 E29.00952
G1 X91.972 Y160.922 E29.05758
G1 X91.156 Y160.282 E29.14061
G1 X90.859 Y160.019 E29.17233
G1 X89.981 Y159.142 E29.27166
G1 X89.718 Y158.845 E29.30341
G1 X88.952 Y157.867 E29.40283
G1 X88.727 Y157.540 E29.43454
G1 X88.190 Y156.653 E29.51756
G1 X87.900 Y156.127 E29.56562
G1 X87.390 Y154.994 E29.66500
G1 X87.250 Y154.623 E29.69671
G1 X86.880 Y153.438 E29.79606
G1 X86.785 Y153.053 E29.82780
G1 X86.561 Y151.832 E29.92716
G1 X86.514 Y151.438 E29.95890
G1 X86.439 Y150.198 E30.05828
G1 X86.439 Y149.802 E30.09000
G1 X86.514 Y148.561 E30.18942
G1 X86.561 Y148.168 E30.22111
G1 X86.785 Y146.948 E30.32042
G1 X86.880 Y146.562 E30.35218
G1 X87.250 Y145.377 E30.45155
G1 X87.390 Y145.006 E30.48328
G1 X87.900 Y143.873 E30.58267
G1 X88.084 Y143.522 E30.61439
G1 X88.621 Y142.634 E30.69740
G1 X88.952 Y142.133 E30.74547
G1 X89.718 Y141.156 E30.84483
G1 X89.981 Y140.859 E30.87656
G1 X90.859 Y139.981 E30.97593
G1 X91.156 Y139.718 E31.00766
G1 X92.133 Y138.952 E31.10702
G1 X92.410 Y138.761 E31.13392
G1 X92.799 Y139.252 F3600.000
G1 X93.829 Y138.629 E31.23030 F900.000
G1 X94.316 Y138.386 E31.27383
G1 X95.245 Y137.968 E31.35535
G1 X95.581 Y137.840 E31.38407
G1 X96.730 Y137.482 E31.48040
G1 X97.079 Y137.396 E31.50914
G1 X98.263 Y137.179 E31.60544
G1 X98.619 Y137.136 E31.63415
G1 X99.820 Y137.064 E31.73047
G1 X100.364 Y137.075 E31.77397
G1 X101.381 Y137.136 E31.85552 F900.000
G1 X101.737 Y137.179 E31.88420
G1 X102.922 Y137.397 E31.98057
G1 X103.447 Y137.537 E32.02408
G1 X104.420 Y137.841 E32.10563
G1 X104.755 Y137.968 E32.13434
G1 X105.853 Y138.462 E32.23067
G1 X106.170 Y138.629 E32.25936
G1 X107.201 Y139.251 E32.35571
G1 X107.642 Y139.569 E32.39922
G1 X108.444 Y140.198 E32.48077
G1 X108.713 Y140.436 E32.50947
G1 X109.564 Y141.288 E32.60586
G1 X109.802 Y141.556 E32.63454
G1 X110.545 Y142.504 E32.73088
G1 X110.748 Y142.799 E32.75958
G1 X111.371 Y143.829 E32.85590
G1 X111.538 Y144.147 E32.88463
G1 X112.032 Y145.244 E32.98094
G1 X112.159 Y145.580 E33.00968
G1 X112.517 Y146.729 E33.10597
G1 X112.603 Y147.078 E33.13472
G1 X112.820 Y148.262 E33.23105
G1 X112.864 Y148.619 E33.25978
G1 X112.936 Y149.821 E33.35615
G1 X112.936 Y150.179 E33.38485
G1 X112.864 Y151.380 E33.48113
G1 X112.821 Y151.737 E33.50988
G1 X112.603 Y152.922 E33.60625
G1 X112.518 Y153.270 E33.63496
G1 X112.159 Y154.420 E33.73135
G1 X112.032 Y154.755 E33.76003
G1 X111.614 Y155.684 E33.84152
G1 X111.371 Y156.171 E33.88505
G1 X110.748 Y157.201 E33.98142
G1 X110.545 Y157.496 E34.01011
G1 X109.802 Y158.444 E34.10644
G1 X109.564 Y158.713 E34.13515
G1 X108.713 Y159.564 E34.23152
G1 X108.444 Y159.802 E34.26026
G1 X107.496 Y160.545 E34.35655
G1 X107.042 Y160.844 E34.40008
G1 X106.171 Y161.371 E34.48159
G1 X105.853 Y161.538 E34.51029
G1 X104.755 Y162.032 E34.60663
G1 X104.420 Y162.159 E34.63531
G1 X103.270 Y162.518 E34.73170
G1 X102.922 Y162.603 E34.76041
G1 X101.737 Y162.821 E34.85676
G1 X101.381 Y162.864 E34.88547
G1 X100.179 Y162.936 E34.98180
G1 X99.821 Y162.936 E35.01051
G1 X98.619 Y162.864 E35.10688
G1 X98.262 Y162.820 E35.13561
G1 X97.078 Y162.603 E35.23193
G1 X96.729 Y162.517 E35.26069
G1 X95.580 Y162.159 E35.35698
G1 X95.244 Y162.032 E35.38571
G1 X94.147 Y161.538 E35.48202
G1 X93.829 Y161.371 E35.51074
G1 X92.799 Y160.748 E35.60707
G1 X92.358 Y160.430 E35.65061
G1 X91.556 Y159.802 E35.73211
G1 X91.287 Y159.564 E35.76082
G1 X90.436 Y158.713 E35.85712
G1 X90.198 Y158.444 E35.88586
G1 X89.455 Y157.496 E35.98224
G1 X89.252 Y157.201 E36.01094
G1 X88.725 Y156.329 E36.09244
