; generated by Slic3r 1.2.9 on 2017-08-20 at 19:16:33

; external perimeters extrusion width = 0.40mm
; perimeters extrusion width = 0.48mm
; infill extrusion width = 0.48mm
; solid infill extrusion width = 0.48mm
; top infill extrusion width = 0.48mm

M107
M190 S70 ; set bed temperature
M104 S240 ; set temperature
G21 ; set units to millimeters
G90 ; use absolute coordinates
M203 Z4; max speed min/sec
G1 Z20 F200;
G28 X F2000;
G1 X140 F2000;
G28 Y F2000;
G1 Y140 F2000;
G28 Z F200;
G1 Z5 F500 ; lift nozzle

M109 S240 ; wait for temperature to be reached
G21 ; set units to millimeters
G90 ; use absolute coordinates
M82 ; use absolute distances for extrusion
G92 E0
G1 Z0.200 F3600.000
G1 E-2.00000 F2400.00000
G92 E0
G1 X79.986 Y38.983 F3600.000
G1 E2.00000 F2400.00000
G1 X80.325 Y38.349 E2.05751 F900.000
G1 X80.697 Y37.736 E2.11488
G1 X81.100 Y37.143 E2.17224
G1 X81.534 Y36.574 E2.22955
G1 X81.999 Y36.027 E2.28699
G1 X82.492 Y35.506 E2.34432
G1 X83.012 Y35.012 E2.40177
G1 X83.734 Y34.407 E2.47711
G1 X84.311 Y33.981 E2.53453
G1 X84.910 Y33.586 E2.59191
G1 X85.529 Y33.224 E2.64928
G1 X86.166 Y32.896 E2.70667
G1 X86.821 Y32.602 E2.76405
G1 X87.489 Y32.343 E2.82138
G1 X88.170 Y32.121 E2.87877
G1 X88.864 Y31.935 E2.93619
G1 X89.934 Y31.725 E3.02347
G1 X90.763 Y31.621 E3.09035
G1 X91.703 Y31.567 E3.16564
G1 X92.420 Y31.570 E3.22306
G1 X93.508 Y31.650 E3.31030
G1 X94.335 Y31.768 E3.37717
G1 X95.038 Y31.911 E3.43460
G1 X95.947 Y32.156 E3.50989
G1 X96.627 Y32.385 E3.56731
G1 X97.293 Y32.650 E3.62468
G1 X97.742 Y32.852 E3.66408
G1 X98.381 Y33.175 E3.72141
G1 X99.003 Y33.533 E3.77882
G1 X99.790 Y34.052 E3.85421
G1 X100.363 Y34.483 E3.91159
G1 X100.742 Y34.796 E3.95093
G1 X101.436 Y35.434 E4.02634
G1 X102.103 Y36.135 E4.10383
G1 X102.652 Y36.133 E4.14773
G1 X103.242 Y35.506 E4.21660
G1 X103.762 Y35.012 E4.27406
G1 X104.307 Y34.547 E4.33134
G1 X104.877 Y34.111 E4.38879
G1 X105.470 Y33.707 E4.44621
G1 X106.083 Y33.334 E4.50357
G1 X106.715 Y32.995 E4.56100
G1 X107.364 Y32.690 E4.61837
G1 X108.239 Y32.343 E4.69366
G1 X108.920 Y32.121 E4.75105
G1 X109.614 Y31.935 E4.80847
G1 X110.315 Y31.786 E4.86583
G1 X111.024 Y31.675 E4.92328
G1 X111.737 Y31.602 E4.98061
G1 X112.453 Y31.567 E5.03796
G1 X113.170 Y31.570 E5.09538
G1 X113.886 Y31.612 E5.15274 F900.000
G1 X114.599 Y31.691 E5.21015
G1 X115.306 Y31.809 E5.26752
G1 X115.788 Y31.911 E5.30694
G1 X116.480 Y32.092 E5.36418
G1 X117.164 Y32.309 E5.42161
G1 X117.835 Y32.563 E5.47901
G1 X118.384 Y32.803 E5.52693
G1 X119.329 Y33.284 E5.61179
G1 X119.944 Y33.652 E5.66917
G1 X120.540 Y34.052 E5.72654
G1 X121.113 Y34.483 E5.78392
G1 X121.662 Y34.944 E5.84129
G1 X122.024 Y35.277 E5.88068
G1 X122.529 Y35.786 E5.93803
G1 X123.007 Y36.321 E5.99545
G1 X123.455 Y36.880 E6.05278
G1 X123.998 Y37.651 E6.12821
G1 X124.374 Y38.261 E6.18559
G1 X124.613 Y38.691 E6.22495
G1 X124.933 Y39.333 E6.28238
G1 X125.218 Y39.990 E6.33964
G1 X125.538 Y40.877 E6.41510
G1 X125.740 Y41.565 E6.47249
G1 X125.905 Y42.263 E6.52988
G1 X126.032 Y42.969 E6.58726
G1 X126.121 Y43.680 E6.64460
G1 X126.173 Y44.396 E6.70201
G1 X126.186 Y44.943 E6.74585
G1 X126.186 Y100.557 E11.19595
G1 X126.040 Y101.661 E11.28508
G1 X119.436 Y126.160 E13.31543
G1 X119.436 Y173.840 E17.13061
G1 X125.732 Y197.198 E19.06642
G1 X125.814 Y197.340 E19.07954
G1 X126.185 Y197.712 E19.12158
G1 X126.186 Y255.056 E23.71019
G1 X126.173 Y255.606 E23.75416
G1 X126.098 Y256.544 E23.82946
G1 X125.996 Y257.253 E23.88678
G1 X125.904 Y257.739 E23.92639
G1 X125.739 Y258.437 E23.98381
G1 X125.572 Y259.011 E24.03158
G1 X125.218 Y260.009 E24.11636
G1 X124.933 Y260.667 E24.17376
G1 X124.613 Y261.309 E24.23109
G1 X124.260 Y261.933 E24.28847
G1 X123.998 Y262.350 E24.32786
G1 X123.455 Y263.120 E24.40331
G1 X123.008 Y263.678 E24.46048
G1 X122.682 Y264.050 E24.50010
G1 X122.024 Y264.722 E24.57534
G1 X121.492 Y265.204 E24.63275
G1 X121.110 Y265.519 E24.67242
G1 X120.540 Y265.948 E24.72944
G1 X119.945 Y266.348 E24.78685
G1 X119.129 Y266.825 E24.86248
G1 X118.490 Y267.149 E24.91983
G1 X117.836 Y267.437 E24.97698
G1 X117.379 Y267.614 E25.01621
G1 X116.705 Y267.841 E25.07313
G1 X115.788 Y268.089 E25.14916
G1 X115.307 Y268.191 E25.18846
G1 X114.603 Y268.308 E25.24559
G1 X113.877 Y268.389 E25.30400
G1 X113.169 Y268.430 E25.36081
G1 X112.231 Y268.426 E25.43588
G1 X111.512 Y268.379 E25.49353
G1 X110.429 Y268.233 E25.58091
G1 X109.609 Y268.064 E25.64797
G1 X108.913 Y267.877 E25.70565
G1 X108.029 Y267.580 E25.78024
G1 X107.365 Y267.310 E25.83755
G1 X106.716 Y267.005 E25.89495
G1 X106.082 Y266.665 E25.95256
G1 X105.657 Y266.412 E25.99212
G1 X105.064 Y266.021 E26.04895
G1 X104.485 Y265.594 E26.10649
G1 X103.763 Y264.989 E26.18187
G1 X103.242 Y264.494 E26.23939
G1 X102.652 Y263.867 E26.30830
G1 X102.103 Y263.865 E26.35220
G1 X101.274 Y264.722 E26.44764
G1 X100.742 Y265.204 E26.50505
G1 X100.360 Y265.519 E26.54473
G1 X99.606 Y266.077 E26.61978
G1 X99.003 Y266.467 E26.67719
G1 X98.573 Y266.719 E26.71714
G1 X97.939 Y267.053 E26.77446
G1 X97.086 Y267.437 E26.84928
G1 X96.629 Y267.614 E26.88852
G1 X95.955 Y267.841 E26.94543
G1 X95.258 Y268.036 E27.00334
G1 X94.557 Y268.191 E27.06077
G1 X93.627 Y268.338 E27.13613
G1 X93.127 Y268.389 E27.17631
G1 X92.419 Y268.430 E27.23311
G1 X91.481 Y268.426 E27.30818
G1 X90.985 Y268.398 E27.34789
G1 X90.279 Y268.326 E27.40473
G1 X89.558 Y268.213 E27.46309
G1 X88.644 Y268.010 E27.53802
G1 X87.952 Y267.812 E27.59556
G1 X87.279 Y267.580 E27.65257
G1 X86.828 Y267.401 E27.69141
G1 X85.966 Y267.005 E27.76728
G1 X85.332 Y266.665 E27.82488
G1 X84.907 Y266.412 E27.86444
G1 X84.314 Y266.021 E27.92128
G1 X83.735 Y265.594 E27.97882
G1 X83.013 Y264.989 E28.05420
G1 X82.492 Y264.494 E28.11172
G1 X82.149 Y264.138 E28.15125
G1 X81.677 Y263.601 E28.20852
G1 X81.101 Y262.858 E28.28375
G1 X80.818 Y262.451 E28.32339
G1 X80.440 Y261.849 E28.38027
G1 X79.987 Y261.019 E28.45593
G1 X79.683 Y260.369 E28.51338
G1 X79.494 Y259.914 E28.55276
G1 X79.250 Y259.240 E28.61010
G1 X79.042 Y258.553 E28.66754
G1 X78.825 Y257.637 E28.74288
G1 X78.703 Y256.930 E28.80032
G1 X78.636 Y256.386 E28.84414
G1 X73.835 Y208.127 E32.72481
G1 X73.814 Y207.709 E32.75828
G1 X73.814 Y92.291 E41.99383
G1 X73.835 Y91.873 E42.02730
G1 X78.648 Y43.502 E45.91697
G1 X78.825 Y42.364 E46.00915
G1 X79.042 Y41.446 E46.08457
G1 X79.250 Y40.760 E46.14195
G1 X79.414 Y40.296 E46.18133
G1 X79.683 Y39.631 E46.23871
G1 X79.960 Y39.037 E46.29122
G1 X80.546 Y39.260 F3600.000
G1 X80.870 Y38.656 E46.34605 F900.000
G1 X81.224 Y38.071 E46.40075
G1 X81.609 Y37.506 E46.45544
G1 X82.023 Y36.963 E46.51009
G1 X82.466 Y36.442 E46.56486
G1 X82.936 Y35.946 E46.61952
G1 X83.433 Y35.474 E46.67430
G1 X84.116 Y34.902 E46.74564
G1 X84.666 Y34.495 E46.80038
G1 X85.237 Y34.119 E46.85510
G1 X85.827 Y33.774 E46.90980
G1 X86.767 Y33.308 E46.99372
G1 X87.499 Y33.005 E47.05715
G1 X88.146 Y32.782 E47.11185
G1 X88.804 Y32.594 E47.16664
G1 X89.470 Y32.441 E47.22134
G1 X90.146 Y32.323 E47.27619
G1 X91.031 Y32.225 E47.34747
G1 X92.079 Y32.190 E47.43137
G1 X92.872 Y32.218 E47.49487
G1 X93.553 Y32.283 E47.54962
G1 X94.434 Y32.422 E47.62100
G1 X94.900 Y32.521 E47.65908
G1 X95.560 Y32.693 E47.71366
G1 X96.212 Y32.901 E47.76842
G1 X96.852 Y33.143 E47.82315
G1 X97.478 Y33.418 E47.87790
G1 X98.270 Y33.828 E47.94927
G1 X98.857 Y34.178 E48.00398
G1 X99.254 Y34.440 E48.04205
G1 X99.807 Y34.842 E48.09668
G1 X100.495 Y35.410 E48.16809
G1 X100.845 Y35.732 E48.20615
G1 X101.327 Y36.216 E48.26083
G1 X102.083 Y37.089 E48.35321
G1 X102.672 Y37.086 E48.40033
G1 X103.216 Y36.442 E48.46785
G1 X103.686 Y35.946 E48.52251
G1 X104.183 Y35.474 E48.57729
G1 X104.702 Y35.032 E48.63191
G1 X105.246 Y34.616 E48.68669
G1 X105.811 Y34.230 E48.74144
G1 X106.577 Y33.774 E48.81279
G1 X107.185 Y33.460 E48.86751
G1 X107.809 Y33.180 E48.92223
G1 X108.446 Y32.933 E48.97689
G1 X109.096 Y32.721 E49.03161
G1 X109.756 Y32.543 E49.08636
G1 X110.425 Y32.401 E49.14105
G1 X111.101 Y32.295 E49.19582
G1 X111.574 Y32.243 E49.23387
G1 X112.255 Y32.198 E49.28848
G1 X112.939 Y32.190 E49.34325
G1 X113.622 Y32.218 E49.39792 F900.000
G1 X114.303 Y32.283 E49.45267
G1 X114.979 Y32.384 E49.50738
G1 X115.542 Y32.498 E49.55329
G1 X116.510 Y32.753 E49.63342
G1 X117.159 Y32.971 E49.68817
G1 X117.794 Y33.223 E49.74287
G1 X118.415 Y33.509 E49.79758
G1 X119.020 Y33.828 E49.85231
G1 X119.607 Y34.178 E49.90702
G1 X120.004 Y34.440 E49.94509
G1 X120.557 Y34.842 E49.99972
G1 X121.088 Y35.273 E50.05445
G1 X121.745 Y35.877 E50.12586
G1 X122.218 Y36.370 E50.18057
G1 X122.532 Y36.727 E50.21862
G1 X122.959 Y37.260 E50.27328
G1 X123.358 Y37.816 E50.32805
G1 X123.726 Y38.392 E50.38273
G1 X124.063 Y38.987 E50.43745
G1 X124.368 Y39.600 E50.49221
G1 X124.639 Y40.226 E50.54681
G1 X124.943 Y41.066 E50.61826
G1 X125.135 Y41.722 E50.67298
G1 X125.292 Y42.387 E50.72770
G1 X125.414 Y43.060 E50.78241
G1 X125.499 Y43.738 E50.83709
G1 X125.548 Y44.421 E50.89182
G1 X125.561 Y44.947 E50.93400
G1 X125.561 Y100.516 E55.38046
G1 X125.426 Y101.538 E55.46299
G1 X118.811 Y126.078 E57.49667
G1 X118.811 Y173.922 E61.32512
G1 X125.172 Y197.522 E63.28090
G1 X125.254 Y197.664 E63.29402
G1 X125.560 Y197.970 E63.32871
G1 X125.561 Y255.052 E67.89626
G1 X125.548 Y255.580 E67.93855
G1 X125.477 Y256.469 E68.00987
G1 X125.381 Y257.145 E68.06451
G1 X125.292 Y257.615 E68.10277
G1 X125.134 Y258.280 E68.15752
G1 X124.974 Y258.829 E68.20326
G1 X124.639 Y259.773 E68.28342
G1 X124.367 Y260.401 E68.33815
G1 X124.063 Y261.013 E68.39281
G1 X123.726 Y261.607 E68.44752
G1 X123.473 Y262.010 E68.48558
G1 X122.959 Y262.740 E68.55702
G1 X122.533 Y263.272 E68.61153
G1 X122.218 Y263.631 E68.64981
G1 X121.595 Y264.268 E68.72105
G1 X121.088 Y264.727 E68.77579
G1 X120.719 Y265.032 E68.81411
G1 X120.176 Y265.440 E68.86848
G1 X119.608 Y265.822 E68.92322
G1 X118.835 Y266.274 E68.99483
G1 X118.226 Y266.582 E69.04951
G1 X117.602 Y266.857 E69.10401
G1 X117.161 Y267.028 E69.14192
G1 X116.518 Y267.245 E69.19620
G1 X115.649 Y267.479 E69.26819
G1 X115.185 Y267.578 E69.30616
G1 X114.514 Y267.690 E69.36063
G1 X113.822 Y267.767 E69.41630
G1 X112.939 Y267.810 E69.48709
G1 X112.258 Y267.802 E69.54157
G1 X111.779 Y267.775 E69.57992
G1 X111.105 Y267.706 E69.63413
G1 X110.419 Y267.598 E69.68975
G1 X109.553 Y267.406 E69.76071
G1 X108.894 Y267.217 E69.81557
G1 X107.815 Y266.823 E69.90746
G1 X106.999 Y266.448 E69.97929
G1 X106.395 Y266.124 E70.03421
G1 X105.984 Y265.879 E70.07242
G1 X105.419 Y265.507 E70.12663
G1 X104.867 Y265.099 E70.18149
G1 X104.184 Y264.526 E70.25287
G1 X103.686 Y264.055 E70.30771
G1 X103.216 Y263.558 E70.36246
G1 X102.672 Y262.914 E70.42993
G1 X102.083 Y262.911 E70.47707
G1 X101.326 Y263.784 E70.56947
G1 X100.845 Y264.268 E70.62408
G1 X100.496 Y264.590 E70.66210
G1 X99.806 Y265.159 E70.73364
G1 X99.254 Y265.560 E70.78821
G1 X98.680 Y265.932 E70.84295
G1 X98.085 Y266.274 E70.89786
G1 X97.660 Y266.493 E70.93617
G1 X97.047 Y266.776 E70.99019
G1 X96.411 Y267.028 E71.04495
G1 X95.563 Y267.306 E71.11633
G1 X94.899 Y267.479 E71.17122
G1 X94.435 Y267.578 E71.20918
G1 X93.554 Y267.717 E71.28054
G1 X92.869 Y267.782 E71.33559
G1 X92.396 Y267.805 E71.37350
G1 X91.720 Y267.808 E71.42761
G1 X91.029 Y267.775 E71.48295
G1 X90.146 Y267.677 E71.55409
G1 X89.669 Y267.598 E71.59277
G1 X89.002 Y267.456 E71.64733
G1 X88.144 Y267.217 E71.71860
G1 X87.065 Y266.823 E71.81048
G1 X86.249 Y266.448 E71.88232
G1 X85.645 Y266.124 E71.93724
G1 X85.234 Y265.879 E71.97545
G1 X84.669 Y265.507 E72.02966
G1 X84.117 Y265.099 E72.08452
G1 X83.434 Y264.526 E72.15589
G1 X82.936 Y264.055 E72.21073
G1 X82.605 Y263.711 E72.24892
G1 X82.155 Y263.198 E72.30353
G1 X81.609 Y262.495 E72.37477
G1 X81.337 Y262.101 E72.41306
G1 X80.976 Y261.527 E72.46730
G1 X80.547 Y260.742 E72.53894
G1 X80.257 Y260.122 E72.59372
G1 X80.075 Y259.682 E72.63176
G1 X79.842 Y259.040 E72.68644
G1 X79.644 Y258.385 E72.74120
G1 X79.438 Y257.517 E72.81254
G1 X79.322 Y256.843 E72.86731
G1 X79.257 Y256.320 E72.90946
G1 X74.458 Y208.081 E76.78856
G1 X74.439 Y207.694 E76.81955
G1 X74.439 Y92.306 E86.05262
G1 X74.458 Y91.919 E86.08361
G1 X79.269 Y43.576 E89.97104
G1 X79.438 Y42.483 E90.05956
G1 X79.644 Y41.615 E90.13097
G1 X79.842 Y40.960 E90.18568
G1 X80.000 Y40.512 E90.22373
G1 X80.257 Y39.878 E90.27843
G1 X80.520 Y39.314 E90.32828
G1 X81.107 Y39.537 F3600.000
G1 X81.414 Y38.962 E90.38043 F900.000
G1 X81.751 Y38.406 E90.43246
G1 X82.118 Y37.869 E90.48449
G1 X82.512 Y37.353 E90.53648
G1 X82.934 Y36.857 E90.58857
G1 X83.381 Y36.385 E90.64057
G1 X83.853 Y35.937 E90.69267
G1 X84.498 Y35.396 E90.76002
G1 X85.021 Y35.009 E90.81209
G1 X85.564 Y34.651 E90.86414
G1 X86.125 Y34.323 E90.91617
G1 X87.028 Y33.876 E90.99675
G1 X87.722 Y33.589 E91.05685
G1 X88.337 Y33.377 E91.10888
G1 X88.963 Y33.198 E91.16100
G1 X89.597 Y33.053 E91.21303
G1 X90.428 Y32.915 E91.28048
G1 X91.532 Y32.822 E91.36912
G1 X92.183 Y32.815 E91.42121
G1 X93.024 Y32.856 E91.48857
G1 X93.671 Y32.928 E91.54064
G1 X94.761 Y33.130 E91.62940
G1 X95.574 Y33.349 E91.69670
G1 X96.190 Y33.557 E91.74878
G1 X97.120 Y33.943 E91.82936
G1 X97.793 Y34.278 E91.88951
G1 X98.357 Y34.603 E91.94158
G1 X99.060 Y35.067 E92.00896
G1 X99.933 Y35.749 E92.09766
G1 X100.553 Y36.319 E92.16507
G1 X101.307 Y37.133 E92.25380
G1 X101.713 Y37.640 E92.30580
G1 X102.048 Y38.107 E92.35175
G1 X102.689 Y38.113 E92.40301
G1 X103.262 Y37.353 E92.47918
G1 X103.684 Y36.857 E92.53127
G1 X104.268 Y36.250 E92.59866
G1 X104.746 Y35.810 E92.65067
G1 X105.248 Y35.396 E92.70272
G1 X105.771 Y35.009 E92.75479
G1 X106.621 Y34.469 E92.83538
G1 X107.282 Y34.109 E92.89560
G1 X107.871 Y33.833 E92.94763
G1 X108.653 Y33.523 E93.01493
G1 X109.271 Y33.321 E93.06698
G1 X110.347 Y33.053 E93.15571
G1 X110.989 Y32.941 E93.20788
G1 X111.634 Y32.865 E93.25988
G1 X112.474 Y32.817 E93.32718
G1 X113.125 Y32.819 E93.37925
G1 X113.774 Y32.856 E93.43128 F900.000
G1 X114.421 Y32.928 E93.48335
G1 X115.511 Y33.130 E93.57210
G1 X116.139 Y33.294 E93.62403
G1 X116.759 Y33.492 E93.67611
G1 X117.368 Y33.722 E93.72817
G1 X117.871 Y33.943 E93.77211
G1 X118.711 Y34.371 E93.84760
G1 X119.270 Y34.704 E93.89965
G1 X119.810 Y35.067 E93.95169
G1 X120.330 Y35.458 E94.00373
G1 X120.828 Y35.875 E94.05576
G1 X121.624 Y36.647 E94.14447
G1 X122.057 Y37.133 E94.19655
G1 X122.463 Y37.640 E94.24855
G1 X122.949 Y38.329 E94.31597
G1 X123.513 Y39.283 E94.40468
G1 X123.802 Y39.866 E94.45676
G1 X124.060 Y40.462 E94.50871
G1 X124.347 Y41.255 E94.57615
G1 X124.530 Y41.879 E94.62820
G1 X124.680 Y42.512 E94.68025
G1 X124.796 Y43.152 E94.73229
G1 X124.877 Y43.797 E94.78430
G1 X124.924 Y44.446 E94.83637
G1 X124.936 Y44.952 E94.87688
G1 X124.936 Y100.474 E99.31970
G1 X124.811 Y101.415 E99.39563
G1 X118.186 Y125.995 E101.43264
G1 X118.186 Y174.005 E105.27435
G1 X124.612 Y197.846 E107.25011
G1 X124.694 Y197.988 E107.26323
G1 X124.936 Y198.229 E107.29056
G1 X124.924 Y255.555 E111.87767
G1 X124.857 Y256.394 E111.94498
G1 X124.679 Y257.490 E112.03385
G1 X124.530 Y258.124 E112.08593
G1 X124.376 Y258.648 E112.12968
G1 X124.060 Y259.537 E112.20517
G1 X123.802 Y260.135 E112.25723
G1 X123.513 Y260.716 E112.30923
G1 X122.949 Y261.671 E112.39797
G1 X122.463 Y262.360 E112.46540
G1 X121.754 Y263.213 E112.55416
G1 X121.166 Y263.814 E112.62141
G1 X120.327 Y264.544 E112.71042
G1 X119.811 Y264.933 E112.76215
G1 X119.270 Y265.296 E112.81422
G1 X118.542 Y265.722 E112.88181
G1 X117.962 Y266.016 E112.93382
G1 X117.369 Y266.277 E112.98567
G1 X116.331 Y266.649 E113.07388
G1 X115.511 Y266.870 E113.14182
G1 X114.424 Y267.071 E113.23026
G1 X113.580 Y267.158 E113.29814
G1 X112.480 Y267.184 E113.38620
G1 X111.823 Y267.151 E113.43882
G1 X110.989 Y267.059 E113.50597
G1 X109.997 Y266.870 E113.58679
G1 X109.264 Y266.677 E113.64744
G1 X108.474 Y266.412 E113.71415
G1 X107.872 Y266.168 E113.76613
G1 X106.965 Y265.724 E113.84691
G1 X106.312 Y265.347 E113.90726
G1 X105.616 Y264.880 E113.97434
G1 X105.098 Y264.485 E114.02645
G1 X104.267 Y263.750 E114.11521
G1 X103.812 Y263.284 E114.16737
G1 X103.262 Y262.648 E114.23465
G1 X102.689 Y261.887 E114.31083
G1 X102.048 Y261.893 E114.36208
G1 X101.713 Y262.360 E114.40805
G1 X101.308 Y262.866 E114.45991
G1 X100.554 Y263.680 E114.54868
G1 X99.934 Y264.250 E114.61613
G1 X99.428 Y264.661 E114.66828
