; generated by Slic3r 1.2.9 on 2017-08-14 at 08:06:23

; external perimeters extrusion width = 0.40mm
; perimeters extrusion width = 0.48mm
; infill extrusion width = 0.48mm
; solid infill extrusion width = 0.48mm
; top infill extrusion width = 0.48mm

M107
M190 S70 ; set bed temperature
M104 S240 ; set temperature
G21 ; set units to millimeters
G90 ; use absolute coordinates
M203 Z4; max speed min/sec
G1 Z20 F200;
G28 X F2000;
G1 X140 F2000;
G28 Y F2000;
G1 Y140 F2000;
G28 Z F200;
G1 Z5 F500 ; lift nozzle

M109 S240 ; wait for temperature to be reached
G21 ; set units to millimeters
G90 ; use absolute coordinates
M82 ; use absolute distances for extrusion
G92 E0
G1 Z0.200 F3600.000
G1 E-2.00000 F2400.00000
G92 E0
G1 X69.821 Y108.848 F3600.000
G1 E2.00000 F2400.00000
G1 X72.922 Y107.564 E2.26854 F900.000
G1 X127.078 Y107.564 E6.60200
G1 X130.179 Y108.848 E6.87054
G1 X135.552 Y114.221 E7.47858 F900.000
G1 X136.836 Y117.322 E7.74712
G1 X136.836 Y182.678 E12.97678
G1 X135.552 Y185.779 E13.24533
G1 X130.179 Y191.151 E13.85333
G1 X127.078 Y192.436 E14.12189
G1 X72.922 Y192.436 E18.45537
G1 X69.821 Y191.152 E18.72391
G1 X64.448 Y185.779 E19.33194
G1 X63.164 Y182.678 E19.60049
G1 X63.164 Y117.322 E24.83015
G1 X64.448 Y114.221 E25.09869
G1 X69.779 Y108.891 E25.70193
G1 X70.175 Y109.378 F3600.000
G1 X73.046 Y108.189 E25.95058 F900.000
G1 X126.954 Y108.189 E30.26415
G1 X129.825 Y109.378 E30.51280 F900.000
G1 X135.022 Y114.575 E31.10094
G1 X136.211 Y117.446 E31.34959
G1 X136.211 Y182.554 E36.55936
G1 X135.022 Y185.425 E36.80801
G1 X129.825 Y190.622 E37.39612
G1 X126.954 Y191.811 E37.64480
G1 X73.046 Y191.811 E41.95838
G1 X70.175 Y190.622 E42.20703
G1 X64.978 Y185.425 E42.79517
G1 X63.789 Y182.554 E43.04382
G1 X63.789 Y117.446 E48.25359
G1 X64.978 Y114.575 E48.50224
G1 X70.133 Y109.420 E49.08559
G1 X70.529 Y109.908 F3600.000
G1 X73.171 Y108.814 E49.31435 F900.000
G1 X126.829 Y108.814 E53.60802
G1 X129.471 Y109.908 E53.83678
G1 X134.492 Y114.929 E54.40503 F900.000
G1 X135.586 Y117.571 E54.63379
G1 X135.586 Y182.429 E59.82367
G1 X134.492 Y185.071 E60.05243
G1 X129.471 Y190.092 E60.62065
G1 X126.830 Y191.186 E60.84943
G1 X73.171 Y191.186 E65.14311
G1 X70.529 Y190.092 E65.37187
G1 X65.508 Y185.071 E65.94012
G1 X64.414 Y182.429 E66.16888
G1 X64.414 Y117.571 E71.35876
G1 X65.508 Y114.929 E71.58752
G1 X70.487 Y109.950 E72.15097
G1 X70.883 Y110.438 F3600.000
G1 X73.295 Y109.439 E72.35984 F900.000
G1 X126.705 Y109.439 E76.63362
G1 X129.117 Y110.438 E76.84249 F900.000
G1 X133.002 Y114.323 E77.28216
G1 X133.962 Y115.283 E77.39084
G1 X134.961 Y117.695 E77.59971
G1 X134.961 Y182.305 E82.76970
G1 X133.962 Y184.717 E82.97856
G1 X129.117 Y189.562 E83.52689
G1 X126.705 Y190.561 E83.73578
G1 X73.295 Y190.561 E88.00957
G1 X70.883 Y189.562 E88.21844
G1 X66.038 Y184.717 E88.76680
G1 X65.039 Y182.305 E88.97567
G1 X65.039 Y117.695 E94.14565
G1 X66.038 Y115.283 E94.35452
G1 X70.841 Y110.480 E94.89808
G1 X71.237 Y110.967 F3600.000
G1 X73.419 Y110.064 E95.08705 F900.000
G1 X126.581 Y110.064 E99.34094
G1 X128.763 Y110.967 E99.52992
G1 X133.433 Y115.637 E100.05838 F900.000
G1 X134.336 Y117.819 E100.24736
G1 X134.336 Y182.181 E105.39745
G1 X133.433 Y184.363 E105.58643
G1 X128.763 Y189.033 E106.11487
G1 X126.581 Y189.936 E106.30386
G1 X73.419 Y189.936 E110.55776
G1 X71.237 Y189.033 E110.74674
G1 X66.567 Y184.363 E111.27520
G1 X65.664 Y182.181 E111.46417
G1 X65.664 Y117.819 E116.61427
G1 X66.567 Y115.637 E116.80324
G1 X71.195 Y111.010 E117.32691
G1 X71.591 Y111.497 F3600.000
G1 X73.543 Y110.688 E117.49599 F900.000
G1 X126.457 Y110.688 E121.72999
G1 X128.409 Y111.497 E121.89907 F900.000
G1 X132.903 Y115.991 E122.40765
G1 X133.712 Y117.943 E122.57673
G1 X133.712 Y182.057 E127.70693
G1 X132.903 Y184.009 E127.87601
G1 X128.409 Y188.503 E128.38456
G1 X126.457 Y189.312 E128.55366
G1 X73.543 Y189.312 E132.78767
G1 X71.591 Y188.503 E132.95675
G1 X67.097 Y184.009 E133.46533
G1 X66.288 Y182.057 E133.63441
G1 X66.288 Y117.943 E138.76461
G1 X67.097 Y115.991 E138.93369
G1 X71.549 Y111.539 E139.43747
G1 X71.945 Y112.027 F3600.000
G1 X73.668 Y111.313 E139.58666 F900.000
G1 X126.332 Y111.313 E143.80076
G1 X128.055 Y112.027 E143.94996
G1 X132.373 Y116.345 E144.43863 F900.000
G1 X133.087 Y118.068 E144.58783
G1 X133.087 Y181.932 E149.69813
G1 X132.373 Y183.655 E149.84733
G1 X128.055 Y187.973 E150.33599
G1 X126.332 Y188.687 E150.48519
G1 X73.668 Y188.687 E154.69931
G1 X71.945 Y187.973 E154.84850
G1 X67.627 Y183.655 E155.33718
G1 X66.913 Y181.932 E155.48637
G1 X66.913 Y118.068 E160.59668
G1 X67.627 Y116.345 E160.74587
G1 X71.903 Y112.069 E161.22975
G1 X72.299 Y112.557 F3600.000
G1 X73.792 Y111.938 E161.35905 F900.000
G1 X126.208 Y111.938 E165.55326
G1 X127.701 Y112.557 E165.68256 F900.000
G1 X131.843 Y116.699 E166.15135
G1 X132.462 Y118.192 E166.28065
G1 X132.462 Y181.808 E171.37106
G1 X131.843 Y183.301 E171.50036
G1 X127.701 Y187.443 E171.96913
G1 X126.208 Y188.062 E172.09844
G1 X73.792 Y188.062 E176.29267
G1 X72.299 Y187.443 E176.42197
G1 X68.157 Y183.301 E176.89075
G1 X67.538 Y181.808 E177.02005
G1 X67.538 Y118.192 E182.11047
G1 X68.157 Y116.699 E182.23977
G1 X72.257 Y112.599 E182.70376
G1 X72.653 Y113.086 F3600.000
G1 X73.916 Y112.563 E182.81316 F900.000
G1 X126.084 Y112.563 E186.98748
G1 X127.347 Y113.086 E187.09689
G1 X131.314 Y117.053 E187.54579 F900.000
G1 X131.837 Y118.316 E187.65519
G1 X131.837 Y181.684 E192.72572
G1 X131.314 Y182.947 E192.83512
G1 X127.347 Y186.914 E193.28401
G1 X126.084 Y187.437 E193.39342
G1 X73.916 Y187.437 E197.56775
G1 X72.653 Y186.914 E197.67716
G1 X68.686 Y182.947 E198.12605
G1 X68.163 Y181.684 E198.23546
G1 X68.163 Y118.316 E203.30599
G1 X68.686 Y117.053 E203.41539
G1 X72.611 Y113.129 E203.85949
G1 X73.007 Y113.616 F3600.000
G1 X74.041 Y113.188 E203.94900 F900.000
G1 X125.959 Y113.188 E208.10343
G1 X126.993 Y113.616 E208.19295 F900.000
G1 X130.784 Y117.407 E208.62195
G1 X131.212 Y118.441 E208.71146
G1 X131.212 Y181.559 E213.76210
G1 X130.784 Y182.593 E213.85161
G1 X126.993 Y186.384 E214.28060
G1 X125.959 Y186.812 E214.37013
G1 X74.041 Y186.812 E218.52456
G1 X73.007 Y186.384 E218.61408
G1 X69.216 Y182.593 E219.04308
G1 X68.788 Y181.559 E219.13259
G1 X68.788 Y118.441 E224.18323
G1 X69.216 Y117.407 E224.27274
G1 X72.965 Y113.659 E224.69695
G1 X73.361 Y114.146 F3600.000
G1 X74.165 Y113.813 E224.76657 F900.000
G1 X125.835 Y113.813 E228.90111
G1 X126.639 Y114.146 E228.97073
G1 X130.254 Y117.761 E229.37984 F900.000
G1 X130.587 Y118.565 E229.44946
G1 X130.587 Y181.435 E234.48020
G1 X130.254 Y182.239 E234.54982
G1 X126.639 Y185.854 E234.95893
G1 X125.835 Y186.187 E235.02855
G1 X74.165 Y186.187 E239.16310
G1 X73.361 Y185.854 E239.23272
G1 X69.746 Y182.239 E239.64183
G1 X69.413 Y181.435 E239.71145
G1 X69.413 Y118.565 E244.74219
G1 X69.746 Y117.761 E244.81182
G1 X73.319 Y114.188 E245.21613
G1 X73.715 Y114.676 F3600.000
G1 X74.289 Y114.438 E245.26586 F900.000
G1 X125.711 Y114.438 E249.38050
G1 X126.285 Y114.676 E249.43023 F900.000
G1 X129.724 Y118.115 E249.81945
G1 X129.962 Y118.689 E249.86918
G1 X129.962 Y181.311 E254.88003
G1 X129.724 Y181.885 E254.92976
G1 X126.285 Y185.324 E255.31897
G1 X125.711 Y185.562 E255.36871
G1 X74.289 Y185.562 E259.48336
G1 X73.715 Y185.324 E259.53309
G1 X70.276 Y181.885 E259.92231
G1 X70.038 Y181.311 E259.97204
G1 X70.038 Y118.689 E264.98288
G1 X70.276 Y118.115 E265.03261
G1 X73.673 Y114.718 E265.41703
G1 X74.069 Y115.205 F3600.000
G1 X74.414 Y115.063 E265.44687 F900.000
G1 X125.586 Y115.063 E269.54163
G1 X125.931 Y115.205 E269.57146
G1 X129.195 Y118.469 E269.94079 F900.000
G1 X129.337 Y118.814 E269.97063
G1 X129.337 Y181.186 E274.96158
G1 X129.195 Y181.531 E274.99142
G1 X125.931 Y184.795 E275.36074
G1 X125.586 Y184.937 E275.39059
G1 X74.414 Y184.937 E279.48534
G1 X74.069 Y184.795 E279.51518
G1 X70.805 Y181.531 E279.88451
G1 X70.663 Y181.186 E279.91434
G1 X70.663 Y118.814 E284.90530
G1 X70.805 Y118.469 E284.93514
G1 X74.027 Y115.248 E285.29966
G1 X74.423 Y115.735 F3600.000
G1 X74.538 Y115.688 E285.30961 F900.000
G1 X125.462 Y115.688 E289.38447
G1 X125.577 Y115.735 E289.39442 F900.000
G1 X128.665 Y118.823 E289.74385
G1 X128.712 Y118.938 E289.75380
G1 X128.712 Y181.062 E294.72486
G1 X128.665 Y181.177 E294.73481
G1 X125.577 Y184.265 E295.08424
G1 X125.462 Y184.312 E295.09419
G1 X74.538 Y184.312 E299.16905
G1 X74.423 Y184.265 E299.17900
G1 X71.335 Y181.177 E299.52843
G1 X71.288 Y181.062 E299.53838
G1 X71.288 Y118.938 E304.50944
G1 X71.335 Y118.823 E304.51939
G1 X74.381 Y115.778 E304.86402
G1 E302.86402 F2400.00000
G92 E0
G1 X125.255 Y183.650 F3600.000
G1 E2.00000 F2400.00000
G1 X74.745 Y183.650 E6.04172 F300.000
G1 X71.950 Y180.855 E6.35800
G1 X71.950 Y119.145 E11.29592
G1 X74.745 Y116.350 E11.61221
G1 X125.255 Y116.350 E15.65392
G1 X128.050 Y119.145 E15.97021
G1 X128.050 Y180.855 E20.90812 F300.000
G1 X125.297 Y183.608 E21.21961
G1 X124.972 Y183.367 F3600.000
G1 X124.996 Y183.025 F3600.000
G1 X75.004 Y183.025 E25.21990 F600.000
G1 X72.575 Y180.596 E25.49476
G1 X72.575 Y119.404 E30.39126
G1 X75.004 Y116.975 E30.66612
G1 X124.996 Y116.975 E34.66641
G1 X127.425 Y119.404 E34.94128
G1 X127.425 Y180.596 E39.83777 F600.000
G1 X125.039 Y182.983 E40.10783
G1 X124.737 Y182.400 F3600.000
G1 X75.263 Y182.400 E44.06670 F600.000
G1 X73.200 Y180.337 E44.30014
G1 X73.200 Y119.663 E49.15521
G1 X75.263 Y117.600 E49.38865
G1 X124.737 Y117.600 E53.34752
G1 X126.800 Y119.663 E53.58096
G1 X126.800 Y180.337 E58.43603 F600.000
G1 X124.780 Y182.358 E58.66467
G1 X112.130 Y140.671 F3600.000
G1 X111.712 Y140.742 E58.69866 F300.000
G1 X111.288 Y140.742 E58.73252
G1 X110.870 Y140.671 E58.76651
G1 X110.470 Y140.529 E58.80046
G1 X110.099 Y140.322 E58.83441
G1 X109.769 Y140.056 E58.86835
G1 X109.489 Y139.737 E58.90230
G1 X109.267 Y139.376 E58.93625
G1 X109.108 Y138.982 E58.97019
G1 X109.019 Y138.568 E59.00414
G1 X109.001 Y138.144 E59.03809
G1 X109.055 Y137.723 E59.07204
G1 X109.179 Y137.317 E59.10598
G1 X109.370 Y136.939 E59.13993
G1 X109.622 Y136.597 E59.17388
G1 X109.929 Y136.304 E59.20782
G1 X110.280 Y136.066 E59.24177
G1 X110.667 Y135.891 E59.27575
G1 X111.082 Y135.784 E59.31005
G1 X111.500 Y135.749 E59.34361 F300.000
G1 X111.923 Y135.785 E59.37756
G1 X112.333 Y135.892 E59.41150
G1 X112.720 Y136.066 E59.44545
G1 X113.072 Y136.304 E59.47943
G1 X113.381 Y136.601 E59.51373
G1 X113.630 Y136.939 E59.54729
G1 X113.821 Y137.317 E59.58123
G1 X113.945 Y137.723 E59.61518
G1 X113.999 Y138.144 E59.64913
G1 X113.981 Y138.568 E59.68307
G1 X113.892 Y138.982 E59.71702
G1 X113.733 Y139.376 E59.75097
G1 X113.511 Y139.737 E59.78492
G1 X113.231 Y140.056 E59.81886
G1 X112.901 Y140.322 E59.85281
G1 X112.530 Y140.529 E59.88676
G1 X112.187 Y140.651 E59.91590
G1 X112.013 Y141.053 F3600.000
G1 X112.236 Y141.286 F3600.000
G1 X111.765 Y141.367 E59.95415 F300.000
G1 X111.235 Y141.367 E59.99652
G1 X110.712 Y141.277 E60.03903
G1 X110.211 Y141.101 E60.08148
G1 X109.748 Y140.842 E60.12394
G1 X109.335 Y140.509 E60.16640
G1 X108.985 Y140.110 E60.20886
G1 X108.707 Y139.658 E60.25132
G1 X108.509 Y139.166 E60.29378
G1 X108.397 Y138.647 E60.33624
G1 X108.374 Y138.117 E60.37870
G1 X108.442 Y137.591 E60.42116
G1 X108.597 Y137.084 E60.46361
G1 X108.836 Y136.610 E60.50607
G1 X109.152 Y136.183 E60.54853
G1 X109.535 Y135.816 E60.59099
G1 X109.974 Y135.519 E60.63345
G1 X110.459 Y135.300 E60.67599
G1 X110.977 Y135.166 E60.71881
G1 X111.500 Y135.122 E60.76082 F300.000
G1 X112.029 Y135.167 E60.80328
G1 X112.542 Y135.300 E60.84574
G1 X113.026 Y135.519 E60.88820
G1 X113.466 Y135.817 E60.93074
G1 X113.852 Y136.188 E60.97356
G1 X114.164 Y136.610 E61.01557
G1 X114.403 Y137.084 E61.05803
G1 X114.558 Y137.591 E61.10049
G1 X114.626 Y138.117 E61.14295
G1 X114.603 Y138.647 E61.18540
G1 X114.491 Y139.166 E61.22786
G1 X114.293 Y139.658 E61.27032
G1 X114.015 Y140.110 E61.31278
G1 X113.665 Y140.509 E61.35524
G1 X113.252 Y140.842 E61.39770
G1 X112.789 Y141.101 E61.44016
G1 X112.295 Y141.275 E61.48207
G1 X112.341 Y141.902 F3600.000
G1 X111.818 Y141.992 E61.52458 F300.000
G1 X111.182 Y141.992 E61.57546
G1 X110.554 Y141.884 E61.62647
G1 X109.953 Y141.672 E61.67744
G1 X109.397 Y141.362 E61.72841
G1 X108.901 Y140.961 E61.77938
G1 X108.481 Y140.483 E61.83035
G1 X108.147 Y139.941 E61.88133
G1 X107.909 Y139.350 E61.93230
G1 X107.775 Y138.727 E61.98327
G1 X107.748 Y138.091 E62.03424
G1 X107.829 Y137.459 E62.08521
G1 X108.015 Y136.850 E62.13618
G1 X108.302 Y136.281 E62.18715
G1 X108.681 Y135.769 E62.23812
G1 X109.141 Y135.328 E62.28909
G1 X109.668 Y134.971 E62.34006
G1 X110.250 Y134.708 E62.39116
G1 X110.872 Y134.548 E62.44249
G1 X111.500 Y134.494 E62.49297 F300.000
G1 X112.135 Y134.548 E62.54394
G1 X112.751 Y134.709 E62.59491
G1 X113.332 Y134.971 E62.64588
G1 X113.861 Y135.329 E62.69698
G1 X114.323 Y135.774 E62.74831
G1 X114.698 Y136.281 E62.79879
G1 X114.985 Y136.850 E62.84976
G1 X115.171 Y137.459 E62.90073
G1 X115.252 Y138.091 E62.95170
G1 X115.225 Y138.727 E63.00267
G1 X115.091 Y139.350 E63.05364
G1 X114.853 Y139.941 E63.10461
G1 X114.519 Y140.483 E63.15558
G1 X114.099 Y140.961 E63.20655
G1 X113.603 Y141.362 E63.25752
G1 X113.047 Y141.672 E63.30849
G1 X112.401 Y141.892 E63.36312
G1 X90.980 Y138.573 F3600.000
G1 X90.892 Y138.982 E63.39667 F300.000
G1 X90.733 Y139.376 E63.43062
G1 X90.511 Y139.737 E63.46457
G1 X90.231 Y140.056 E63.49852
G1 X89.901 Y140.322 E63.53246
G1 X89.530 Y140.529 E63.56641
G1 X89.130 Y140.671 E63.60036
G1 X88.712 Y140.742 E63.63435
G1 X88.288 Y140.742 E63.66821
G1 X87.870 Y140.671 E63.70220
G1 X87.470 Y140.529 E63.73615
G1 X87.099 Y140.322 E63.77009
G1 X86.769 Y140.056 E63.80404
G1 X86.489 Y139.737 E63.83799
G1 X86.267 Y139.376 E63.87194
G1 X86.108 Y138.982 E63.90588
G1 X86.019 Y138.567 E63.93986
G1 X86.002 Y138.139 E63.97417
G1 X86.055 Y137.723 E64.00772
G1 X86.179 Y137.317 E64.04167
G1 X86.370 Y136.939 E64.07561
G1 X86.622 Y136.597 E64.10956
G1 X86.929 Y136.304 E64.14351
G1 X87.280 Y136.066 E64.17746
G1 X87.667 Y135.891 E64.21143
G1 X88.082 Y135.784 E64.24574
G1 X88.500 Y135.749 E64.27929 F300.000
G1 X88.923 Y135.785 E64.31324
G1 X89.333 Y135.892 E64.34719
G1 X89.720 Y136.066 E64.38113
G1 X90.071 Y136.304 E64.41508
G1 X90.378 Y136.598 E64.44906
G1 X90.632 Y136.943 E64.48336
G1 X90.821 Y137.317 E64.51692
G1 X90.945 Y137.723 E64.55086
G1 X90.999 Y138.144 E64.58484
G1 X90.983 Y138.513 E64.61435
G1 X91.291 Y138.824 F3600.000
G1 X91.591 Y138.704 F3600.000
G1 X91.491 Y139.166 E64.65215 F300.000
G1 X91.293 Y139.658 E64.69461
G1 X91.015 Y140.110 E64.73707
G1 X90.665 Y140.509 E64.77953
G1 X90.252 Y140.842 E64.82199
G1 X89.789 Y141.101 E64.86445
G1 X89.288 Y141.277 E64.90691
G1 X88.765 Y141.367 E64.94941
G1 X88.235 Y141.367 E64.99178
G1 X87.712 Y141.277 E65.03429
G1 X87.211 Y141.101 E65.07674
G1 X86.748 Y140.842 E65.11920
G1 X86.335 Y140.509 E65.16166
G1 X85.985 Y140.110 E65.20412
G1 X85.707 Y139.658 E65.24658
G1 X85.509 Y139.166 E65.28904
G1 X85.397 Y138.646 E65.33158
G1 X85.375 Y138.112 E65.37440
G1 X85.442 Y137.591 E65.41641
G1 X85.597 Y137.084 E65.45887
G1 X85.836 Y136.610 E65.50133
G1 X86.152 Y136.183 E65.54379
G1 X86.535 Y135.816 E65.58625
G1 X86.974 Y135.519 E65.62870
G1 X87.459 Y135.300 E65.67124
G1 X87.977 Y135.166 E65.71406
G1 X88.500 Y135.122 E65.75608 F300.000
G1 X89.029 Y135.167 E65.79853
G1 X89.542 Y135.300 E65.84099
G1 X90.026 Y135.519 E65.88345
G1 X90.465 Y135.816 E65.92591
G1 X90.849 Y136.184 E65.96845
G1 X91.166 Y136.615 E66.01127
G1 X91.403 Y137.084 E66.05328
G1 X91.558 Y137.591 E66.09574
G1 X91.626 Y138.118 E66.13828
G1 X91.602 Y138.645 E66.18050
G1 X92.202 Y138.836 F3600.000
G1 X92.091 Y139.350 E66.22257 F300.000
G1 X91.853 Y139.941 E66.27354
G1 X91.519 Y140.483 E66.32451
G1 X91.099 Y140.961 E66.37548
G1 X90.603 Y141.362 E66.42645
G1 X90.047 Y141.672 E66.47742
G1 X89.446 Y141.884 E66.52839
G1 X88.818 Y141.992 E66.57941
G1 X88.182 Y141.992 E66.63029
G1 X87.554 Y141.884 E66.68130
G1 X86.953 Y141.672 E66.73227
G1 X86.397 Y141.362 E66.78324
G1 X85.901 Y140.961 E66.83421
G1 X85.481 Y140.483 E66.88518
G1 X85.147 Y139.941 E66.93616
G1 X84.909 Y139.350 E66.98713
G1 X84.775 Y138.725 E67.03823
G1 X84.749 Y138.084 E67.08956
G1 X84.829 Y137.459 E67.14003
