; generated by Slic3r 1.2.9 on 2017-08-19 at 13:36:28

; external perimeters extrusion width = 0.40mm
; perimeters extrusion width = 0.48mm
; infill extrusion width = 0.48mm
; solid infill extrusion width = 0.48mm
; top infill extrusion width = 0.48mm

M107
M190 S70 ; set bed temperature
M104 S240 ; set temperature
G21 ; set units to millimeters
G90 ; use absolute coordinates
M203 Z4; max speed min/sec
G1 Z20 F200;
G28 X F2000;
G1 X140 F2000;
G28 Y F2000;
G1 Y140 F2000;
G28 Z F200;
G1 Z5 F500 ; lift nozzle

M109 S240 ; wait for temperature to be reached
G21 ; set units to millimeters
G90 ; use absolute coordinates
M82 ; use absolute distances for extrusion
G92 E0
G1 Z0.200 F3600.000
G1 E-2.00000 F2400.00000
G92 E0
G1 X81.506 Y126.564 F3600.000
G1 E2.00000 F2400.00000
G1 X85.195 Y126.564 E2.29524 F900.000
G1 X118.494 Y126.564 E4.95975 F900.000
G1 X123.436 Y131.506 E5.51897
G1 X123.436 Y168.494 E8.47873
G1 X118.494 Y173.436 E9.03794
G1 X81.506 Y173.436 E11.99769
G1 X76.564 Y168.494 E12.55691
G1 X76.564 Y131.506 E15.51667
G1 X81.463 Y126.606 E16.07109
G1 X81.765 Y127.189 F3600.000
G1 X118.235 Y127.189 E18.98942 F900.000
G1 X122.811 Y131.765 E19.50721
G1 X122.811 Y168.235 E22.42554
G1 X118.235 Y172.811 E22.94333
G1 X81.765 Y172.811 E25.86166
G1 X77.189 Y168.235 E26.37946
G1 X77.189 Y131.765 E29.29779
G1 X81.722 Y127.231 E29.81078
G1 X82.023 Y127.814 F3600.000
G1 X85.195 Y127.814 E30.06460 F900.000
G1 X117.977 Y127.814 E32.68769 F900.000
G1 X122.186 Y132.023 E33.16406
G1 X122.186 Y167.977 E36.04097
G1 X117.977 Y172.186 E36.51734
G1 X82.023 Y172.186 E39.39424
G1 X77.814 Y167.977 E39.87062
G1 X77.814 Y132.023 E42.74753
G1 X81.981 Y127.856 E43.21910
G1 X82.282 Y128.439 F3600.000
G1 X117.718 Y128.439 E46.05458 F900.000
G1 X121.561 Y132.282 E46.48953
G1 X121.561 Y167.718 E49.32501
G1 X117.718 Y171.561 E49.75996
G1 X82.282 Y171.561 E52.59544
G1 X78.439 Y167.718 E53.03039
G1 X78.439 Y132.282 E55.86587
G1 X82.240 Y128.481 E56.29602
G1 X82.541 Y129.064 F3600.000
G1 X85.195 Y129.064 E56.50842 F900.000
G1 X117.459 Y129.064 E59.09008 F900.000
G1 X120.936 Y132.541 E59.48360
G1 X120.936 Y167.459 E62.27767
G1 X117.459 Y170.936 E62.67119
G1 X82.541 Y170.936 E65.46525
G1 X79.064 Y167.459 E65.85878
G1 X79.064 Y132.541 E68.65284
G1 X82.499 Y129.106 E69.04156
G1 X82.800 Y129.688 F3600.000
G1 X117.200 Y129.688 E71.79420 F900.000
G1 X120.312 Y132.800 E72.14630
G1 X120.312 Y167.200 E74.89894
G1 X117.200 Y170.312 E75.25103
G1 X82.800 Y170.312 E78.00367
G1 X79.688 Y167.200 E78.35577
G1 X79.688 Y132.800 E81.10841
G1 X82.757 Y129.731 E81.45571
G1 X83.059 Y130.313 F3600.000
G1 X85.195 Y130.313 E81.62668 F900.000
G1 X116.941 Y130.313 E84.16693 F900.000
G1 X119.687 Y133.059 E84.47760
G1 X119.687 Y166.941 E87.18882
G1 X116.941 Y169.687 E87.49949
G1 X83.059 Y169.687 E90.21071
G1 X80.313 Y166.941 E90.52138
G1 X80.313 Y133.059 E93.23260
G1 X83.016 Y130.356 E93.53848
G1 X83.318 Y130.938 F3600.000
G1 X116.682 Y130.938 E96.20827 F900.000
G1 X119.062 Y133.318 E96.47752
G1 X119.062 Y166.682 E99.14731
G1 X116.682 Y169.062 E99.41656
G1 X83.318 Y169.062 E102.08635
G1 X80.938 Y166.682 E102.35561
G1 X80.938 Y133.318 E105.02540
G1 X83.275 Y130.981 E105.28985
G1 X83.576 Y131.563 F3600.000
G1 X84.937 Y131.563 E105.39869 F900.000
G1 X116.424 Y131.563 E107.91822 F900.000
G1 X118.437 Y133.576 E108.14605
G1 X118.437 Y166.424 E110.77442
G1 X116.424 Y168.437 E111.00225
G1 X83.576 Y168.437 E113.63062
G1 X81.563 Y166.424 E113.85845
G1 X81.563 Y133.576 E116.48681
G1 X83.534 Y131.606 E116.70984
G1 X83.835 Y132.188 F3600.000
G1 X116.165 Y132.188 E119.29679 F900.000
G1 X117.812 Y133.835 E119.48319
G1 X117.812 Y166.165 E122.07014
G1 X116.165 Y167.812 E122.25655
G1 X83.835 Y167.812 E124.84349
G1 X82.188 Y166.165 E125.02990
G1 X82.188 Y133.835 E127.61684
G1 X83.793 Y132.230 E127.79845
G1 X84.094 Y132.813 F3600.000
G1 X85.454 Y132.813 E127.90728 F900.000
G1 X115.906 Y132.813 E130.34397 F900.000
G1 X117.187 Y134.094 E130.48895
G1 X117.187 Y165.906 E133.03447
G1 X115.906 Y167.187 E133.17946
G1 X84.094 Y167.187 E135.72498
G1 X82.813 Y165.906 E135.86996
G1 X82.813 Y134.094 E138.41548
G1 X84.052 Y132.855 E138.55566
G1 X84.353 Y133.438 F3600.000
G1 X115.647 Y133.438 E141.05976 F900.000
G1 X116.562 Y134.353 E141.16332
G1 X116.562 Y165.647 E143.66742
G1 X115.647 Y166.562 E143.77098
G1 X84.353 Y166.562 E146.27508
G1 X83.438 Y165.647 E146.37864
G1 X83.438 Y134.353 E148.88274
G1 X84.310 Y133.480 E148.98149
G1 X84.612 Y134.063 F3600.000
G1 X85.195 Y134.063 E149.02819 F900.000
G1 X115.388 Y134.063 E151.44417 F900.000
G1 X115.937 Y134.612 E151.50630
G1 X115.937 Y165.388 E153.96898
G1 X115.388 Y165.937 E154.03112
G1 X84.612 Y165.937 E156.49379
G1 X84.063 Y165.388 E156.55593
G1 X84.063 Y134.612 E159.01860
G1 X84.569 Y134.105 E159.07594
G1 X84.688 Y134.871 F3600.000
G1 X84.871 Y134.688 E159.09665 F900.000
G1 X115.129 Y134.688 E161.51790
G1 X115.312 Y134.871 E161.53861
G1 X115.312 Y165.129 E163.95987
G1 X115.129 Y165.312 E163.98058
G1 X84.871 Y165.312 E166.40183
G1 X84.688 Y165.129 E166.42254
G1 X84.688 Y134.931 E168.83899
G1 E166.83899 F2400.00000
G92 E0
G1 X99.086 Y164.491 F3600.000
G1 E2.00000 F2400.00000
G1 X100.090 Y164.500 E2.08033 F300.000
G1 X100.914 Y164.480 E2.14629
G1 X87.578 Y164.650 F3600.000
G1 X85.350 Y164.650 E2.32456 F300.000
G1 X85.350 Y162.422 E2.50283
G1 X85.673 Y162.377 E2.52894
G1 X85.807 Y162.847 E2.56801
G1 X85.999 Y163.234 E2.60262
G1 X86.255 Y163.572 E2.63656
G1 X86.428 Y163.745 E2.65607
G1 X86.766 Y164.001 E2.69002
G1 X87.153 Y164.193 E2.72462
G1 X87.623 Y164.327 E2.76370
G1 X87.586 Y164.591 E2.78501
G1 X87.241 Y164.434 F3600.000
G1 X88.422 Y164.650 F3600.000
G1 X88.377 Y164.327 E2.81111 F300.000
G1 X88.847 Y164.193 E2.85019
G1 X89.234 Y164.001 E2.88479
G1 X89.572 Y163.745 E2.91874
G1 X89.745 Y163.572 E2.93825
G1 X90.001 Y163.234 E2.97220
G1 X90.193 Y162.847 E3.00680
G1 X90.312 Y162.431 E3.04141
G1 X90.351 Y162.000 E3.07603
G1 X90.312 Y161.569 E3.11064
G1 X90.193 Y161.153 E3.14525
G1 X89.954 Y160.672 E3.18825
G1 X90.208 Y160.485 E3.21348
G1 X90.872 Y161.073 E3.28444
G1 X91.434 Y161.513 E3.34156
G1 X92.017 Y161.925 E3.39868
G1 X92.620 Y162.307 E3.45580
G1 X93.241 Y162.659 E3.51291
G1 X93.879 Y162.979 E3.57003
G1 X94.532 Y163.267 E3.62715
G1 X95.198 Y163.523 E3.68426
G1 X95.877 Y163.745 E3.74138
G1 X96.565 Y163.933 E3.79850
G1 X97.262 Y164.086 E3.85562
G1 X97.966 Y164.205 E3.91273
G1 X98.746 Y164.297 E3.97559
G1 X98.726 Y164.650 E4.00389
G1 X88.482 Y164.650 E4.82356
G1 X88.559 Y164.354 F3600.000
G1 X90.186 Y164.025 F3600.000
G1 X90.534 Y163.564 E4.86977 F300.000
G1 X90.778 Y163.073 E4.91364
G1 X90.928 Y162.546 E4.95752
G1 X90.983 Y161.959 E5.00466
G1 X91.669 Y162.444 E5.07190
G1 X92.298 Y162.843 E5.13151
G1 X92.947 Y163.210 E5.19111
G1 X93.612 Y163.544 E5.25072
G1 X94.027 Y163.728 E5.28699
G1 X93.964 Y164.025 E5.31133
G1 X90.246 Y164.025 E5.60883
G1 X90.234 Y164.000 F3600.000
G1 X91.416 Y162.974 F3600.000
G1 X91.206 Y162.450 F3600.000
G1 X91.128 Y162.278 F3600.000
G1 X91.028 Y162.058 F3600.000
G1 X91.004 Y162.002 F3600.000
G1 X89.337 Y160.078 F3600.000
G1 X89.063 Y159.909 E5.63455 F300.000
G1 X88.845 Y159.807 E5.65382
G1 X88.429 Y159.688 E5.68844
G1 X88.000 Y159.649 E5.72292
G1 X87.773 Y159.669 E5.74114
G1 X87.568 Y159.689 E5.75761
G1 X87.153 Y159.807 E5.79214
G1 X86.766 Y159.999 E5.82675
G1 X86.421 Y160.260 E5.86134
G1 X86.137 Y160.572 E5.89513
G1 X85.997 Y160.772 E5.91464
G1 X85.807 Y161.153 E5.94874
G1 X85.673 Y161.623 E5.98782
G1 X85.350 Y161.578 E6.01392
G1 X85.350 Y151.293 E6.83687
G1 X85.702 Y151.271 E6.86506
G1 X85.809 Y152.134 E6.93459
G1 X85.933 Y152.837 E6.99170
G1 X86.092 Y153.533 E7.04882
G1 X86.284 Y154.220 E7.10594
G1 X86.511 Y154.897 E7.16305
G1 X86.772 Y155.561 E7.22017
G1 X87.064 Y156.212 E7.27729
G1 X87.391 Y156.851 E7.33465
G1 X88.018 Y157.896 E7.43221
G1 X88.427 Y158.485 E7.48957
G1 X88.863 Y159.050 E7.54669
G1 X89.545 Y159.823 E7.62914
G1 X89.375 Y160.031 E7.65068
G1 X89.197 Y159.788 F3600.000
G1 X88.037 Y159.018 F3600.000
G1 X87.451 Y159.072 E7.69775 F300.000
G1 X86.927 Y159.222 E7.74140
G1 X86.436 Y159.466 E7.78527
G1 X85.975 Y159.814 E7.83148
G1 X85.975 Y156.036 E8.13380
G1 X86.271 Y155.972 E8.15805
G1 X86.501 Y156.483 E8.20287
G1 X86.844 Y157.154 E8.26317
G1 X87.493 Y158.236 E8.36410
G1 X88.003 Y158.969 E8.43557
G1 X86.000 Y155.383 F3600.000
G1 X86.000 Y155.383 F3600.000
G1 X85.512 Y149.067 F3600.000
G1 X85.512 Y150.933 E8.58483 F300.000
G1 X85.702 Y148.728 F3600.000
G1 X85.350 Y148.707 E8.61302 F300.000
G1 X85.350 Y138.422 E9.43596
G1 X85.673 Y138.377 E9.46207
G1 X85.807 Y138.847 E9.50114
G1 X85.999 Y139.234 E9.53575
G1 X86.255 Y139.572 E9.56969
G1 X86.428 Y139.745 E9.58920
G1 X86.766 Y140.001 E9.62315
G1 X87.153 Y140.193 E9.65775
G1 X87.569 Y140.312 E9.69236
G1 X88.000 Y140.351 E9.72698
G1 X88.431 Y140.312 E9.76159
G1 X88.847 Y140.193 E9.79620
G1 X89.333 Y139.951 E9.83965
G1 X89.520 Y140.204 E9.86478
G1 X88.863 Y140.950 E9.94433
G1 X88.427 Y141.515 E10.00145
G1 X88.018 Y142.104 E10.05882
G1 X87.391 Y143.149 E10.15637
G1 X87.064 Y143.788 E10.21373
G1 X86.772 Y144.439 E10.27085
G1 X86.511 Y145.103 E10.32797
G1 X86.284 Y145.780 E10.38508
G1 X86.092 Y146.467 E10.44220
G1 X85.933 Y147.163 E10.49932
G1 X85.809 Y147.866 E10.55644
G1 X85.709 Y148.669 E10.62116
G1 X85.412 Y148.528 F3600.000
G1 X86.271 Y144.028 F3600.000
G1 X85.975 Y143.964 E10.64541 F300.000
G1 X85.975 Y140.186 E10.94773
G1 X86.436 Y140.534 E10.99394
G1 X86.927 Y140.778 E11.03781
G1 X87.454 Y140.928 E11.08168
G1 X88.037 Y140.982 E11.12850
G1 X87.493 Y141.764 E11.20471
G1 X86.844 Y142.846 E11.30564
G1 X86.501 Y143.517 E11.36594
G1 X86.296 Y143.973 E11.40597
G1 X85.673 Y137.623 F3600.000
G1 X85.350 Y137.578 E11.43207 F300.000
G1 X85.350 Y135.350 E11.61034
G1 X87.578 Y135.350 E11.78861
G1 X87.623 Y135.673 E11.81472
G1 X87.153 Y135.807 E11.85380
G1 X86.766 Y135.999 E11.88840
G1 X86.421 Y136.260 E11.92299
G1 X86.137 Y136.572 E11.95678
G1 X85.997 Y136.772 E11.97629
G1 X85.807 Y137.153 E12.01039
G1 X85.690 Y137.565 E12.04467
G1 X85.425 Y137.411 F3600.000
G1 E10.04467 F2400.00000
G92 E0
G1 X90.234 Y136.000 F3600.000
G1 X90.234 Y136.000 F3600.000
G1 X88.383 Y135.676 F3600.000
G1 E2.00000 F2400.00000
G1 X88.426 Y135.350 E2.02631 F300.000
G1 X98.726 Y135.350 E2.85051
G1 X98.746 Y135.703 E2.87880
G1 X97.966 Y135.795 E2.94166
G1 X97.262 Y135.914 E2.99878
G1 X96.565 Y136.067 E3.05590
G1 X95.877 Y136.255 E3.11301
G1 X95.198 Y136.477 E3.17013
G1 X94.532 Y136.733 E3.22725
G1 X93.879 Y137.021 E3.28437
G1 X93.241 Y137.341 E3.34148
G1 X92.620 Y137.693 E3.39860
G1 X92.017 Y138.075 E3.45572
G1 X91.434 Y138.487 E3.51284
G1 X90.872 Y138.927 E3.56995
G1 X90.208 Y139.515 E3.64091
G1 X89.954 Y139.328 E3.66614
G1 X90.193 Y138.847 E3.70914
G1 X90.312 Y138.431 E3.74375
G1 X90.351 Y138.000 E3.77837
G1 X90.312 Y137.569 E3.81298
G1 X90.193 Y137.153 E3.84760
G1 X90.001 Y136.766 E3.88220
G1 X89.740 Y136.421 E3.91679
G1 X89.421 Y136.130 E3.95137
G1 X89.063 Y135.909 E3.98500
G1 X88.845 Y135.807 E4.00427
G1 X88.441 Y135.692 E4.03793
G1 X88.595 Y135.425 F3600.000
G1 X90.186 Y135.975 F3600.000
G1 X93.964 Y135.975 E4.34024 F300.000
G1 X94.027 Y136.272 E4.36457
G1 X93.612 Y136.456 E4.40085
G1 X92.947 Y136.790 E4.46046
G1 X92.298 Y137.157 E4.52006
G1 X91.669 Y137.556 E4.57967
G1 X90.983 Y138.041 E4.64691
G1 X90.928 Y137.454 E4.69405
G1 X90.778 Y136.927 E4.73793
G1 X90.534 Y136.436 E4.78180
G1 X90.222 Y136.023 E4.82321
G1 X100.914 Y135.509 F3600.000
G1 X99.910 Y135.500 E4.90354 F300.000
G1 X99.086 Y135.520 E4.96950
G1 X101.254 Y135.703 F3600.000
G1 X101.274 Y135.350 E4.99779 F300.000
G1 X111.578 Y135.350 E5.82226
G1 X111.623 Y135.673 E5.84837
G1 X111.153 Y135.807 E5.88745
G1 X110.766 Y135.999 E5.92205
G1 X110.421 Y136.260 E5.95665
G1 X110.137 Y136.572 E5.99043
G1 X109.997 Y136.772 E6.00995
G1 X109.807 Y137.153 E6.04405
G1 X109.688 Y137.569 E6.07866
G1 X109.649 Y138.000 E6.11327
G1 X109.688 Y138.431 E6.14789
G1 X109.807 Y138.847 E6.18250
G1 X110.046 Y139.328 E6.22550
G1 X109.792 Y139.515 E6.25073
G1 X109.128 Y138.927 E6.32169
G1 X108.566 Y138.487 E6.37880
G1 X107.983 Y138.075 E6.43592
G1 X107.380 Y137.693 E6.49304
G1 X106.759 Y137.341 E6.55016
G1 X106.121 Y137.021 E6.60727
G1 X105.468 Y136.733 E6.66439
G1 X104.802 Y136.477 E6.72151
G1 X104.123 Y136.255 E6.77863
G1 X103.435 Y136.067 E6.83574
G1 X102.738 Y135.914 E6.89286
G1 X102.034 Y135.795 E6.94998
G1 X101.313 Y135.710 E7.00804
G1 X101.454 Y135.412 F3600.000
G1 X105.973 Y136.272 F3600.000
G1 X106.036 Y135.975 E7.03237 F300.000
G1 X109.792 Y135.975 E7.33291
G1 X109.458 Y136.452 E7.37947
G1 X109.222 Y136.927 E7.42193
G1 X109.072 Y137.454 E7.46581
G1 X109.017 Y138.041 E7.51295
G1 X108.331 Y137.556 E7.58020
G1 X107.702 Y137.157 E7.63980
G1 X107.053 Y136.790 E7.69941
G1 X106.388 Y136.456 E7.75901
G1 X106.028 Y136.297 E7.79049
G1 X112.383 Y135.676 F3600.000
G1 X112.426 Y135.350 E7.81680 F300.000
G1 X114.650 Y135.350 E7.99480
G1 X114.650 Y137.578 E8.17307
G1 X114.327 Y137.623 E8.19917
G1 X114.193 Y137.153 E8.23825
G1 X114.001 Y136.766 E8.27285
G1 X113.740 Y136.421 E8.30745
G1 X113.421 Y136.130 E8.34203
G1 X113.063 Y135.909 E8.37565
G1 X112.845 Y135.807 E8.39492
G1 X112.441 Y135.692 E8.42859
G1 X112.595 Y135.425 F3600.000
G1 E6.42859 F2400.00000
G92 E0
G1 X114.000 Y140.234 F3600.000
G1 X114.000 Y140.234 F3600.000
G1 X114.327 Y138.377 F3600.000
G1 E2.00000 F2400.00000
G1 X114.650 Y138.422 E2.02611 F300.000
G1 X114.650 Y148.707 E2.84905
G1 X114.298 Y148.729 E2.87724
G1 X114.191 Y147.866 E2.94677
G1 X114.067 Y147.163 E3.00389
G1 X113.908 Y146.467 E3.06100
G1 X113.716 Y145.780 E3.11812
G1 X113.489 Y145.103 E3.17524
G1 X113.228 Y144.439 E3.23235
G1 X112.936 Y143.788 E3.28947
G1 X112.609 Y143.149 E3.34684
G1 X111.982 Y142.104 E3.44439
G1 X111.573 Y141.515 E3.50176
G1 X111.137 Y140.950 E3.55887
G1 X110.480 Y140.204 E3.63842
G1 X110.667 Y139.951 E3.66356
G1 X111.153 Y140.193 E3.70700
G1 X111.569 Y140.312 E3.74161
G1 X112.000 Y140.351 E3.77623
G1 X112.431 Y140.312 E3.81084
G1 X112.847 Y140.193 E3.84545
G1 X113.234 Y140.001 E3.88006
G1 X113.572 Y139.745 E3.91400
G1 X113.745 Y139.572 E3.93352
G1 X114.001 Y139.234 E3.96746
G1 X114.193 Y138.847 E4.00206
G1 X114.310 Y138.435 E4.03634
G1 X114.575 Y138.589 F3600.000
G1 X114.025 Y140.186 F3600.000
G1 X114.025 Y143.964 E4.33866 F300.000
G1 X113.729 Y144.028 E4.36290
G1 X113.499 Y143.517 E4.40773
G1 X113.156 Y142.846 E4.46803
G1 X112.507 Y141.764 E4.56896
G1 X111.963 Y140.982 E4.64517
G1 X112.546 Y140.928 E4.69199
G1 X113.073 Y140.778 E4.73586
G1 X113.564 Y140.534 E4.77973
G1 X113.977 Y140.222 E4.82114
G1 X114.488 Y150.933 F3600.000
G1 X114.488 Y149.067 E4.97040 F300.000
G1 X114.298 Y151.271 F3600.000
G1 X114.650 Y151.293 E4.99859 F300.000
G1 X114.650 Y161.578 E5.82153
G1 X114.327 Y161.623 E5.84764
G1 X114.193 Y161.153 E5.88672
G1 X114.001 Y160.766 E5.92132
G1 X113.740 Y160.421 E5.95592
G1 X113.421 Y160.130 E5.99050
G1 X113.063 Y159.909 E6.02412
G1 X112.845 Y159.807 E6.04339
G1 X112.429 Y159.688 E6.07801
G1 X112.000 Y159.649 E6.11249
G1 X111.568 Y159.689 E6.14718
G1 X111.153 Y159.807 E6.18171
G1 X110.667 Y160.049 E6.22515
G1 X110.480 Y159.796 E6.25029
G1 X111.137 Y159.050 E6.32984
G1 X111.573 Y158.485 E6.38696
G1 X111.982 Y157.896 E6.44433
G1 X112.609 Y156.851 E6.54188
G1 X112.936 Y156.212 E6.59924
G1 X113.228 Y155.561 E6.65636
G1 X113.489 Y154.897 E6.71348
G1 X113.716 Y154.220 E6.77059
G1 X113.908 Y153.533 E6.82771
G1 X114.067 Y152.837 E6.88483
G1 X114.191 Y152.134 E6.94194
G1 X114.291 Y151.331 E7.00667
G1 X114.588 Y151.472 F3600.000
G1 X113.729 Y155.972 F3600.000
G1 X114.025 Y156.036 E7.03092 F300.000
G1 X114.025 Y159.769 E7.32966
G1 X113.361 Y159.358 E7.39217
G1 X113.069 Y159.222 E7.41795
G1 X112.541 Y159.072 E7.46186
G1 X111.963 Y159.018 E7.50833
G1 X112.507 Y158.236 E7.58460
G1 X113.156 Y157.154 E7.68553
G1 X113.499 Y156.483 E7.74582
G1 X113.704 Y156.027 E7.78585
G1 X114.327 Y162.377 F3600.000
G1 X114.650 Y162.422 E7.81196 F300.000
G1 X114.650 Y164.650 E7.99023
G1 X112.422 Y164.650 E8.16850
G1 X112.377 Y164.327 E8.19460
G1 X112.847 Y164.193 E8.23368
G1 X113.234 Y164.001 E8.26828
G1 X113.572 Y163.745 E8.30223
