; generated by Slic3r 1.2.9 on 2017-08-19 at 13:40:03

; external perimeters extrusion width = 0.40mm
; perimeters extrusion width = 0.48mm
; infill extrusion width = 0.48mm
; solid infill extrusion width = 0.48mm
; top infill extrusion width = 0.48mm

M107
M190 S70 ; set bed temperature
M104 S240 ; set temperature
G21 ; set units to millimeters
G90 ; use absolute coordinates
M203 Z4; max speed min/sec
G1 Z20 F200;
G28 X F2000;
G1 X140 F2000;
G28 Y F2000;
G1 Y140 F2000;
G28 Z F200;
G1 Z5 F500 ; lift nozzle

M109 S240 ; wait for temperature to be reached
G21 ; set units to millimeters
G90 ; use absolute coordinates
M82 ; use absolute distances for extrusion
G92 E0
G1 Z0.200 F3600.000
G1 E-2.00000 F2400.00000
G92 E0
G1 X76.984 Y123.273 F3600.000
G1 E2.00000 F2400.00000
G1 X77.606 Y122.915 E2.05745 F900.000
G1 X78.251 Y122.596 E2.11497
G1 X78.913 Y122.318 E2.17247
G1 X79.592 Y122.083 E2.22998
G1 X80.285 Y121.890 E2.28747
G1 X80.987 Y121.742 E2.34488
G1 X81.698 Y121.638 E2.40242
G1 X82.413 Y121.578 E2.45986
G1 X82.934 Y121.564 E2.50151
G1 X117.198 Y121.566 E5.24326
G1 X117.850 Y121.595 E5.29546 F900.000
G1 X118.565 Y121.671 E5.35301
G1 X119.272 Y121.791 E5.41045
G1 X119.715 Y121.890 E5.44675
G1 X120.660 Y122.165 E5.52551
G1 X121.087 Y122.318 E5.56181
G1 X121.749 Y122.596 E5.61926
G1 X122.625 Y123.042 E5.69791
G1 X123.016 Y123.273 E5.73424
G1 X123.614 Y123.670 E5.79168
G1 X124.394 Y124.275 E5.87062
G1 X124.925 Y124.754 E5.92787
G1 X125.245 Y125.074 E5.96412
G1 X125.895 Y125.811 E6.04268
G1 X126.173 Y126.170 E6.07903
G1 X126.586 Y126.762 E6.13677
G1 X127.085 Y127.606 E6.21526
G1 X127.291 Y128.011 E6.25163
G1 X127.585 Y128.668 E6.30921
G1 X127.917 Y129.591 E6.38768
G1 X128.044 Y130.028 E6.42412
G1 X128.209 Y130.726 E6.48153
G1 X128.362 Y131.696 E6.56012
G1 X128.422 Y132.414 E6.61770
G1 X128.436 Y132.933 E6.65930
G1 X128.436 Y167.066 E9.39054
G1 X128.422 Y167.587 E9.43221
G1 X128.362 Y168.304 E9.48982
G1 X128.259 Y169.011 E9.54702
G1 X128.110 Y169.715 E9.60460
G1 X127.835 Y170.662 E9.68345
G1 X127.681 Y171.089 E9.71976
G1 X127.404 Y171.748 E9.77701
G1 X126.958 Y172.625 E9.85570
G1 X126.586 Y173.238 E9.91314
G1 X126.173 Y173.831 E9.97093
G1 X125.726 Y174.393 E10.02834
G1 X125.426 Y174.733 E10.06470
G1 X124.732 Y175.427 E10.14322
G1 X124.188 Y175.895 E10.20061
G1 X123.614 Y176.330 E10.25827
G1 X123.015 Y176.727 E10.31573
G1 X122.624 Y176.958 E10.35208
G1 X121.989 Y177.291 E10.40951
G1 X121.089 Y177.681 E10.48800
G1 X120.407 Y177.917 E10.54569
G1 X119.715 Y178.110 E10.60316
G1 X119.272 Y178.209 E10.63955
G1 X118.303 Y178.362 E10.71799
G1 X117.587 Y178.422 E10.77555
G1 X117.066 Y178.436 E10.81721
G1 X82.933 Y178.436 E13.54845
G1 X82.414 Y178.422 E13.59005
G1 X81.696 Y178.362 E13.64764
G1 X80.726 Y178.209 E13.72622
G1 X80.029 Y178.044 E13.78359
G1 X79.591 Y177.917 E13.82008
G1 X78.912 Y177.681 E13.87755
G1 X78.252 Y177.405 E13.93482
G1 X77.375 Y176.958 E14.01358
G1 X76.762 Y176.586 E14.07097
G1 X76.386 Y176.330 E14.10737
G1 X75.811 Y175.895 E14.16508
G1 X75.268 Y175.428 E14.22235
G1 X74.574 Y174.733 E14.30097
G1 X74.105 Y174.189 E14.35846
G1 X73.826 Y173.829 E14.39487
G1 X73.273 Y173.016 E14.47353
G1 X72.914 Y172.392 E14.53111
G1 X72.709 Y171.989 E14.56735
G1 X72.417 Y171.335 E14.62467
G1 X72.165 Y170.660 E14.68226
G1 X71.956 Y169.972 E14.73980
G1 X71.791 Y169.272 E14.79733
G1 X71.638 Y168.302 E14.87596
G1 X71.578 Y167.586 E14.93346
G1 X71.564 Y167.066 E14.97507
G1 X71.564 Y132.934 E17.70626
G1 X71.578 Y132.413 E17.74791
G1 X71.638 Y131.697 E17.80540
G1 X71.742 Y130.987 E17.86289
G1 X71.890 Y130.285 E17.92024
G1 X72.083 Y129.592 E17.97779
G1 X72.416 Y128.667 E18.05649
G1 X72.709 Y128.011 E18.11399
G1 X73.042 Y127.375 E18.17148
G1 X73.415 Y126.761 E18.22896
G1 X73.826 Y126.171 E18.28646
G1 X74.273 Y125.608 E18.34396
G1 X74.754 Y125.075 E18.40145
G1 X75.268 Y124.573 E18.45893
G1 X75.812 Y124.104 E18.51641
G1 X76.386 Y123.670 E18.57396
G1 X76.934 Y123.305 E18.62662
G1 X77.311 Y123.806 F3600.000
G1 X77.899 Y123.467 E18.68094 F900.000
G1 X78.508 Y123.166 E18.73531
G1 X79.134 Y122.903 E18.78967
G1 X79.776 Y122.680 E18.84403
G1 X80.431 Y122.498 E18.89839
G1 X81.094 Y122.358 E18.95266
G1 X81.767 Y122.259 E19.00706
G1 X82.443 Y122.203 E19.06135
G1 X82.939 Y122.189 E19.10103
G1 X117.061 Y122.189 E21.83144
G1 X117.556 Y122.203 E21.87108 F900.000
G1 X118.233 Y122.259 E21.92545
G1 X119.146 Y122.403 E21.99937
G1 X119.569 Y122.498 E22.03409
G1 X120.224 Y122.680 E22.08849
G1 X121.095 Y122.994 E22.16255
G1 X121.712 Y123.269 E22.21665
G1 X122.316 Y123.585 E22.27113
G1 X122.689 Y123.806 E22.30588
G1 X123.255 Y124.181 E22.36019
G1 X123.988 Y124.750 E22.43440
G1 X124.490 Y125.203 E22.48852
G1 X124.796 Y125.509 E22.52320
G1 X125.407 Y126.202 E22.59706
G1 X125.673 Y126.545 E22.63184
G1 X126.063 Y127.105 E22.68642
G1 X126.533 Y127.899 E22.76021
G1 X126.730 Y128.286 E22.79500
G1 X127.007 Y128.907 E22.84943
G1 X127.320 Y129.775 E22.92321
G1 X127.441 Y130.193 E22.95807
G1 X127.597 Y130.853 E23.01235
G1 X127.741 Y131.765 E23.08622
G1 X127.797 Y132.443 E23.14066
G1 X127.811 Y132.938 E23.18030
G1 X127.811 Y167.061 E25.91075
G1 X127.797 Y167.557 E25.95045
G1 X127.741 Y168.235 E26.00491
G1 X127.643 Y168.904 E26.05899
G1 X127.502 Y169.570 E26.11342
G1 X127.244 Y170.459 E26.18755
G1 X127.096 Y170.867 E26.22228
G1 X126.835 Y171.491 E26.27641
G1 X126.415 Y172.315 E26.35038
G1 X126.063 Y172.895 E26.40469
G1 X125.673 Y173.456 E26.45931
G1 X125.251 Y173.987 E26.51359
G1 X124.964 Y174.313 E26.54837
G1 X124.311 Y174.965 E26.62220
G1 X123.798 Y175.408 E26.67645
G1 X123.255 Y175.819 E26.73096
G1 X122.689 Y176.194 E26.78528
G1 X122.315 Y176.415 E26.82006
G1 X121.714 Y176.730 E26.87435
G1 X120.868 Y177.096 E26.94813
G1 X120.224 Y177.320 E27.00267
G1 X119.570 Y177.502 E27.05700
G1 X119.145 Y177.597 E27.09182
G1 X118.235 Y177.741 E27.16556
G1 X117.557 Y177.797 E27.21997
G1 X117.061 Y177.811 E27.25967
G1 X82.938 Y177.811 E29.99012
G1 X82.443 Y177.797 E30.02975
G1 X81.765 Y177.741 E30.08419
G1 X80.853 Y177.597 E30.15807
G1 X80.193 Y177.441 E30.21231
G1 X79.775 Y177.320 E30.24721
G1 X79.133 Y177.097 E30.30154
G1 X78.509 Y176.835 E30.35569
G1 X77.685 Y176.415 E30.42973
G1 X77.105 Y176.063 E30.48399
G1 X76.745 Y175.819 E30.51881
G1 X76.202 Y175.407 E30.57336
G1 X75.689 Y174.965 E30.62751
G1 X75.036 Y174.312 E30.70142
G1 X74.592 Y173.798 E30.75576
G1 X74.326 Y173.454 E30.79059
G1 X73.806 Y172.689 E30.86455
G1 X73.467 Y172.100 E30.91898
G1 X73.270 Y171.714 E30.95365
G1 X72.994 Y171.095 E31.00784
G1 X72.756 Y170.458 E31.06228
G1 X72.559 Y169.807 E31.11668
G1 X72.403 Y169.146 E31.17106
G1 X72.259 Y168.233 E31.24499
G1 X72.203 Y167.556 E31.29934
G1 X72.189 Y167.061 E31.33899
G1 X72.189 Y132.939 E34.06940
G1 X72.203 Y132.443 E34.10908
G1 X72.259 Y131.766 E34.16343
G1 X72.358 Y131.094 E34.21777
G1 X72.498 Y130.431 E34.27199
G1 X72.680 Y129.776 E34.32640
G1 X72.993 Y128.906 E34.40039
G1 X73.270 Y128.286 E34.45475
G1 X73.585 Y127.684 E34.50909
G1 X73.938 Y127.104 E34.56343
G1 X74.326 Y126.546 E34.61779
G1 X74.748 Y126.014 E34.67215
G1 X75.203 Y125.510 E34.72649
G1 X75.689 Y125.035 E34.78083
G1 X76.203 Y124.592 E34.83517
G1 X76.745 Y124.181 E34.88958
G1 X77.260 Y123.838 E34.93910
G1 X77.637 Y124.339 F3600.000
G1 X78.191 Y124.019 E34.99027 F900.000
G1 X78.765 Y123.735 E35.04150
G1 X79.355 Y123.488 E35.09272
G1 X79.960 Y123.277 E35.14394
G1 X80.576 Y123.106 E35.19515
G1 X81.202 Y122.973 E35.24629
G1 X81.835 Y122.880 E35.29754
G1 X82.472 Y122.827 E35.34870
G1 X82.944 Y122.814 E35.38641
G1 X117.169 Y122.816 E38.12504
G1 X117.752 Y122.841 E38.17174 F900.000
G1 X118.389 Y122.908 E38.22299
G1 X119.019 Y123.015 E38.27416
G1 X119.423 Y123.106 E38.30731
G1 X120.255 Y123.347 E38.37664
G1 X120.645 Y123.488 E38.40980
G1 X121.235 Y123.735 E38.46097
G1 X122.006 Y124.128 E38.53020
G1 X122.363 Y124.339 E38.56338
G1 X122.896 Y124.693 E38.61455
G1 X123.582 Y125.225 E38.68403
G1 X124.055 Y125.652 E38.73503
G1 X124.348 Y125.944 E38.76814
G1 X124.919 Y126.592 E38.83730
G1 X125.174 Y126.920 E38.87050
G1 X125.541 Y127.448 E38.92192
G1 X125.980 Y128.191 E38.99102
G1 X126.169 Y128.561 E39.02423
G1 X126.430 Y129.146 E39.07551
G1 X126.722 Y129.958 E39.14460
G1 X126.838 Y130.358 E39.17787
G1 X126.985 Y130.980 E39.22901
G1 X127.120 Y131.834 E39.29819
G1 X127.173 Y132.473 E39.34947
G1 X127.186 Y132.943 E39.38715
G1 X127.186 Y167.056 E42.11681
G1 X127.173 Y167.528 E42.15454
G1 X127.120 Y168.167 E42.20585
G1 X126.985 Y169.018 E42.27487
G1 X126.894 Y169.424 E42.30809
G1 X126.723 Y170.040 E42.35931
G1 X126.512 Y170.646 E42.41066
G1 X126.169 Y171.439 E42.47976
G1 X125.872 Y172.005 E42.53093
G1 X125.661 Y172.362 E42.56410
G1 X125.308 Y172.895 E42.61529
G1 X124.920 Y173.407 E42.66664
G1 X124.348 Y174.056 E42.73586
G1 X124.055 Y174.348 E42.76897
G1 X123.581 Y174.776 E42.82010
G1 X122.895 Y175.308 E42.88949
G1 X122.362 Y175.661 E42.94068
G1 X122.005 Y175.872 E42.97387
G1 X121.439 Y176.169 E43.02503
G1 X120.646 Y176.512 E43.09412
G1 X120.040 Y176.723 E43.14550
G1 X119.424 Y176.894 E43.19669
G1 X119.018 Y176.985 E43.22993
G1 X118.166 Y177.120 E43.29898
G1 X117.528 Y177.173 E43.35024
G1 X117.056 Y177.186 E43.38797
G1 X82.943 Y177.186 E46.11764
G1 X82.473 Y177.173 E46.15531
G1 X81.834 Y177.120 E46.20660
G1 X80.980 Y176.985 E46.27577
G1 X80.358 Y176.838 E46.32687
G1 X79.958 Y176.722 E46.36019
G1 X79.354 Y176.512 E46.41138
G1 X78.766 Y176.265 E46.46240
G1 X77.994 Y175.872 E46.53172
G1 X77.448 Y175.541 E46.58285
G1 X77.104 Y175.307 E46.61609
G1 X76.593 Y174.919 E46.66749
G1 X76.110 Y174.503 E46.71851
G1 X75.498 Y173.891 E46.78771
G1 X75.080 Y173.407 E46.83892
G1 X74.825 Y173.079 E46.87217
G1 X74.339 Y172.363 E46.94141
G1 X74.019 Y171.808 E46.99269
G1 X73.831 Y171.439 E47.02580
G1 X73.571 Y170.856 E47.07686
G1 X73.347 Y170.255 E47.12815
G1 X73.162 Y169.642 E47.17940
G1 X73.015 Y169.019 E47.23064
G1 X72.880 Y168.165 E47.29986
G1 X72.827 Y167.527 E47.35107
G1 X72.814 Y167.056 E47.38875
G1 X72.814 Y132.944 E50.11838
G1 X72.827 Y132.472 E50.15609
G1 X72.880 Y131.835 E50.20730
G1 X72.973 Y131.202 E50.25850
G1 X73.105 Y130.577 E50.30959
G1 X73.277 Y129.960 E50.36085
G1 X73.571 Y129.145 E50.43013
G1 X73.831 Y128.561 E50.48134
G1 X74.128 Y127.994 E50.53254
G1 X74.460 Y127.447 E50.58375
G1 X74.825 Y126.921 E50.63496
G1 X75.223 Y126.420 E50.68618
G1 X75.652 Y125.945 E50.73738
G1 X76.109 Y125.497 E50.78858
G1 X76.594 Y125.080 E50.83978
G1 X77.104 Y124.693 E50.89104
G1 X77.587 Y124.371 E50.93742
G1 X77.964 Y124.872 F3600.000
G1 X78.484 Y124.572 E50.98546 F900.000
G1 X79.022 Y124.305 E51.03354
G1 X79.576 Y124.072 E51.08162
G1 X80.144 Y123.875 E51.12970
G1 X80.722 Y123.713 E51.17777
G1 X81.309 Y123.589 E51.22577
G1 X81.904 Y123.501 E51.27388
G1 X82.502 Y123.451 E51.32190
G1 X117.051 Y123.439 E54.08647
G1 X117.497 Y123.451 E54.12218 F900.000
G1 X118.096 Y123.501 E54.17026
G1 X118.892 Y123.627 E54.23477
G1 X119.857 Y123.875 E54.31443
G1 X120.617 Y124.148 E54.37905
G1 X121.163 Y124.392 E54.42690
G1 X121.696 Y124.671 E54.47508
G1 X122.536 Y125.204 E54.55469
G1 X123.176 Y125.700 E54.61945
G1 X123.899 Y126.379 E54.69884
G1 X124.432 Y126.983 E54.76329
G1 X124.674 Y127.296 E54.79492
G1 X125.018 Y127.791 E54.84318
G1 X125.428 Y128.484 E54.90758
G1 X125.852 Y129.385 E54.98732
G1 X126.125 Y130.142 E55.05171
G1 X126.373 Y131.107 E55.13138
G1 X126.499 Y131.902 E55.19585
G1 X126.549 Y132.502 E55.24399
G1 X126.561 Y132.948 E55.27970
G1 X126.561 Y167.051 E58.00858
G1 X126.549 Y167.498 E58.04434
G1 X126.499 Y168.098 E58.09250
G1 X126.373 Y168.892 E58.15682
G1 X126.125 Y169.857 E58.23652
G1 X125.927 Y170.425 E58.28472
G1 X125.608 Y171.164 E58.34912
G1 X125.329 Y171.696 E58.39715
G1 X124.796 Y172.536 E58.47677
G1 X124.432 Y173.016 E58.52497
G1 X123.899 Y173.621 E58.58948
G1 X123.175 Y174.301 E58.66899
G1 X122.536 Y174.796 E58.73366
G1 X122.036 Y175.128 E58.78171
G1 X121.164 Y175.608 E58.86132
G1 X120.425 Y175.927 E58.92571
G1 X119.856 Y176.125 E58.97394
G1 X118.892 Y176.373 E59.05362
G1 X118.097 Y176.499 E59.11798
G1 X117.498 Y176.549 E59.16610
G1 X82.948 Y176.561 E61.93072
G1 X82.294 Y176.536 E61.98310
G1 X81.699 Y176.473 E62.03094
G1 X81.107 Y176.373 E62.07904
G1 X80.142 Y176.125 E62.15872
G1 X79.575 Y175.927 E62.20677
G1 X79.023 Y175.696 E62.25467
G1 X78.304 Y175.329 E62.31927
G1 X77.464 Y174.796 E62.39890
G1 X76.983 Y174.432 E62.44714
G1 X76.530 Y174.041 E62.49503
G1 X75.960 Y173.471 E62.55953
G1 X75.325 Y172.703 E62.63923
G1 X74.872 Y172.036 E62.70377
G1 X74.571 Y171.515 E62.75190
G1 X74.149 Y170.617 E62.83135
G1 X73.939 Y170.053 E62.87949
G1 X73.765 Y169.478 E62.92760
G1 X73.627 Y168.892 E62.97569
G1 X73.501 Y168.096 E63.04020
G1 X73.451 Y167.497 E63.08827
G1 X73.451 Y132.502 E65.88855
G1 X73.501 Y131.903 E65.93661
G1 X73.589 Y131.309 E65.98468
G1 X73.713 Y130.723 E66.03263
G1 X73.875 Y130.144 E66.08075
G1 X74.148 Y129.384 E66.14531
G1 X74.393 Y128.836 E66.19339
G1 X74.671 Y128.304 E66.24144
G1 X74.982 Y127.790 E66.28951
G1 X75.325 Y127.297 E66.33758
G1 X75.699 Y126.826 E66.38565
G1 X76.101 Y126.380 E66.43372
G1 X76.530 Y125.960 E66.48177
G1 X76.985 Y125.567 E66.52983
G1 X77.464 Y125.204 E66.57795
G1 X77.913 Y124.904 E66.62119
G1 X78.290 Y125.405 F3600.000
G1 X78.776 Y125.124 E66.66609 F900.000
G1 X79.279 Y124.874 E66.71103
G1 X79.797 Y124.657 E66.75596
G1 X80.327 Y124.472 E66.80090
G1 X80.868 Y124.321 E66.84582
G1 X81.417 Y124.204 E66.89069
G1 X81.972 Y124.122 E66.93565
G1 X82.531 Y124.075 E66.98053
G1 X117.139 Y124.065 E69.74979
G1 X117.654 Y124.087 E69.79099 F900.000
G1 X118.213 Y124.146 E69.83595
G1 X119.132 Y124.321 E69.91083
G1 X119.851 Y124.530 E69.97073
G1 X120.721 Y124.874 E70.04561
G1 X121.387 Y125.214 E70.10542
G1 X122.177 Y125.715 E70.18032
G1 X122.770 Y126.175 E70.24034
G1 X123.450 Y126.814 E70.31505
G1 X123.944 Y127.374 E70.37480
G1 X124.496 Y128.134 E70.44992
G1 X124.876 Y128.776 E70.50963
G1 X125.275 Y129.624 E70.58465
G1 X125.528 Y130.326 E70.64434
G1 X125.761 Y131.233 E70.71929
G1 X125.877 Y131.971 E70.77906
G1 X125.925 Y132.531 E70.82405
G1 X125.936 Y132.953 E70.85780
G1 X125.936 Y167.046 E73.58589
G1 X125.925 Y167.469 E73.61968
G1 X125.877 Y168.029 E73.66468
G1 X125.761 Y168.765 E73.72432
G1 X125.528 Y169.673 E73.79930
G1 X125.343 Y170.204 E73.84434
G1 X125.046 Y170.889 E73.90405
G1 X124.647 Y171.622 E73.97082
G1 X124.285 Y172.177 E74.02384
G1 X123.826 Y172.769 E74.08380
G1 X123.185 Y173.451 E74.15864
G1 X122.769 Y173.826 E74.20350
G1 X122.177 Y174.285 E74.26345
G1 X121.709 Y174.595 E74.30835
G1 X120.889 Y175.046 E74.38326
G1 X120.204 Y175.343 E74.44295
G1 X119.673 Y175.528 E74.48802
G1 X118.765 Y175.761 E74.56299
G1 X118.029 Y175.877 E74.62265
G1 X117.469 Y175.925 E74.66762
G1 X82.953 Y175.936 E77.42949
G1 X82.343 Y175.913 E77.47831
G1 X81.787 Y175.854 E77.52304
G1 X81.233 Y175.761 E77.56799
G1 X80.326 Y175.528 E77.64295
G1 X79.625 Y175.275 E77.70262
G1 X78.776 Y174.876 E77.77766
G1 X78.134 Y174.496 E77.83735
G1 X77.374 Y173.944 E77.91249
G1 X76.814 Y173.450 E77.97224
G1 X76.422 Y173.050 E78.01705
G1 X76.055 Y172.625 E78.06197
G1 X75.715 Y172.177 E78.10700
G1 X75.214 Y171.387 E78.18188
G1 X74.954 Y170.889 E78.22683
G1 X74.657 Y170.204 E78.28659
G1 X74.472 Y169.673 E78.33156
G1 X74.239 Y168.766 E78.40650
G1 X74.122 Y168.028 E78.46631
G1 X74.075 Y167.468 E78.51123
G1 X74.075 Y132.531 E81.30679
G1 X74.122 Y131.972 E81.35172
G1 X74.204 Y131.417 E81.39664
G1 X74.321 Y130.869 E81.44146
G1 X74.472 Y130.327 E81.48643
G1 X74.725 Y129.624 E81.54628
G1 X74.954 Y129.111 E81.59122
G1 X75.214 Y128.613 E81.63613
G1 X75.505 Y128.133 E81.68105
G1 X75.825 Y127.672 E81.72598
G1 X76.174 Y127.232 E81.77092
G1 X76.549 Y126.815 E81.81584
G1 X76.951 Y126.422 E81.86076
G1 X77.375 Y126.055 E81.90567
G1 X77.823 Y125.715 E81.95064
G1 X78.240 Y125.437 E81.99074
G1 X78.617 Y125.938 F3600.000
G1 X79.069 Y125.676 E82.03250 F900.000
G1 X79.537 Y125.444 E82.07430
G1 X80.018 Y125.241 E82.11609
G1 X80.511 Y125.069 E82.15788
G1 X81.014 Y124.929 E82.19967
G1 X81.524 Y124.820 E82.24140
G1 X82.041 Y124.744 E82.28322
G1 X82.561 Y124.700 E82.32496
G1 X117.042 Y124.688 E85.08404
G1 X117.439 Y124.700 E85.11581 F900.000
G1 X117.959 Y124.744 E85.15761
