; generated by Slic3r 1.2.9 on 2017-08-20 at 11:03:07

; external perimeters extrusion width = 0.40mm
; perimeters extrusion width = 0.48mm
; infill extrusion width = 0.48mm
; solid infill extrusion width = 0.48mm
; top infill extrusion width = 0.48mm

M107
M190 S70 ; set bed temperature
M104 S240 ; set temperature
G21 ; set units to millimeters
G90 ; use absolute coordinates
M203 Z4; max speed min/sec
G1 Z20 F200;
G28 X F2000;
G1 X140 F2000;
G28 Y F2000;
G1 Y140 F2000;
G28 Z F200;
G1 Z5 F500 ; lift nozzle

M109 S240 ; wait for temperature to be reached
G21 ; set units to millimeters
G90 ; use absolute coordinates
M82 ; use absolute distances for extrusion
G92 E0
G1 Z0.200 F3600.000
G1 E-2.00000 F2400.00000
G92 E0
G1 X99.741 Y114.311 F3600.000
G1 E2.00000 F2400.00000
G1 X100.259 Y114.311 E2.04142 F900.000
G1 X100.506 Y114.064 E2.06936
G1 X111.494 Y114.064 E2.94865
G1 X116.436 Y119.006 E3.50786
G1 X116.436 Y180.994 E8.46807
G1 X111.494 Y185.936 E9.02728
G1 X100.506 Y185.936 E9.90657
G1 X95.564 Y180.994 E10.46578
G1 X95.564 Y157.587 E12.33882
G1 X95.318 Y157.255 E12.37187
G1 X94.236 Y156.893 E12.46313
G1 X93.215 Y156.469 E12.55163
G1 X92.579 Y156.166 E12.60802
G1 X91.919 Y155.812 E12.66796
G1 X91.011 Y155.260 E12.75294
G1 X90.265 Y154.743 E12.82553
G1 X89.398 Y154.058 E12.91402
G1 X88.868 Y153.593 E12.97039
G1 X88.329 Y153.073 E13.03034
G1 X87.606 Y152.295 E13.11533
G1 X86.908 Y151.435 E13.20391
G1 X86.493 Y150.866 E13.26030
G1 X86.081 Y150.240 E13.32028
G1 X85.544 Y149.322 E13.40533
G1 X85.134 Y148.511 E13.47809
G1 X84.768 Y147.675 E13.55110
G1 X84.388 Y146.635 E13.63970
G1 X84.162 Y145.893 E13.70179
G1 X83.987 Y145.208 E13.75838
G1 X83.801 Y144.283 E13.83382
G1 X83.648 Y143.159 E13.92460
G1 X83.589 Y142.413 E13.98447
G1 X83.565 Y141.615 E14.04838
G1 X83.564 Y119.006 E15.85754
G1 X88.506 Y114.064 E16.41676
G1 X99.494 Y114.064 E17.29604
G1 X99.699 Y114.268 E17.31918
G1 E15.31918 F2400.00000
G92 E0
G1 X89.000 Y119.500 F3600.000
G1 X90.172 Y121.257 F3600.000
G1 X90.000 Y141.514 F3600.000
G1 X91.000 Y141.514 F3600.000
G1 X96.189 Y157.113 F3600.000
G1 E2.00000 F2400.00000
G1 X95.936 Y156.779 E2.03356 F900.000
G1 X95.281 Y156.591 E2.08811
G1 X94.593 Y156.357 E2.14624
G1 X93.783 Y156.037 E2.21594
G1 X92.861 Y155.608 E2.29728
G1 X92.095 Y155.193 E2.36700
G1 X91.353 Y154.737 E2.43669
G1 X90.636 Y154.240 E2.50652
G1 X89.949 Y153.706 E2.57615
G1 X89.207 Y153.053 E2.65522
G1 X88.586 Y152.441 E2.72496
G1 X87.956 Y151.742 E2.80028
G1 X87.523 Y151.212 E2.85501
G1 X87.091 Y150.629 E2.91316
G1 X86.607 Y149.903 E2.98292
G1 X86.094 Y149.025 E3.06427
G1 X85.699 Y148.245 E3.13426
G1 X85.347 Y147.441 E3.20448
G1 X84.984 Y146.447 E3.28919
G1 X84.765 Y145.729 E3.34924
G1 X84.595 Y145.063 E3.40426
G1 X84.416 Y144.175 E3.47674
G1 X84.287 Y143.259 E3.55071
G1 X84.206 Y142.229 E3.63344
G1 X84.189 Y141.536 E3.68891
G1 X84.189 Y119.265 E5.47100
G1 X88.765 Y114.689 E5.98879
G1 X99.235 Y114.689 E6.82665
G1 X99.741 Y115.195 E6.88388
G1 X100.259 Y115.195 E6.92530
G1 X100.765 Y114.689 E6.98253
G1 X111.235 Y114.689 E7.82039
G1 X115.811 Y119.265 E8.33818
G1 X115.811 Y180.735 E13.25696
G1 X111.235 Y185.311 E13.77476
G1 X100.765 Y185.311 E14.61262
G1 X96.189 Y180.735 E15.13041
G1 X96.189 Y157.173 E17.01581
G1 X96.814 Y156.629 F3600.000
G1 X96.547 Y156.289 E17.05040 F900.000
G1 X95.467 Y155.994 E17.13992
G1 X94.574 Y155.683 E17.21560
G1 X93.743 Y155.336 E17.28767
G1 X93.143 Y155.051 E17.34082
G1 X92.524 Y154.718 E17.39710
G1 X91.695 Y154.214 E17.47472
G1 X91.006 Y153.737 E17.54178
G1 X90.346 Y153.223 E17.60867
G1 X89.715 Y152.674 E17.67564
G1 X89.115 Y152.090 E17.74262
G1 X88.437 Y151.343 E17.82340
G1 X88.016 Y150.829 E17.87652
G1 X87.598 Y150.263 E17.93283
G1 X87.133 Y149.566 E17.99983
G1 X86.644 Y148.728 E18.07750
G1 X86.265 Y147.979 E18.14472
G1 X85.927 Y147.207 E18.21213
G1 X85.594 Y146.303 E18.28917
G1 X85.368 Y145.565 E18.35097
G1 X85.203 Y144.918 E18.40442
G1 X85.032 Y144.066 E18.47394
G1 X84.908 Y143.189 E18.54482
G1 X84.830 Y142.205 E18.62375
G1 X84.814 Y141.533 E18.67759
G1 X84.814 Y119.523 E20.43874
G1 X89.023 Y115.314 E20.91510
G1 X98.977 Y115.314 E21.71155
G1 X99.741 Y116.078 E21.79806
G1 X100.259 Y116.078 E21.83948
G1 X101.023 Y115.314 E21.92600
G1 X110.977 Y115.314 E22.72244
G1 X115.186 Y119.523 E23.19881
G1 X115.186 Y180.477 E28.07617
G1 X110.977 Y184.686 E28.55254
G1 X101.023 Y184.686 E29.34898
G1 X96.814 Y180.477 E29.82535
G1 X96.814 Y156.689 E31.72881
G1 X97.439 Y156.629 F3600.000
G1 X97.439 Y156.126 E31.76900 F900.000
G1 X97.164 Y155.784 E31.80410
G1 X96.273 Y155.575 E31.87735
G1 X95.654 Y155.398 E31.92888
G1 X95.009 Y155.179 E31.98336
G1 X94.152 Y154.836 E32.05729
G1 X93.426 Y154.493 E32.12152
G1 X92.720 Y154.111 E32.18573
G1 X91.905 Y153.603 E32.26261
G1 X91.376 Y153.233 E32.31421
G1 X90.838 Y152.818 E32.36860
G1 X90.139 Y152.214 E32.44255
G1 X89.563 Y151.654 E32.50678
G1 X88.917 Y150.943 E32.58366
G1 X88.510 Y150.445 E32.63516
G1 X88.105 Y149.898 E32.68965
G1 X87.660 Y149.229 E32.75389
G1 X87.194 Y148.431 E32.82788
G1 X86.830 Y147.712 E32.89231
G1 X86.506 Y146.973 E32.95694
G1 X86.189 Y146.111 E33.03042
G1 X85.971 Y145.401 E33.08984
G1 X85.811 Y144.773 E33.14172
G1 X85.647 Y143.957 E33.20828
G1 X85.529 Y143.118 E33.27607
G1 X85.455 Y142.182 E33.35121
G1 X85.439 Y141.530 E33.40342
G1 X85.439 Y119.782 E35.14362
G1 X89.282 Y115.939 E35.57856
G1 X98.718 Y115.939 E36.33358
G1 X99.741 Y116.962 E36.44939 F900.000
G1 X100.259 Y116.962 E36.49081
G1 X101.282 Y115.939 E36.60662
G1 X110.718 Y115.939 E37.36163
G1 X114.561 Y119.782 E37.79658
G1 X114.561 Y180.218 E42.63252
G1 X110.718 Y184.061 E43.06746
G1 X101.282 Y184.061 E43.82248
G1 X97.439 Y180.218 E44.25742
G1 X97.439 Y156.689 E46.14018
G1 X98.064 Y156.629 F3600.000
G1 X98.064 Y155.603 E46.22224 F900.000
G1 X97.767 Y155.254 E46.25889
G1 X97.329 Y155.178 E46.29449
G1 X96.687 Y155.037 E46.34709
G1 X95.841 Y154.802 E46.41737
G1 X94.980 Y154.500 E46.49039
G1 X94.403 Y154.263 E46.54026
G1 X93.807 Y153.985 E46.59291
G1 X93.033 Y153.570 E46.66319
G1 X92.259 Y153.088 E46.73618
G1 X91.747 Y152.730 E46.78615
G1 X91.227 Y152.328 E46.83872
G1 X90.496 Y151.692 E46.91627
G1 X90.011 Y151.219 E46.97046
G1 X89.398 Y150.544 E47.04345
G1 X89.003 Y150.061 E47.09334
G1 X88.611 Y149.532 E47.14599
G1 X88.186 Y148.892 E47.20748
G1 X87.743 Y148.134 E47.27778
G1 X87.395 Y147.446 E47.33944
G1 X87.085 Y146.738 E47.40126
G1 X86.812 Y146.006 E47.46384
G1 X86.550 Y145.146 E47.53575
G1 X86.383 Y144.468 E47.59164
G1 X86.280 Y143.941 E47.63461
G1 X86.149 Y143.048 E47.70684
G1 X86.079 Y142.159 E47.77817
G1 X86.064 Y141.527 E47.82875
G1 X86.064 Y120.041 E49.54801
G1 X89.541 Y116.564 E49.94154
G1 X98.459 Y116.564 E50.65513
G1 X99.741 Y117.846 E50.80023
G1 X100.259 Y117.846 E50.84165 F900.000
G1 X101.541 Y116.564 E50.98675
G1 X110.459 Y116.564 E51.70034
G1 X113.936 Y120.041 E52.09386
G1 X113.936 Y179.959 E56.88838
G1 X110.459 Y183.436 E57.28190
G1 X101.541 Y183.436 E57.99549
G1 X98.064 Y179.959 E58.38901
G1 X98.064 Y156.689 E60.25106
G1 X98.688 Y156.629 F3600.000
G1 X98.688 Y155.069 E60.37586 F900.000
G1 X98.385 Y154.717 E60.41303
G1 X97.322 Y154.538 E60.49930
G1 X96.734 Y154.405 E60.54755
G1 X95.949 Y154.180 E60.61287
G1 X95.333 Y153.967 E60.66501
G1 X94.654 Y153.691 E60.72366
G1 X93.990 Y153.378 E60.78238
G1 X93.431 Y153.078 E60.83318
G1 X92.721 Y152.645 E60.89975
G1 X92.197 Y152.285 E60.95060
G1 X91.439 Y151.692 E61.02758
G1 X90.985 Y151.295 E61.07586
G1 X90.459 Y150.783 E61.13457
G1 X89.963 Y150.244 E61.19325
G1 X89.557 Y149.755 E61.24407
G1 X88.989 Y148.978 E61.32107
G1 X88.660 Y148.471 E61.36943
G1 X88.293 Y147.836 E61.42811
G1 X87.961 Y147.180 E61.48699
G1 X87.704 Y146.599 E61.53776
G1 X87.404 Y145.805 E61.60572
G1 X87.152 Y144.977 E61.67496
G1 X86.995 Y144.340 E61.72752
G1 X86.878 Y143.739 E61.77644
G1 X86.759 Y142.870 E61.84668
G1 X86.709 Y142.238 E61.89743
G1 X86.689 Y141.572 E61.95067
G1 X86.688 Y120.300 E63.65286
G1 X89.800 Y117.188 E64.00495
G1 X98.200 Y117.188 E64.67713
G1 X99.741 Y118.729 E64.85151 F900.000
G1 X100.259 Y118.729 E64.89294
G1 X101.800 Y117.188 E65.06733
G1 X110.200 Y117.188 E65.73950
G1 X113.312 Y120.300 E66.09159
G1 X113.312 Y179.700 E70.84468
G1 X110.200 Y182.812 E71.19678
G1 X101.800 Y182.812 E71.86895
G1 X98.688 Y179.700 E72.22105
G1 X98.688 Y156.689 E74.06238
G1 X99.313 Y156.629 F3600.000
G1 X99.313 Y154.506 E74.23225 F900.000
G1 X98.995 Y154.150 E74.27048
G1 X98.260 Y154.067 E74.32967
G1 X97.456 Y153.928 E74.39494
G1 X96.887 Y153.799 E74.44158
G1 X96.298 Y153.634 E74.49058
G1 X95.553 Y153.382 E74.55353
G1 X94.800 Y153.071 E74.61870
G1 X94.273 Y152.821 E74.66538
G1 X93.734 Y152.531 E74.71435
G1 X93.062 Y152.122 E74.77724
G1 X92.395 Y151.654 E74.84249
G1 X91.936 Y151.294 E74.88914
G1 X91.473 Y150.893 E74.93812
G1 X90.907 Y150.348 E75.00104
G1 X90.359 Y149.745 E75.06624
G1 X89.989 Y149.294 E75.11290
G1 X89.625 Y148.801 E75.16190
G1 X89.192 Y148.144 E75.22487
G1 X88.789 Y147.437 E75.29004
G1 X88.526 Y146.914 E75.33689
G1 X88.279 Y146.354 E75.38585
G1 X87.995 Y145.605 E75.44996
G1 X87.758 Y144.823 E75.51533
G1 X87.606 Y144.211 E75.56575
G1 X87.493 Y143.631 E75.61308
G1 X87.382 Y142.812 E75.67922
G1 X87.333 Y142.202 E75.72815
G1 X87.315 Y141.623 E75.77453
G1 X87.313 Y120.559 E77.46005
G1 X90.059 Y117.813 E77.77072
G1 X97.941 Y117.813 E78.40147
G1 X99.741 Y119.613 E78.60515
G1 X100.259 Y119.613 E78.64657 F900.000
G1 X102.059 Y117.813 E78.85025
G1 X109.941 Y117.813 E79.48100
G1 X112.687 Y120.559 E79.79167
G1 X112.687 Y179.441 E84.50334
G1 X109.941 Y182.187 E84.81401
G1 X102.059 Y182.187 E85.44476
G1 X99.313 Y179.441 E85.75544
G1 X99.313 Y156.689 E87.57606
G1 X99.938 Y156.629 F3600.000
G1 X99.938 Y153.916 E87.79309 F900.000
G1 X99.596 Y153.555 E87.83291
G1 X99.006 Y153.521 E87.88024
G1 X98.345 Y153.448 E87.93339
G1 X97.689 Y153.338 E87.98664
G1 X97.041 Y153.193 E88.03979
G1 X96.401 Y153.012 E88.09300
G1 X95.772 Y152.797 E88.14622
G1 X95.157 Y152.547 E88.19937
G1 X94.623 Y152.297 E88.24653
G1 X93.971 Y151.947 E88.30575
G1 X93.404 Y151.599 E88.35893
G1 X92.858 Y151.220 E88.41217
G1 X92.392 Y150.859 E88.45928
G1 X91.832 Y150.376 E88.51850
G1 X91.409 Y149.966 E88.56566
G1 X90.839 Y149.346 E88.63301
G1 X90.483 Y148.910 E88.67805
G1 X90.132 Y148.436 E88.72522
G1 X89.725 Y147.817 E88.78450
G1 X89.392 Y147.242 E88.83767
G1 X89.125 Y146.717 E88.88485
G1 X88.823 Y146.036 E88.94444
G1 X88.587 Y145.404 E88.99840
G1 X88.411 Y144.843 E89.04549
G1 X88.218 Y144.083 E89.10819
G1 X88.109 Y143.522 E89.15394
G1 X88.024 Y142.931 E89.20174
G1 X87.957 Y142.167 E89.26307
G1 X87.938 Y141.518 E89.31499
G1 X87.938 Y120.818 E90.97144
G1 X90.318 Y118.438 E91.24069
G1 X97.682 Y118.438 E91.83001
G1 X99.741 Y120.497 E92.06298 F900.000
G1 X100.259 Y120.497 E92.10441
G1 X102.318 Y118.438 E92.33738
G1 X109.682 Y118.438 E92.92670
G1 X112.062 Y120.818 E93.19595
G1 X112.062 Y179.182 E97.86620
G1 X109.682 Y181.562 E98.13545
G1 X102.318 Y181.562 E98.72477
G1 X99.938 Y179.182 E98.99402
G1 X99.938 Y156.689 E100.79393
G1 X100.563 Y156.629 F3600.000
G1 X100.563 Y153.300 E101.06029 F900.000
G1 X100.197 Y152.934 E101.10171
G1 X99.686 Y152.933 E101.14257
G1 X99.121 Y152.903 E101.18786
G1 X98.494 Y152.837 E101.23828
G1 X97.809 Y152.725 E101.29385
G1 X97.256 Y152.603 E101.33915
G1 X96.588 Y152.416 E101.39470
G1 X95.991 Y152.211 E101.44516
G1 X95.408 Y151.975 E101.49556
G1 X94.895 Y151.734 E101.54089
G1 X94.283 Y151.406 E101.59643
G1 X93.746 Y151.076 E101.64685
G1 X93.228 Y150.716 E101.69733
G1 X92.731 Y150.330 E101.74773
G1 X92.255 Y149.916 E101.79816
G1 X91.804 Y149.476 E101.84860
G1 X91.377 Y149.013 E101.89902
G1 X91.016 Y148.576 E101.94436
G1 X90.554 Y147.946 E102.00689
G1 X90.257 Y147.490 E102.05037
G1 X89.942 Y146.945 E102.10079
G1 X89.621 Y146.303 E102.15825
G1 X89.403 Y145.801 E102.20199
G1 X89.203 Y145.271 E102.24732
G1 X88.971 Y144.523 E102.31000
G1 X88.830 Y143.955 E102.35686
G1 X88.724 Y143.413 E102.40102
G1 X88.626 Y142.696 E102.45895
G1 X88.580 Y142.132 E102.50422
G1 X88.564 Y141.591 E102.54750
G1 X88.563 Y121.076 E104.18906
G1 X90.576 Y119.063 E104.41689
G1 X97.424 Y119.063 E104.96479
G1 X99.741 Y121.381 E105.22705
G1 X100.259 Y121.381 E105.26848 F900.000
G1 X102.576 Y119.063 E105.53074
G1 X109.424 Y119.063 E106.07864
G1 X111.437 Y121.076 E106.30647
G1 X111.437 Y178.924 E110.93529
G1 X109.424 Y180.937 E111.16312
G1 X102.576 Y180.937 E111.71102
G1 X100.563 Y178.924 E111.93884
G1 X100.563 Y156.689 E113.71804
G1 X101.188 Y156.629 F3600.000
G1 X101.188 Y152.651 E114.03631 F900.000
G1 X100.797 Y152.281 E114.07935
G1 X100.300 Y152.308 E114.11920
G1 X99.704 Y152.308 E114.16689
G1 X99.109 Y152.275 E114.21455
G1 X98.517 Y152.210 E114.26220
G1 X97.929 Y152.112 E114.30992
G1 X97.348 Y151.982 E114.35757
G1 X96.774 Y151.820 E114.40526
G1 X96.260 Y151.644 E114.44877
G1 X95.592 Y151.372 E114.50647
G1 X95.120 Y151.148 E114.54829
G1 X94.596 Y150.865 E114.59597
G1 X94.027 Y150.512 E114.64950
G1 X93.598 Y150.213 E114.69135
G1 X93.128 Y149.847 E114.73899
G1 X92.679 Y149.456 E114.78667
G1 X92.288 Y149.078 E114.83017
G1 X91.801 Y148.547 E114.88788
G1 X91.469 Y148.143 E114.92969
G1 X91.116 Y147.663 E114.97738
G1 X90.790 Y147.163 E115.02510
G1 X90.492 Y146.648 E115.07276
G1 X90.222 Y146.115 E115.12054
G1 X90.003 Y145.618 E115.16402
G1 X89.750 Y144.939 E115.22200
G1 X89.589 Y144.417 E115.26571
G1 X89.441 Y143.827 E115.31439
G1 X89.340 Y143.304 E115.35697
G1 X89.254 Y142.695 E115.40621
G1 X89.204 Y142.097 E115.45424
G1 X89.188 Y141.513 E115.50098
G1 X89.188 Y121.335 E117.11555
G1 X90.835 Y119.688 E117.30195
G1 X97.165 Y119.688 E117.80843
G1 X98.812 Y121.335 E117.99484 F900.000
G1 X98.818 Y141.583 E119.61502
G1 X98.850 Y141.789 E119.63168
G1 X98.910 Y141.965 E119.64657
G1 X98.996 Y142.130 E119.66146
G1 X99.153 Y142.330 E119.68181
G1 X99.313 Y142.466 E119.69865
G1 X99.473 Y142.562 E119.71353
G1 X99.645 Y142.631 E119.72843
G1 X99.827 Y142.673 E119.74333
G1 X100.081 Y142.683 E119.76365
G1 X100.289 Y142.650 E119.78049
G1 X100.527 Y142.562 E119.80084
G1 X100.760 Y142.410 E119.82308
G1 X100.910 Y142.260 E119.84005
G1 X101.051 Y142.049 E119.86034
G1 X101.150 Y141.789 E119.88263
G1 X101.183 Y141.581 E119.89946
G1 X101.188 Y121.335 E121.51948
G1 X102.835 Y119.688 E121.70589
G1 X109.165 Y119.688 E122.21236
G1 X110.812 Y121.335 E122.39877
G1 X110.812 Y178.665 E126.98616
G1 X109.165 Y180.312 E127.17257
G1 X102.835 Y180.312 E127.67905
G1 X101.188 Y178.665 E127.86545
G1 X101.188 Y156.689 E129.62394
G1 X101.813 Y156.629 F3600.000
G1 X101.813 Y151.964 E129.99717 F900.000
G1 X101.397 Y151.592 E130.04186
G1 X100.843 Y151.652 E130.08642
G1 X100.283 Y151.683 E130.13132
G1 X99.721 Y151.683 E130.17625
G1 X99.161 Y151.653 E130.22116
G1 X98.603 Y151.591 E130.26606
G1 X98.049 Y151.499 E130.31101
G1 X97.502 Y151.376 E130.35591
G1 X96.961 Y151.223 E130.40085
G1 X96.430 Y151.041 E130.44579
G1 X95.947 Y150.846 E130.48744
G1 X95.350 Y150.563 E130.54033
G1 X94.908 Y150.324 E130.58053
G1 X94.430 Y150.030 E130.62545
G1 X93.968 Y149.710 E130.67040
G1 X93.557 Y149.391 E130.71205
G1 X93.102 Y148.997 E130.76022
G1 X92.728 Y148.634 E130.80189
G1 X92.281 Y148.147 E130.85478
G1 X91.962 Y147.759 E130.89497
G1 X91.630 Y147.307 E130.93990
G1 X91.322 Y146.836 E130.98486
G1 X91.042 Y146.350 E131.02977
G1 X90.788 Y145.849 E131.07477
G1 X90.578 Y145.372 E131.11643
G1 X90.346 Y144.750 E131.16955
G1 X90.192 Y144.253 E131.21122
G1 X90.053 Y143.698 E131.25695
G1 X89.955 Y143.196 E131.29794
G1 X89.875 Y142.624 E131.34410
G1 X89.828 Y142.062 E131.38928
G1 X89.813 Y141.510 E131.43344
G1 X89.813 Y121.594 E133.02707
G1 X91.094 Y120.313 E133.17205
G1 X96.906 Y120.313 E133.63710
G1 X98.187 Y121.594 E133.78208
G1 X98.196 Y141.657 E135.38744 F900.000
G1 X98.274 Y142.048 E135.41938
G1 X98.392 Y142.333 E135.44407
G1 X98.542 Y142.574 E135.46681
G1 X98.815 Y142.869 E135.49892
G1 X99.043 Y143.038 E135.52165
G1 X99.318 Y143.178 E135.54635
G1 X99.705 Y143.287 E135.57849
G1 X99.988 Y143.311 E135.60121
G1 X100.295 Y143.287 E135.62589
G1 X100.571 Y143.218 E135.64863
G1 X100.936 Y143.050 E135.68073
G1 X101.185 Y142.869 E135.70537
G1 X101.385 Y142.666 E135.72824
G1 X101.608 Y142.333 E135.76029
