; generated by Slic3r 1.2.9 on 2017-08-19 at 00:26:54

; external perimeters extrusion width = 0.40mm
; perimeters extrusion width = 0.48mm
; infill extrusion width = 0.48mm
; solid infill extrusion width = 0.48mm
; top infill extrusion width = 0.48mm

M107
M190 S70 ; set bed temperature
M104 S240 ; set temperature
G21 ; set units to millimeters
G90 ; use absolute coordinates
M203 Z4; max speed min/sec
G1 Z20 F200;
G28 X F2000;
G1 X140 F2000;
G28 Y F2000;
G1 Y140 F2000;
G28 Z F200;
G1 Z5 F500 ; lift nozzle

M109 S240 ; wait for temperature to be reached
G21 ; set units to millimeters
G90 ; use absolute coordinates
M82 ; use absolute distances for extrusion
G92 E0
G1 Z0.200 F3600.000
G1 E-2.00000 F2400.00000
G92 E0
G1 X111.196 Y143.370 F3600.000
G1 E2.00000 F2400.00000
G1 X111.396 Y143.055 E2.02982 F900.000
G1 X111.353 Y139.301 E2.33028
G1 X111.248 Y139.065 E2.35095
G1 X107.552 Y135.664 E2.75283
G1 X107.466 Y127.319 E3.42064
G1 X112.402 Y122.318 E3.98289
G1 X117.954 Y122.304 E4.42719
G1 X118.892 Y122.317 E4.50224
G1 X119.720 Y122.382 E4.56867
G1 X120.128 Y122.441 E4.60171
G1 X121.960 Y122.809 E4.75121
G1 X122.724 Y123.025 E4.81475
G1 X123.714 Y123.411 E4.89972
G1 X125.270 Y124.150 E5.03760
G1 X125.875 Y124.500 E5.09350
G1 X126.701 Y125.061 E5.17343
G1 X127.122 Y125.381 E5.21567
G1 X127.825 Y126.004 E5.29085
G1 X128.448 Y126.632 E5.36166
G1 X128.962 Y127.208 E5.42344
G1 X129.363 Y127.752 E5.47751
G1 X130.430 Y129.466 E5.63906
G1 X130.905 Y130.536 E5.73277
G1 X131.067 Y131.099 E5.77967
G1 X131.269 Y131.690 E5.82957
G1 X131.483 Y132.960 E5.93267
G1 X131.582 Y133.749 E5.99627
G1 X131.939 Y154.017 E7.61835
G1 X132.007 Y155.498 E7.73696
G1 X131.878 Y156.588 E7.82478
G1 X131.725 Y157.367 E7.88837
G1 X131.463 Y158.252 E7.96218
G1 X131.156 Y159.009 E8.02756
G1 X130.881 Y159.535 E8.07505
G1 X130.633 Y159.997 E8.11704
G1 X130.177 Y160.679 E8.18267
G1 X129.473 Y161.539 E8.27157
G1 X128.635 Y162.318 E8.36314
G1 X128.042 Y162.761 E8.42236
G1 X127.267 Y163.253 E8.49582
G1 X126.007 Y163.872 E8.60814
G1 X124.440 Y164.298 E8.73813
G1 X123.202 Y164.411 E8.83759
G1 X122.952 Y164.562 E8.86093
G1 X121.119 Y167.441 E9.13404
G1 X120.284 Y168.398 E9.23567
G1 X117.058 Y171.133 E9.57405
G1 X116.212 Y171.691 E9.65521
G1 X110.875 Y174.355 E10.13247
G1 X108.699 Y173.009 E10.33728
G1 X108.531 Y172.962 E10.35121
G1 X96.783 Y172.962 E11.29126
G1 X96.620 Y173.007 E11.30482
G1 X93.742 Y174.728 E11.57315
G1 X86.672 Y170.935 E12.21517
G1 X85.688 Y170.207 E12.31308
G1 X82.879 Y167.417 E12.62993
G1 X82.220 Y166.571 E12.71573
G1 X81.016 Y164.540 E12.90469
G1 X80.779 Y164.382 E12.92742
G1 X80.008 Y164.272 E12.98974
G1 X79.346 Y164.122 E13.04408
G1 X78.510 Y163.861 E13.11419
G1 X77.700 Y163.533 E13.18408
G1 X76.500 Y162.860 E13.29415
G1 X75.535 Y162.090 E13.39295
G1 X74.901 Y161.464 E13.46426
G1 X74.319 Y160.752 E13.53785
G1 X73.927 Y160.184 E13.59306
G1 X73.266 Y158.980 E13.70297
G1 X72.959 Y158.223 E13.76830
G1 X72.698 Y157.343 E13.84179
G1 X72.545 Y156.566 E13.90516
G1 X72.414 Y155.268 E14.00950
G1 X72.482 Y154.541 E14.06798
G1 X72.832 Y134.107 E15.70331
G1 X72.866 Y133.612 E15.74301
G1 X73.097 Y131.941 E15.87795
G1 X73.519 Y130.603 E15.99026
G1 X73.700 Y130.246 E16.02226
G1 X74.159 Y129.127 E16.11902
G1 X74.905 Y127.929 E16.23199
G1 X76.037 Y126.648 E16.36872
G1 X76.550 Y126.098 E16.42897
G1 X77.097 Y125.557 E16.49048
G1 X77.929 Y124.917 E16.57451
G1 X79.053 Y124.228 E16.67999
G1 X80.041 Y123.691 E16.76996
G1 X81.008 Y123.214 E16.85624
G1 X82.368 Y122.852 E16.96885
G1 X82.958 Y122.675 E17.01819
G1 X83.843 Y122.509 E17.09025
G1 X84.926 Y122.371 E17.17761
G1 X85.664 Y122.304 E17.23686
G1 X86.906 Y122.288 E17.33623
G1 X92.158 Y122.417 E17.75668
G1 X96.964 Y127.394 E18.31028
G1 X96.867 Y136.775 E19.06093
G1 X93.231 Y139.066 E19.40479
G1 X93.076 Y139.345 E19.43040
G1 X93.054 Y143.067 E19.72821
G1 X93.254 Y143.379 E19.75788
G1 X94.085 Y143.753 E19.83074
G1 X94.213 Y143.781 E19.84126
G1 X99.622 Y143.802 E20.27407
G1 X99.828 Y143.734 E20.29140
G1 X103.746 Y143.535 E20.60533
G1 X104.311 Y143.779 E20.65459
G1 X104.439 Y143.804 E20.66503
G1 X106.872 Y143.780 E20.85972
G1 X110.209 Y143.783 E21.12674
G1 X110.339 Y143.755 E21.13739
G1 X111.141 Y143.394 E21.20775
G1 X111.825 Y143.771 F3600.000
G1 X112.026 Y143.457 E21.23757 F900.000
G1 X111.975 Y139.024 E21.59235
G1 X111.870 Y138.788 E21.61302
G1 X108.174 Y135.387 E22.01488
G1 X108.093 Y127.572 E22.64022
G1 X112.664 Y122.942 E23.16082
G1 X117.953 Y122.929 E23.58408
G1 X118.871 Y122.942 E23.65748
G1 X119.646 Y123.003 E23.71970
G1 X120.024 Y123.057 E23.75029
G1 X121.082 Y123.263 E23.83651
G1 X121.819 Y123.419 E23.89678
G1 X122.526 Y123.619 E23.95562
G1 X123.754 Y124.111 E24.06147
G1 X124.980 Y124.704 E24.17044
G1 X125.540 Y125.028 E24.22220
G1 X126.339 Y125.571 E24.29950
G1 X126.728 Y125.866 E24.33861
G1 X127.390 Y126.453 E24.40932
G1 X127.997 Y127.065 E24.47835
G1 X128.474 Y127.600 E24.53570
G1 X128.846 Y128.103 E24.58576
G1 X129.876 Y129.759 E24.74184
G1 X130.316 Y130.750 E24.82860
G1 X130.471 Y131.287 E24.87327
G1 X130.660 Y131.841 E24.92015
G1 X130.866 Y133.068 E25.01969
G1 X130.959 Y133.798 E25.07859
G1 X130.974 Y134.289 E25.11792
G1 X131.315 Y154.080 E26.70176
G1 X131.380 Y155.472 E26.81330
G1 X131.260 Y156.496 E26.89578
G1 X131.118 Y157.218 E26.95466
G1 X130.872 Y158.045 E27.02369
G1 X130.588 Y158.746 E27.08423
G1 X130.329 Y159.241 E27.12892
G1 X130.096 Y159.676 E27.16836
G1 X129.674 Y160.307 E27.22912
G1 X129.017 Y161.110 E27.31220
G1 X128.241 Y161.832 E27.39699
G1 X127.679 Y162.252 E27.45312
G1 X126.961 Y162.707 E27.52114
G1 X125.786 Y163.285 E27.62595
G1 X124.334 Y163.679 E27.74631
G1 X123.052 Y163.797 E27.84933
G1 X122.882 Y163.797 E27.86294
G1 X122.601 Y163.951 E27.88858
G1 X120.617 Y167.066 E28.18407
G1 X119.844 Y167.952 E28.27817
G1 X116.683 Y170.632 E28.60979
G1 X115.899 Y171.149 E28.68494
G1 X110.908 Y173.641 E29.13132
G1 X108.876 Y172.384 E29.32247
G1 X108.709 Y172.337 E29.33641
G1 X96.610 Y172.337 E30.30449
G1 X96.447 Y172.382 E30.31805
G1 X93.725 Y174.010 E30.57184
G1 X87.007 Y170.406 E31.18188
G1 X86.097 Y169.732 E31.27254
G1 X83.347 Y167.001 E31.58260
G1 X82.737 Y166.218 E31.66204
G1 X81.389 Y163.944 E31.87360
G1 X81.119 Y163.781 E31.89882
G1 X80.931 Y163.772 E31.91386
G1 X80.122 Y163.657 E31.97929
G1 X79.508 Y163.518 E32.02960
G1 X78.727 Y163.274 E32.09513
G1 X77.961 Y162.963 E32.16125
G1 X76.850 Y162.340 E32.26316
G1 X75.951 Y161.622 E32.35523
G1 X75.364 Y161.042 E32.42126
G1 X74.818 Y160.376 E32.49017
G1 X74.455 Y159.850 E32.54129
G1 X74.102 Y159.230 E32.59846
G1 X73.834 Y158.717 E32.64471
G1 X73.550 Y158.017 E32.70520
G1 X73.306 Y157.193 E32.77392
G1 X73.164 Y156.474 E32.83260
G1 X73.042 Y155.266 E32.92971
G1 X73.106 Y154.576 E32.98523
G1 X73.457 Y134.131 E34.62140
G1 X73.488 Y133.673 E34.65816
G1 X73.708 Y132.080 E34.78684
G1 X74.100 Y130.840 E34.89082
G1 X74.268 Y130.507 E34.92072
G1 X74.717 Y129.413 E35.01536
G1 X75.408 Y128.303 E35.11996
G1 X76.498 Y127.069 E35.25169
G1 X76.995 Y126.537 E35.30996
G1 X77.509 Y126.029 E35.36780
G1 X78.279 Y125.436 E35.44559
G1 X79.367 Y124.769 E35.54774
G1 X80.329 Y124.246 E35.63532
G1 X81.228 Y123.802 E35.71552
G1 X82.540 Y123.453 E35.82420
G1 X83.106 Y123.283 E35.87148
G1 X83.926 Y123.129 E35.93820
G1 X84.990 Y122.993 E36.02408
G1 X85.703 Y122.928 E36.08133
G1 X86.897 Y122.913 E36.17688
G1 X91.887 Y123.036 E36.57630
G1 X96.337 Y127.644 E37.08890
G1 X96.246 Y136.428 E37.79178
G1 X92.608 Y138.720 E38.13579
G1 X92.453 Y138.999 E38.16139
G1 X92.427 Y143.470 E38.51914
G1 X92.627 Y143.782 E38.54881
G1 X93.949 Y144.377 E38.66484
G1 X94.078 Y144.405 E38.67535
G1 X99.783 Y144.428 E39.13188
G1 X99.939 Y144.388 E39.14475
G1 X100.005 Y144.351 E39.15078
G1 X103.632 Y144.167 E39.44145
G1 X104.182 Y144.403 E39.48933
G1 X104.305 Y144.429 E39.49939
G1 X106.873 Y144.405 E39.70490
G1 X110.343 Y144.408 E39.98255
G1 X110.473 Y144.380 E39.99319
G1 X111.771 Y143.796 E40.10705
G1 X112.657 Y144.003 F3600.000
G1 X112.596 Y138.747 E40.52770 F900.000
G1 X112.491 Y138.511 E40.54838
G1 X108.796 Y135.110 E40.95020
G1 X108.721 Y127.826 E41.53309
G1 X112.926 Y123.567 E42.01204
G1 X117.952 Y123.553 E42.41425
G1 X118.849 Y123.566 E42.48601
G1 X119.571 Y123.623 E42.54401
G1 X119.920 Y123.674 E42.57215
G1 X121.677 Y124.028 E42.71564
G1 X122.328 Y124.212 E42.76977
G1 X123.233 Y124.564 E42.84748
G1 X124.690 Y125.258 E42.97657
G1 X125.205 Y125.556 E43.02418
G1 X125.977 Y126.081 E43.09885
G1 X126.335 Y126.352 E43.13483
G1 X126.955 Y126.901 E43.20107
G1 X127.547 Y127.498 E43.26833
G1 X127.987 Y127.991 E43.32123
G1 X128.329 Y128.454 E43.36729
G1 X129.323 Y130.052 E43.51790
G1 X129.728 Y130.964 E43.59772
G1 X129.874 Y131.474 E43.64016
G1 X130.051 Y131.993 E43.68402
G1 X130.250 Y133.175 E43.78000
G1 X130.335 Y133.847 E43.83418
G1 X130.349 Y134.302 E43.87062
G1 X130.691 Y154.154 E45.45932
G1 X130.753 Y155.447 E45.56292
G1 X130.641 Y156.404 E45.64006
G1 X130.510 Y157.069 E45.69423
G1 X130.282 Y157.838 E45.75848
G1 X130.020 Y158.484 E45.81418
G1 X129.778 Y158.947 E45.85607
G1 X129.560 Y159.354 E45.89295
G1 X129.172 Y159.934 E45.94885
G1 X128.560 Y160.682 E46.02611
G1 X127.846 Y161.345 E46.10412
G1 X127.315 Y161.742 E46.15716
G1 X126.655 Y162.161 E46.21974
G1 X125.564 Y162.698 E46.31703
G1 X124.228 Y163.060 E46.42776
G1 X123.025 Y163.172 E46.52447
G1 X122.539 Y163.172 E46.56336
G1 X122.258 Y163.326 E46.58900
G1 X120.115 Y166.690 E46.90817
G1 X119.404 Y167.506 E46.99473
G1 X116.308 Y170.131 E47.31958
G1 X115.586 Y170.607 E47.38872
G1 X110.940 Y172.926 E47.80423
G1 X109.054 Y171.759 E47.98173
G1 X108.886 Y171.712 E47.99567
G1 X96.438 Y171.712 E48.99177
G1 X96.274 Y171.757 E49.00533
G1 X93.709 Y173.292 E49.24458
G1 X87.343 Y169.877 E49.82265
G1 X86.505 Y169.256 E49.90606
G1 X83.816 Y166.586 E50.20932
G1 X83.254 Y165.865 E50.28240
G1 X81.755 Y163.336 E50.51772
G1 X81.485 Y163.173 E50.54293
G1 X80.990 Y163.150 E50.58255
G1 X80.235 Y163.042 E50.64361
G1 X79.671 Y162.914 E50.68990
G1 X78.944 Y162.687 E50.75084
G1 X78.222 Y162.393 E50.81318
G1 X77.200 Y161.820 E50.90694
G1 X76.367 Y161.155 E50.99229
G1 X75.826 Y160.621 E51.05304
G1 X75.318 Y160.000 E51.11726
G1 X74.984 Y159.516 E51.16429
G1 X74.652 Y158.935 E51.21787
G1 X74.402 Y158.455 E51.26119
G1 X74.141 Y157.810 E51.31684
G1 X73.913 Y157.044 E51.38081
G1 X73.783 Y156.382 E51.43479
G1 X73.670 Y155.264 E51.52467
G1 X73.731 Y154.610 E51.57723
G1 X74.082 Y134.155 E53.21424
G1 X74.111 Y133.734 E53.24806
G1 X74.320 Y132.218 E53.37047
G1 X74.680 Y131.078 E53.46614
G1 X74.837 Y130.768 E53.49394
G1 X75.276 Y129.699 E53.58645
G1 X75.911 Y128.677 E53.68268
G1 X76.960 Y127.491 E53.80942
G1 X77.439 Y126.976 E53.86570
G1 X77.920 Y126.500 E53.91986
G1 X78.629 Y125.955 E53.99143
G1 X79.682 Y125.309 E54.09024
G1 X80.617 Y124.800 E54.17542
G1 X81.448 Y124.391 E54.24954
G1 X83.254 Y123.891 E54.39951
G1 X84.008 Y123.749 E54.46089
G1 X85.054 Y123.615 E54.54529
G1 X85.742 Y123.552 E54.60054
G1 X86.888 Y123.538 E54.69227
G1 X91.615 Y123.654 E55.07065
G1 X95.709 Y127.894 E55.54224
G1 X95.624 Y136.080 E56.19737
G1 X91.986 Y138.373 E56.54152
G1 X91.830 Y138.653 E56.56713
G1 X91.799 Y143.873 E56.98481
G1 X92.000 Y144.185 E57.01448
G1 X93.814 Y145.002 E57.17367
G1 X93.942 Y145.030 E57.18418
G1 X100.089 Y145.054 E57.67606
G1 X100.181 Y144.968 E57.68615
G1 X103.519 Y144.798 E57.95357
G1 X104.052 Y145.027 E57.99998
G1 X104.175 Y145.053 E58.01003
G1 X106.874 Y145.030 E58.22606
G1 X110.477 Y145.033 E58.51434
G1 X110.607 Y145.005 E58.52498
G1 X112.049 Y144.356 E58.65154
G1 X112.215 Y144.383 E58.66499
G1 X112.612 Y144.042 E58.70681
G1 E56.70681 F2400.00000
G92 E0
G1 X91.170 Y144.672 F3600.000
G1 E2.00000 F2400.00000
G1 X91.628 Y145.050 E2.04751 F900.000
G1 X92.162 Y144.943 E2.09107
G1 X93.678 Y145.626 E2.22417
G1 X93.807 Y145.654 E2.23469
G1 X100.105 Y145.679 E2.73865
G1 X100.261 Y145.639 E2.75151
G1 X100.358 Y145.585 E2.76045
G1 X103.406 Y145.430 E3.00462
G1 X103.922 Y145.652 E3.04955
G1 X104.045 Y145.677 E3.05961
G1 X106.876 Y145.655 E3.28615
G1 X110.611 Y145.658 E3.58506
G1 X110.741 Y145.630 E3.59570
G1 X112.134 Y145.003 E3.71794
G1 X112.849 Y145.120 E3.77588
G1 X113.291 Y144.740 E3.82250
G1 X113.218 Y138.470 E4.32431
G1 X113.113 Y138.234 E4.34499
G1 X109.418 Y134.833 E4.74679
G1 X109.348 Y128.080 E5.28721
G1 X113.188 Y124.191 E5.72451
G1 X117.951 Y124.178 E6.10568
G1 X119.088 Y124.205 E6.19670
G1 X119.815 Y124.290 E6.25525
G1 X120.818 Y124.485 E6.33705
G1 X121.536 Y124.638 E6.39574
G1 X122.130 Y124.805 E6.44516
G1 X123.229 Y125.245 E6.53983
G1 X124.399 Y125.812 E6.64393
G1 X124.870 Y126.084 E6.68740
G1 X125.614 Y126.590 E6.75943
G1 X125.941 Y126.838 E6.79228
G1 X126.519 Y127.350 E6.85406
G1 X127.096 Y127.931 E6.91954
G1 X127.499 Y128.383 E6.96800
G1 X127.811 Y128.806 E7.01006
G1 X128.769 Y130.346 E7.15519
G1 X129.139 Y131.178 E7.22807
G1 X129.443 Y132.144 E7.30910
G1 X129.634 Y133.283 E7.40152
G1 X129.712 Y133.896 E7.45099
G1 X129.723 Y134.268 E7.48072
G1 X130.068 Y154.227 E9.07809
G1 X130.126 Y155.422 E9.17376
G1 X130.022 Y156.313 E9.24555
G1 X129.903 Y156.919 E9.29501
G1 X129.691 Y157.632 E9.35448
G1 X129.453 Y158.221 E9.40534
G1 X129.226 Y158.654 E9.44443
G1 X129.024 Y159.032 E9.47875
G1 X128.669 Y159.562 E9.52979
G1 X128.103 Y160.253 E9.60124
G1 X127.452 Y160.859 E9.67246
G1 X126.952 Y161.233 E9.72242
G1 X126.349 Y161.615 E9.77955
G1 X125.342 Y162.110 E9.86932
G1 X124.123 Y162.441 E9.97043
G1 X122.998 Y162.547 E10.06082
G1 X122.196 Y162.547 E10.12500
G1 X121.915 Y162.701 E10.15063
G1 X119.614 Y166.315 E10.49347
G1 X118.964 Y167.059 E10.57251
G1 X115.932 Y169.630 E10.89059
G1 X115.274 Y170.064 E10.95372
G1 X110.973 Y172.211 E11.33835
G1 X109.231 Y171.134 E11.50220
G1 X109.064 Y171.087 E11.51613
G1 X96.265 Y171.087 E12.54026
G1 X96.102 Y171.132 E12.55383
G1 X93.692 Y172.574 E12.77854
G1 X87.678 Y169.347 E13.32464
G1 X86.913 Y168.781 E13.40079
G1 X84.284 Y166.170 E13.69725
G1 X83.772 Y165.513 E13.76398
G1 X82.121 Y162.728 E14.02304
G1 X81.851 Y162.565 E14.04825
G1 X81.050 Y162.527 E14.11244
G1 X80.348 Y162.427 E14.16914
G1 X79.833 Y162.310 E14.21140
G1 X79.161 Y162.100 E14.26776
G1 X78.483 Y161.823 E14.32632
G1 X77.550 Y161.300 E14.41193
G1 X76.782 Y160.687 E14.49056
G1 X76.289 Y160.200 E14.54602
G1 X75.818 Y159.624 E14.60556
G1 X75.513 Y159.182 E14.64850
G1 X75.203 Y158.639 E14.69851
G1 X74.969 Y158.192 E14.73889
G1 X74.731 Y157.604 E14.78970
G1 X74.521 Y156.894 E14.84890
G1 X74.402 Y156.290 E14.89820
G1 X74.298 Y155.262 E14.98084
G1 X74.355 Y154.645 E15.03044
G1 X74.707 Y134.180 E16.66829
G1 X74.771 Y133.499 E16.72300
G1 X74.932 Y132.357 E16.81529
G1 X75.260 Y131.316 E16.90264
G1 X75.405 Y131.029 E16.92834
G1 X75.834 Y129.984 E17.01873
G1 X76.414 Y129.052 E17.10659
G1 X77.374 Y127.964 E17.22267
G1 X77.780 Y127.523 E17.27065
G1 X78.332 Y126.972 E17.33311
G1 X78.980 Y126.473 E17.39846
G1 X79.996 Y125.849 E17.49393
G1 X80.905 Y125.355 E17.57672
G1 X81.668 Y124.979 E17.64476
G1 X83.402 Y124.499 E17.78875
G1 X84.091 Y124.370 E17.84479
G1 X85.118 Y124.236 E17.92771
G1 X85.781 Y124.176 E17.98095
G1 X86.157 Y124.163 E18.01103
G1 X86.879 Y124.163 E18.06888
G1 X91.344 Y124.273 E18.42623
G1 X95.082 Y128.143 E18.85681
G1 X95.003 Y135.733 E19.46417
G1 X91.363 Y138.027 E19.80847
G1 X91.207 Y138.307 E19.83408
G1 X91.170 Y144.612 E20.33860
G1 X90.545 Y144.668 F3600.000
G1 X90.545 Y144.908 E20.35779 F900.000
G1 X90.605 Y145.476 E20.40347
G1 X91.050 Y145.803 E20.44762
G1 X92.088 Y145.595 E20.53232
G1 X93.543 Y146.250 E20.66003
G1 X93.672 Y146.278 E20.67054
G1 X100.266 Y146.305 E21.19822
G1 X100.422 Y146.264 E21.21108
G1 X100.535 Y146.201 E21.22147
G1 X103.292 Y146.061 E21.44238
G1 X103.791 Y146.276 E21.48585
G1 X103.914 Y146.301 E21.49590
G1 X106.877 Y146.279 E21.73296
G1 X110.745 Y146.283 E22.04250
G1 X110.875 Y146.255 E22.05314
G1 X112.219 Y145.650 E22.17107
G1 X113.405 Y145.845 E22.26726
G1 X113.827 Y145.540 E22.30888
G1 X113.915 Y144.916 E22.35929
G1 X113.840 Y138.192 E22.89733
G1 X113.735 Y137.956 E22.91800
G1 X110.040 Y134.557 E23.31978
G1 X109.976 Y128.334 E23.81773
G1 X113.449 Y124.815 E24.21339
G1 X117.950 Y124.803 E24.57352
G1 X119.042 Y124.828 E24.66089
