; generated by Slic3r 1.2.9 on 2017-08-13 at 15:37:46

; external perimeters extrusion width = 0.40mm
; perimeters extrusion width = 0.48mm
; infill extrusion width = 0.48mm
; solid infill extrusion width = 0.48mm
; top infill extrusion width = 0.48mm

M107
M190 S70 ; set bed temperature
M104 S240 ; set temperature
G21 ; set units to millimeters
G90 ; use absolute coordinates
M203 Z4; max speed min/sec
G1 Z20 F200;
G28 X F2000;
G1 X140 F2000;
G28 Y F2000;
G1 Y140 F2000;
G28 Z F200;
G1 Z5 F500 ; lift nozzle

M109 S240 ; wait for temperature to be reached
G21 ; set units to millimeters
G90 ; use absolute coordinates
M82 ; use absolute distances for extrusion
G92 E0
G1 Z0.200 F3600.000
G1 E-2.00000 F2400.00000
G92 E0
G1 X91.157 Y136.740 F3600.000
G1 E2.00000 F2400.00000
G1 X92.369 Y136.008 E2.11327 F900.000
G1 X92.821 Y135.771 E2.15411
G1 X94.111 Y135.190 E2.26732
G1 X94.588 Y135.009 E2.30814
G1 X95.939 Y134.588 E2.42139
G1 X96.434 Y134.466 E2.46220
G1 X97.826 Y134.211 E2.57542
G1 X98.332 Y134.149 E2.61621
G1 X99.745 Y134.064 E2.72948
G1 X100.515 Y134.080 E2.79113
G1 X101.668 Y134.149 E2.88354 F900.000
G1 X102.174 Y134.211 E2.92436
G1 X103.566 Y134.466 E3.03757
G1 X104.310 Y134.666 E3.09923
G1 X105.412 Y135.009 E3.19160
G1 X105.889 Y135.190 E3.23236
G1 X107.180 Y135.771 E3.34570
G1 X107.632 Y136.008 E3.38653
G1 X108.843 Y136.740 E3.49972
G1 X109.468 Y137.191 E3.56142
G1 X110.377 Y137.903 E3.65378
G1 X110.758 Y138.241 E3.69457
G1 X111.759 Y139.241 E3.80778
G1 X112.097 Y139.623 E3.84862
G1 X112.970 Y140.737 E3.96189
G1 X113.260 Y141.157 E4.00269
G1 X113.992 Y142.368 E4.11594
G1 X114.229 Y142.820 E4.15675
G1 X114.810 Y144.110 E4.27000
G1 X114.991 Y144.587 E4.31081
G1 X115.412 Y145.938 E4.42400
G1 X115.534 Y146.433 E4.46484
G1 X115.789 Y147.827 E4.57818
G1 X115.851 Y148.332 E4.61895
G1 X115.936 Y149.746 E4.73225
G1 X115.936 Y150.255 E4.77301
G1 X115.851 Y151.667 E4.88620
G1 X115.789 Y152.174 E4.92704
G1 X115.534 Y153.567 E5.04034
G1 X115.412 Y154.061 E5.08112
G1 X114.991 Y155.413 E5.19437
G1 X114.810 Y155.889 E5.23517
G1 X114.229 Y157.180 E5.34842
G1 X113.992 Y157.631 E5.38922
G1 X113.260 Y158.843 E5.50248
G1 X112.970 Y159.262 E5.54328
G1 X112.098 Y160.376 E5.65650
G1 X111.759 Y160.758 E5.69733
G1 X110.758 Y161.759 E5.81063
G1 X110.376 Y162.098 E5.85147
G1 X109.262 Y162.970 E5.96470
G1 X108.842 Y163.260 E6.00555
G1 X107.631 Y163.992 E6.11874
G1 X107.180 Y164.229 E6.15955
G1 X105.889 Y164.810 E6.27280
G1 X105.412 Y164.991 E6.31362
G1 X104.061 Y165.412 E6.42687
G1 X103.566 Y165.534 E6.46768
G1 X102.174 Y165.789 E6.58093
G1 X101.667 Y165.851 E6.62176
G1 X100.254 Y165.936 E6.73501
G1 X99.744 Y165.936 E6.77587
G1 X98.332 Y165.851 E6.88902
G1 X97.569 Y165.742 E6.95071
G1 X96.434 Y165.534 E7.04308
G1 X95.938 Y165.412 E7.08388
G1 X94.588 Y164.991 E7.19711
G1 X94.111 Y164.810 E7.23786
G1 X92.820 Y164.229 E7.35118
G1 X92.145 Y163.857 E7.41285
G1 X91.157 Y163.260 E7.50522
G1 X90.738 Y162.970 E7.54601
G1 X89.623 Y162.097 E7.65928
G1 X89.242 Y161.759 E7.70008
G1 X88.241 Y160.758 E7.81334
G1 X87.903 Y160.377 E7.85414
G1 X87.030 Y159.262 E7.96742
G1 X86.740 Y158.843 E8.00820
G1 X86.143 Y157.855 E8.10054
G1 X85.771 Y157.180 E8.16223
G1 X85.190 Y155.889 E8.27552
G1 X85.009 Y155.413 E8.31630
G1 X84.588 Y154.062 E8.42953
G1 X84.466 Y153.566 E8.47034
G1 X84.211 Y152.174 E8.58357
G1 X84.149 Y151.668 E8.62440
G1 X84.064 Y150.254 E8.73774
G1 X84.064 Y149.745 E8.77849
G1 X84.149 Y148.333 E8.89168
G1 X84.211 Y147.826 E8.93251
G1 X84.466 Y146.433 E9.04584
G1 X84.588 Y145.939 E9.08660
G1 X85.009 Y144.587 E9.19988
G1 X85.190 Y144.111 E9.24066
G1 X85.771 Y142.820 E9.35389
G1 X86.008 Y142.369 E9.39470
G1 X86.740 Y141.157 E9.50799
G1 X87.030 Y140.738 E9.54877
G1 X87.903 Y139.623 E9.66209
G1 X88.241 Y139.242 E9.70285
G1 X89.242 Y138.241 E9.81608
G1 X89.623 Y137.903 E9.85684
G1 X90.738 Y137.030 E9.97016
G1 X91.108 Y136.774 E10.00616
G1 X91.497 Y137.265 F3600.000
G1 X92.676 Y136.552 E10.11641 F900.000
G1 X93.094 Y136.333 E10.15422
G1 X94.350 Y135.768 E10.26442
G1 X94.792 Y135.600 E10.30221
G1 X96.107 Y135.190 E10.41243
G1 X96.565 Y135.077 E10.45023
G1 X97.920 Y134.829 E10.56043
G1 X98.389 Y134.772 E10.59819
G1 X99.764 Y134.689 E10.70844
G1 X100.235 Y134.689 E10.74617
G1 X101.611 Y134.772 E10.85648 F900.000
G1 X102.080 Y134.829 E10.89428
G1 X103.435 Y135.077 E11.00448
G1 X104.125 Y135.262 E11.06164
G1 X105.208 Y135.600 E11.15246
G1 X105.649 Y135.767 E11.19020
G1 X106.907 Y136.333 E11.30052
G1 X107.325 Y136.553 E11.33832
G1 X108.503 Y137.265 E11.44850
G1 X108.891 Y137.533 E11.48623
G1 X109.976 Y138.383 E11.59653
G1 X110.330 Y138.696 E11.63430
G1 X111.304 Y139.670 E11.74450
G1 X111.617 Y140.023 E11.78230
G1 X112.467 Y141.108 E11.89256
G1 X112.735 Y141.497 E11.93033
G1 X113.448 Y142.675 E12.04056
G1 X113.667 Y143.094 E12.07835
G1 X114.232 Y144.350 E12.18858
G1 X114.400 Y144.791 E12.22636
G1 X114.809 Y146.106 E12.33654
G1 X114.923 Y146.565 E12.37436
G1 X115.171 Y147.921 E12.48467
G1 X115.228 Y148.389 E12.52242
G1 X115.296 Y149.522 E12.61325
G1 X115.311 Y150.236 E12.67041
G1 X115.228 Y151.611 E12.78059
G1 X115.171 Y152.080 E12.81840
G1 X114.923 Y153.435 E12.92868
G1 X114.810 Y153.893 E12.96643
G1 X114.400 Y155.209 E13.07667
G1 X114.232 Y155.650 E13.11444
G1 X113.667 Y156.906 E13.22467
G1 X113.448 Y157.324 E13.26245
G1 X112.735 Y158.503 E13.37269
G1 X112.467 Y158.892 E13.41047
G1 X111.617 Y159.976 E13.52066
G1 X111.304 Y160.330 E13.55847
G1 X110.330 Y161.304 E13.66875
G1 X109.976 Y161.617 E13.70656
G1 X108.892 Y162.467 E13.81677
G1 X108.503 Y162.735 E13.85459
G1 X107.324 Y163.448 E13.96477
G1 X106.906 Y163.667 E14.00256
G1 X105.650 Y164.232 E14.11279
G1 X105.208 Y164.400 E14.15058
G1 X103.893 Y164.810 E14.26081
G1 X103.435 Y164.923 E14.29860
G1 X102.080 Y165.171 E14.40883
G1 X101.611 Y165.228 E14.44663
G1 X100.236 Y165.311 E14.55686
G1 X99.763 Y165.311 E14.59469
G1 X98.389 Y165.228 E14.70484
G1 X97.682 Y165.127 E14.76199
G1 X96.565 Y164.923 E14.85285
G1 X96.106 Y164.810 E14.89063
G1 X94.792 Y164.400 E15.00084
G1 X94.351 Y164.233 E15.03857
G1 X93.094 Y163.667 E15.14886
G1 X92.468 Y163.322 E15.20600
G1 X91.497 Y162.735 E15.29686
G1 X91.108 Y162.467 E15.33463
G1 X90.024 Y161.617 E15.44488
G1 X89.670 Y161.304 E15.48265
G1 X88.696 Y160.330 E15.59290
G1 X88.383 Y159.976 E15.63067
G1 X87.533 Y158.892 E15.74093
G1 X87.265 Y158.503 E15.77869
G1 X86.678 Y157.532 E15.86952
G1 X86.333 Y156.906 E15.92668
G1 X85.767 Y155.650 E16.03694
G1 X85.600 Y155.209 E16.07470
G1 X85.190 Y153.894 E16.18492
G1 X85.077 Y153.435 E16.22270
G1 X84.829 Y152.080 E16.33292
G1 X84.772 Y151.611 E16.37072
G1 X84.689 Y150.235 E16.48103
G1 X84.689 Y149.764 E16.51876
G1 X84.772 Y148.389 E16.62893
G1 X84.829 Y147.920 E16.66675
G1 X85.077 Y146.564 E16.77704
G1 X85.190 Y146.106 E16.81479
G1 X85.600 Y144.791 E16.92504
G1 X85.768 Y144.350 E16.96280
G1 X86.333 Y143.094 E17.07302
G1 X86.552 Y142.676 E17.11080
G1 X87.265 Y141.496 E17.22106
G1 X87.533 Y141.108 E17.25883
G1 X88.383 Y140.023 E17.36911
G1 X88.696 Y139.670 E17.40686
G1 X89.670 Y138.696 E17.51707
G1 X90.023 Y138.383 E17.55481
G1 X91.108 Y137.533 E17.66510
G1 X91.447 Y137.299 E17.69808
G1 X91.836 Y137.790 F3600.000
G1 X92.983 Y137.097 E17.80531 F900.000
G1 X93.368 Y136.895 E17.84009
G1 X94.589 Y136.345 E17.94727
G1 X94.996 Y136.191 E17.98204
G1 X96.275 Y135.792 E18.08925
G1 X96.697 Y135.688 E18.12402
G1 X98.014 Y135.447 E18.23120
G1 X98.445 Y135.395 E18.26594
G1 X99.783 Y135.314 E18.37317
G1 X100.440 Y135.327 E18.42576
G1 X101.555 Y135.395 E18.51514 F900.000
G1 X101.986 Y135.447 E18.54992
G1 X103.304 Y135.689 E18.65710
G1 X103.939 Y135.859 E18.70970
G1 X105.005 Y136.191 E18.79904
G1 X105.410 Y136.345 E18.83376
G1 X106.633 Y136.895 E18.94105
G1 X107.018 Y137.097 E18.97583
G1 X108.164 Y137.790 E19.08299
G1 X108.697 Y138.174 E19.13559
G1 X109.576 Y138.863 E19.22495
G1 X109.901 Y139.151 E19.25970
G1 X110.848 Y140.098 E19.36688
G1 X111.137 Y140.424 E19.40166
G1 X111.963 Y141.479 E19.50890
G1 X112.210 Y141.836 E19.54365
G1 X112.903 Y142.983 E19.65086
G1 X113.105 Y143.367 E19.68562
G1 X113.655 Y144.589 E19.79283
G1 X113.809 Y144.995 E19.82759
G1 X114.207 Y146.274 E19.93475
G1 X114.311 Y146.696 E19.96954
G1 X114.553 Y148.015 E20.07683
G1 X114.605 Y148.446 E20.11155
G1 X114.686 Y149.783 E20.21881
G1 X114.686 Y150.217 E20.25353
G1 X114.605 Y151.554 E20.36069
G1 X114.553 Y151.986 E20.39547
G1 X114.311 Y153.304 E20.50273
G1 X114.207 Y153.726 E20.53747
G1 X113.809 Y155.005 E20.64468
G1 X113.655 Y155.411 E20.67943
G1 X113.105 Y156.633 E20.78663
G1 X112.903 Y157.017 E20.82140
G1 X112.210 Y158.164 E20.92861
G1 X111.963 Y158.521 E20.96337
G1 X111.137 Y159.576 E21.07055
G1 X110.849 Y159.901 E21.10533
G1 X109.901 Y160.849 E21.21259
G1 X109.576 Y161.137 E21.24737
G1 X108.521 Y161.963 E21.35456
G1 X108.163 Y162.210 E21.38936
G1 X107.017 Y162.903 E21.49652
G1 X106.633 Y163.105 E21.53128
G1 X105.411 Y163.655 E21.63849
G1 X105.004 Y163.809 E21.67326
G1 X103.725 Y164.208 E21.78047
G1 X103.303 Y164.312 E21.81524
G1 X101.986 Y164.553 E21.92244
G1 X101.554 Y164.605 E21.95723
G1 X100.217 Y164.686 E22.06443
G1 X99.782 Y164.686 E22.09924
G1 X98.445 Y164.605 E22.20637
G1 X97.794 Y164.513 E22.25899
G1 X96.696 Y164.311 E22.34834
G1 X96.274 Y164.207 E22.38310
G1 X94.995 Y163.809 E22.49028
G1 X94.590 Y163.655 E22.52500
G1 X93.367 Y163.105 E22.63226
G1 X92.791 Y162.787 E22.68490
G1 X91.836 Y162.210 E22.77422
G1 X91.479 Y161.963 E22.80897
G1 X90.424 Y161.137 E22.91619
G1 X90.099 Y160.849 E22.95095
G1 X89.151 Y159.901 E23.05817
G1 X88.863 Y159.576 E23.09292
G1 X88.037 Y158.521 E23.20016
G1 X87.790 Y158.164 E23.23490
G1 X87.213 Y157.209 E23.32421
G1 X86.895 Y156.633 E23.37685
G1 X86.345 Y155.411 E23.48408
G1 X86.191 Y155.005 E23.51882
G1 X85.793 Y153.726 E23.62602
G1 X85.689 Y153.304 E23.66078
G1 X85.447 Y151.986 E23.76797
G1 X85.395 Y151.555 E23.80275
G1 X85.314 Y150.216 E23.91003
G1 X85.314 Y149.783 E23.94475
G1 X85.395 Y148.446 E24.05191
G1 X85.447 Y148.014 E24.08669
G1 X85.689 Y146.696 E24.19396
G1 X85.793 Y146.274 E24.22869
G1 X86.191 Y144.995 E24.33592
G1 X86.345 Y144.589 E24.37066
G1 X86.895 Y143.367 E24.47786
G1 X87.097 Y142.983 E24.51262
G1 X87.790 Y141.836 E24.61986
G1 X88.037 Y141.479 E24.65460
G1 X88.864 Y140.423 E24.76186
G1 X89.151 Y140.099 E24.79658
G1 X90.099 Y139.151 E24.90378
G1 X90.423 Y138.864 E24.93850
G1 X91.479 Y138.037 E25.04577
G1 X91.787 Y137.824 E25.07572
G1 X92.176 Y138.315 F3600.000
G1 X93.290 Y137.641 E25.17993 F900.000
G1 X93.641 Y137.457 E25.21169
G1 X94.828 Y136.923 E25.31585
G1 X95.199 Y136.782 E25.34759
G1 X96.443 Y136.395 E25.45178
G1 X96.828 Y136.300 E25.48353
G1 X98.108 Y136.065 E25.58769
G1 X98.502 Y136.017 E25.61941
G1 X99.802 Y135.939 E25.72361
G1 X100.198 Y135.939 E25.75531
G1 X101.498 Y136.017 E25.85957 F900.000
G1 X101.892 Y136.065 E25.89132
G1 X103.172 Y136.300 E25.99548
G1 X103.753 Y136.456 E26.04355
G1 X104.801 Y136.782 E26.13138
G1 X105.171 Y136.923 E26.16308
G1 X106.359 Y137.457 E26.26734
G1 X106.711 Y137.642 E26.29910
G1 X107.824 Y138.315 E26.40324
G1 X108.150 Y138.540 E26.43494
G1 X109.176 Y139.343 E26.53918
G1 X109.473 Y139.606 E26.57091
G1 X110.393 Y140.527 E26.67507
G1 X110.656 Y140.824 E26.70683
G1 X111.460 Y141.849 E26.81104
G1 X111.685 Y142.175 E26.84277
G1 X112.358 Y143.290 E26.94696
G1 X112.543 Y143.641 E26.97869
G1 X113.077 Y144.828 E27.08288
G1 X113.218 Y145.199 E27.11462
G1 X113.605 Y146.442 E27.21877
G1 X113.700 Y146.827 E27.25053
G1 X113.935 Y148.109 E27.35479
G1 X113.983 Y148.502 E27.38650
G1 X114.049 Y149.598 E27.47433
G1 X114.061 Y150.198 E27.52241
G1 X113.983 Y151.498 E27.62655
G1 X113.935 Y151.892 E27.65831
G1 X113.700 Y153.173 E27.76254
G1 X113.605 Y153.558 E27.79426
G1 X113.218 Y154.801 E27.89845
G1 X113.077 Y155.172 E27.93018
G1 X112.543 Y156.359 E28.03436
G1 X112.359 Y156.710 E28.06610
G1 X111.685 Y157.824 E28.17030
G1 X111.460 Y158.151 E28.20203
G1 X110.657 Y159.176 E28.30619
G1 X110.394 Y159.473 E28.33795
G1 X109.473 Y160.394 E28.44218
G1 X109.176 Y160.657 E28.47394
G1 X108.151 Y161.460 E28.57812
G1 X107.824 Y161.685 E28.60988
G1 X106.710 Y162.359 E28.71403
G1 X106.359 Y162.543 E28.74577
G1 X105.172 Y163.077 E28.84996
G1 X104.801 Y163.218 E28.88170
G1 X103.557 Y163.605 E28.98589
G1 X103.172 Y163.700 E29.01764
G1 X101.892 Y163.935 E29.12182
G1 X101.498 Y163.983 E29.15358
G1 X100.198 Y164.061 E29.25777
G1 X99.801 Y164.061 E29.28954
G1 X98.502 Y163.983 E29.39366
G1 X98.108 Y163.935 E29.42538
G1 X96.827 Y163.700 E29.52961
G1 X96.442 Y163.605 E29.56134
G1 X95.199 Y163.218 E29.66551
G1 X94.829 Y163.077 E29.69721
G1 X93.641 Y162.543 E29.80145
G1 X93.115 Y162.253 E29.84953
G1 X92.175 Y161.685 E29.93736
G1 X91.849 Y161.460 E29.96909
G1 X90.824 Y160.657 E30.07329
G1 X90.527 Y160.394 E30.10502
G1 X89.606 Y159.473 E30.20922
G1 X89.343 Y159.176 E30.24095
G1 X88.540 Y158.151 E30.34517
G1 X88.315 Y157.825 E30.37689
G1 X87.747 Y156.885 E30.46469
G1 X87.457 Y156.359 E30.51279
G1 X86.923 Y155.171 E30.61700
G1 X86.782 Y154.801 E30.64872
G1 X86.395 Y153.558 E30.75290
G1 X86.300 Y153.173 E30.78464
G1 X86.065 Y151.892 E30.88881
G1 X86.017 Y151.498 E30.92057
G1 X85.939 Y150.198 E31.02482
G1 X85.939 Y149.802 E31.05652
G1 X86.017 Y148.502 E31.16066
G1 X86.065 Y148.108 E31.19242
G1 X86.300 Y146.827 E31.29667
G1 X86.395 Y146.442 E31.32837
G1 X86.782 Y145.199 E31.43258
G1 X86.923 Y144.828 E31.46430
G1 X87.457 Y143.641 E31.56848
G1 X87.641 Y143.290 E31.60021
G1 X88.315 Y142.175 E31.70443
G1 X88.540 Y141.849 E31.73615
G1 X89.344 Y140.824 E31.84039
G1 X89.607 Y140.527 E31.87209
G1 X90.527 Y139.607 E31.97626
G1 X90.824 Y139.344 E32.00797
G1 X91.849 Y138.540 E32.11221
G1 X92.126 Y138.349 E32.13914
G1 X92.515 Y138.840 F3600.000
G1 X93.597 Y138.186 E32.24033 F900.000
G1 X93.915 Y138.019 E32.26906
G1 X95.068 Y137.500 E32.37020
G1 X95.403 Y137.373 E32.39893
G1 X96.610 Y136.997 E32.50009
G1 X96.959 Y136.911 E32.52881
G1 X98.202 Y136.683 E32.62996
G1 X98.558 Y136.640 E32.65866
G1 X99.820 Y136.564 E32.75984
G1 X100.364 Y136.575 E32.80338
G1 X101.442 Y136.640 E32.88973 F900.000
G1 X101.798 Y136.683 E32.91846
G1 X103.041 Y136.911 E33.01960
G1 X103.567 Y137.052 E33.06314
G1 X104.597 Y137.373 E33.14946
G1 X104.932 Y137.500 E33.17814
G1 X106.086 Y138.019 E33.27937
G1 X106.403 Y138.186 E33.30811
G1 X107.485 Y138.840 E33.40923
G1 X107.926 Y139.158 E33.45277
G1 X108.776 Y139.824 E33.53911
G1 X109.044 Y140.062 E33.56782
G1 X109.938 Y140.955 E33.66896
G1 X110.176 Y141.224 E33.69769
G1 X110.956 Y142.220 E33.79888
G1 X111.160 Y142.515 E33.82759
G1 X111.814 Y143.597 E33.92876
G1 X111.981 Y143.915 E33.95747
G1 X112.500 Y145.067 E34.05864
G1 X112.627 Y145.403 E34.08736
G1 X113.003 Y146.610 E34.18849
G1 X113.089 Y146.958 E34.21723
G1 X113.317 Y148.203 E34.31846
G1 X113.360 Y148.559 E34.34714
G1 X113.436 Y149.821 E34.44834
G1 X113.436 Y150.180 E34.47703
G1 X113.360 Y151.441 E34.57816
G1 X113.317 Y151.798 E34.60689
G1 X113.089 Y153.042 E34.70810
G1 X113.003 Y153.390 E34.73679
G1 X112.627 Y154.597 E34.83796
G1 X112.500 Y154.932 E34.86667
G1 X111.981 Y156.085 E34.96783
G1 X111.814 Y156.403 E34.99655
G1 X111.160 Y157.485 E35.09773
G1 X110.956 Y157.780 E35.12644
G1 X110.177 Y158.775 E35.22758
G1 X109.938 Y159.044 E35.25631
G1 X109.044 Y159.938 E35.35752
G1 X108.775 Y160.177 E35.38625
G1 X107.780 Y160.956 E35.48741
G1 X107.485 Y161.160 E35.51615
G1 X106.403 Y161.814 E35.61728
G1 X106.085 Y161.981 E35.64600
G1 X104.932 Y162.500 E35.74717
G1 X104.597 Y162.627 E35.77589
G1 X103.390 Y163.003 E35.87705
G1 X103.041 Y163.089 E35.90578
G1 X101.798 Y163.317 E36.00694
G1 X101.441 Y163.360 E36.03567
G1 X100.179 Y163.436 E36.13684
G1 X99.820 Y163.436 E36.16559
G1 X98.559 Y163.360 E36.26669
G1 X98.020 Y163.283 E36.31026
G1 X96.959 Y163.089 E36.39658
G1 X96.610 Y163.003 E36.42529
G1 X95.403 Y162.627 E36.52644
G1 X95.068 Y162.500 E36.55512
G1 X93.915 Y161.981 E36.65633
G1 X93.438 Y161.718 E36.69989
G1 X92.515 Y161.160 E36.78620
G1 X92.220 Y160.956 E36.81491
G1 X91.224 Y160.176 E36.91609
G1 X90.956 Y159.938 E36.94480
G1 X90.062 Y159.044 E37.04598
G1 X89.824 Y158.776 E37.07468
G1 X89.044 Y157.780 E37.17588
G1 X88.840 Y157.485 E37.20457
G1 X88.282 Y156.562 E37.29087
