; generated by Slic3r 1.2.9 on 2017-08-20 at 10:52:53

; external perimeters extrusion width = 0.40mm
; perimeters extrusion width = 0.48mm
; infill extrusion width = 0.48mm
; solid infill extrusion width = 0.48mm
; top infill extrusion width = 0.48mm

M107
M190 S70 ; set bed temperature
M104 S240 ; set temperature
G21 ; set units to millimeters
G90 ; use absolute coordinates
M203 Z4; max speed min/sec
G1 Z20 F200;
G28 X F2000;
G1 X140 F2000;
G28 Y F2000;
G1 Y140 F2000;
G28 Z F200;
G1 Z5 F500 ; lift nozzle

M109 S240 ; wait for temperature to be reached
G21 ; set units to millimeters
G90 ; use absolute coordinates
M82 ; use absolute distances for extrusion
G92 E0
G1 Z0.200 F3600.000
G1 E-2.00000 F2400.00000
G92 E0
G1 X54.537 Y172.137 F3600.000
G1 E2.00000 F2400.00000
G1 X54.298 Y171.808 E2.03249 F900.000
G1 X52.788 Y171.318 E2.15950
G1 X52.557 Y171.330 E2.17804
G1 X51.347 Y171.869 E2.28400
G1 X45.568 Y166.665 E2.90630
G1 X44.976 Y166.008 E2.97706
G1 X43.228 Y163.601 E3.21509
G1 X42.786 Y162.835 E3.28585
G1 X41.576 Y160.118 E3.52389
G1 X41.302 Y159.277 E3.59464
G1 X41.185 Y158.725 E3.63977
G1 X40.684 Y156.367 E3.83268
G1 X40.591 Y155.487 E3.90343
G1 X40.591 Y152.513 E4.14147
G1 X40.684 Y151.633 E4.21222
G1 X41.302 Y148.723 E4.45026
G1 X41.576 Y147.882 E4.52101
G1 X42.786 Y145.165 E4.75905
G1 X43.228 Y144.399 E4.82980
G1 X44.976 Y141.992 E5.06784
G1 X45.568 Y141.335 E5.13860
G1 X47.779 Y139.345 E5.37663
G1 X48.494 Y138.825 E5.44738
G1 X51.070 Y137.338 E5.68542
G1 X51.878 Y136.978 E5.75618
G1 X54.298 Y136.192 E5.95979
G1 X54.537 Y135.863 E5.99228
G1 X54.537 Y122.137 E7.09064
G1 X54.298 Y121.808 E7.12314
G1 X51.878 Y121.022 E7.32674
G1 X51.070 Y120.662 E7.39750
G1 X48.494 Y119.175 E7.63554
G1 X47.778 Y118.655 E7.70630
G1 X45.568 Y116.665 E7.94433
G1 X44.976 Y116.007 E8.01509
G1 X43.228 Y113.601 E8.25312
G1 X42.786 Y112.835 E8.32387
G1 X41.576 Y110.118 E8.56191
G1 X41.302 Y109.277 E8.63266
G1 X40.684 Y106.367 E8.87070
G1 X40.591 Y105.487 E8.94146
G1 X40.591 Y102.513 E9.17950
G1 X40.684 Y101.633 E9.25025
G1 X41.302 Y98.723 E9.48829
G1 X41.576 Y97.882 E9.55904
G1 X42.786 Y95.165 E9.79707
G1 X43.228 Y94.399 E9.86783
G1 X44.976 Y91.992 E10.10587
G1 X45.568 Y91.335 E10.17662
G1 X47.779 Y89.345 E10.41466
G1 X48.494 Y88.825 E10.48541
G1 X51.070 Y87.338 E10.72345
G1 X51.878 Y86.978 E10.79420
G1 X54.707 Y86.059 E11.03224
G1 X55.572 Y85.875 E11.10300
G1 X58.311 Y85.587 E11.32333
G1 X58.752 Y85.564 E11.35868
G1 X141.209 Y85.564 E17.95678
G1 X141.682 Y85.591 E17.99465
G1 X144.613 Y85.921 E18.23069
G1 X145.537 Y86.132 E18.30651
G1 X148.545 Y87.184 E18.56151
G1 X149.399 Y87.595 E18.63734
G1 X152.097 Y89.291 E18.89233
G1 X152.838 Y89.881 E18.96814
G1 X155.091 Y92.135 E19.22315
G1 X155.682 Y92.876 E19.29897
G1 X157.377 Y95.574 E19.55396
G1 X157.788 Y96.428 E19.62978
G1 X158.841 Y99.436 E19.88479
G1 X159.052 Y100.360 E19.96061
G1 X159.409 Y103.526 E20.21561
G1 X159.409 Y104.474 E20.29142
G1 X159.052 Y107.641 E20.54643
G1 X158.841 Y108.564 E20.62225
G1 X157.788 Y111.572 E20.87724
G1 X157.377 Y112.426 E20.95306
G1 X155.682 Y115.124 E21.20807
G1 X155.091 Y115.865 E21.28389
G1 X152.838 Y118.118 E21.53888
G1 X152.097 Y118.709 E21.61470
G1 X149.399 Y120.405 E21.86970
G1 X148.545 Y120.816 E21.94552
G1 X145.639 Y121.833 E22.19186
G1 X145.409 Y122.157 E22.22373
G1 X145.409 Y135.843 E23.31878
G1 X145.639 Y136.167 E23.35066
G1 X148.545 Y137.184 E23.59699
G1 X149.399 Y137.595 E23.67281
G1 X152.097 Y139.291 E23.92781
G1 X152.838 Y139.881 E24.00362
G1 X155.091 Y142.135 E24.25863
G1 X155.682 Y142.876 E24.33445
G1 X157.377 Y145.574 E24.58945
G1 X157.788 Y146.428 E24.66527
G1 X158.841 Y149.436 E24.92027
G1 X159.052 Y150.360 E24.99610
G1 X159.409 Y153.526 E25.25109
G1 X159.409 Y154.474 E25.32690
G1 X159.052 Y157.641 E25.58191
G1 X158.841 Y158.564 E25.65773
G1 X157.788 Y161.572 E25.91273
G1 X157.377 Y162.426 E25.98854
G1 X155.682 Y165.124 E26.24355
G1 X155.091 Y165.865 E26.31937
G1 X152.838 Y168.118 E26.57437
G1 X152.097 Y168.709 E26.65018
G1 X149.399 Y170.405 E26.90519
G1 X148.545 Y170.816 E26.98100
G1 X145.639 Y171.833 E27.22734
G1 X145.409 Y172.157 E27.25921
G1 X145.409 Y196.237 E29.18599
G1 X145.382 Y196.709 E29.22386
G1 X145.052 Y199.641 E29.45990
G1 X144.841 Y200.564 E29.53573
G1 X143.788 Y203.572 E29.79071
G1 X143.377 Y204.426 E29.86653
G1 X141.682 Y207.124 E30.12154
G1 X141.091 Y207.865 E30.19736
G1 X138.838 Y210.118 E30.45236
G1 X138.097 Y210.709 E30.52817
G1 X135.399 Y212.405 E30.78318
G1 X134.545 Y212.816 E30.85900
G1 X131.537 Y213.868 E31.11400
G1 X130.613 Y214.079 E31.18982
G1 X127.682 Y214.409 E31.42585
G1 X127.209 Y214.436 E31.46373
G1 X72.736 Y214.436 E35.82258
G1 X72.263 Y214.409 E35.86046
G1 X69.332 Y214.079 E36.09649
G1 X68.408 Y213.868 E36.17231
G1 X65.400 Y212.816 E36.42731
G1 X64.547 Y212.405 E36.50313
G1 X61.848 Y210.709 E36.75813
G1 X61.107 Y210.118 E36.83396
G1 X58.854 Y207.865 E37.08894
G1 X58.263 Y207.124 E37.16476
G1 X56.568 Y204.426 E37.41977
G1 X56.157 Y203.572 E37.49559
G1 X55.104 Y200.564 E37.75059
G1 X54.893 Y199.641 E37.82641
G1 X54.563 Y196.709 E38.06244
G1 X54.537 Y196.237 E38.10032
G1 X54.537 Y172.197 E40.02394
G1 E38.02394 F2400.00000
G92 E0
G1 X48.505 Y157.381 F3600.000
G1 X48.505 Y157.381 F3600.000
G1 X47.299 Y157.784 F3600.000
G1 X51.464 Y171.133 F3600.000
G1 E2.00000 F2400.00000
G1 X46.010 Y166.222 E2.58721 F900.000
G1 X45.462 Y165.614 E2.65273
G1 X43.752 Y163.260 E2.88552
G1 X43.343 Y162.551 E2.95104
G1 X42.160 Y159.893 E3.18383
G1 X41.907 Y159.115 E3.24934
G1 X41.302 Y156.269 E3.48214
G1 X41.216 Y155.455 E3.54765
G1 X41.216 Y152.545 E3.78045
G1 X41.302 Y151.731 E3.84596
G1 X41.907 Y148.885 E4.07876
G1 X42.160 Y148.107 E4.14427
G1 X43.343 Y145.449 E4.37707
G1 X43.752 Y144.740 E4.44258
G1 X45.462 Y142.386 E4.67538
G1 X46.010 Y141.778 E4.74089
G1 X48.172 Y139.831 E4.97369
G1 X48.835 Y139.350 E5.03920
G1 X51.354 Y137.895 E5.27199
G1 X52.102 Y137.562 E5.33751
G1 X54.923 Y136.646 E5.57483
G1 X55.162 Y136.317 E5.60732
G1 X55.162 Y121.683 E6.77834
G1 X54.923 Y121.354 E6.81083
G1 X52.102 Y120.438 E7.04815
G1 X51.354 Y120.105 E7.11366
G1 X48.835 Y118.650 E7.34646
G1 X48.172 Y118.169 E7.41198
G1 X46.010 Y116.222 E7.64478
G1 X45.462 Y115.614 E7.71029
G1 X43.752 Y113.260 E7.94308
G1 X43.343 Y112.551 E8.00859
G1 X42.160 Y109.893 E8.24139
G1 X41.907 Y109.115 E8.30690
G1 X41.302 Y106.269 E8.53970
G1 X41.216 Y105.455 E8.60521
G1 X41.216 Y102.545 E8.83801
G1 X41.302 Y101.731 E8.90352
G1 X41.907 Y98.885 E9.13632
G1 X42.160 Y98.107 E9.20183
G1 X43.343 Y95.449 E9.43462
G1 X43.752 Y94.740 E9.50014
G1 X45.462 Y92.386 E9.73294
G1 X46.010 Y91.778 E9.79845
G1 X48.172 Y89.831 E10.03124
G1 X48.835 Y89.350 E10.09676
G1 X51.354 Y87.895 E10.32955
G1 X52.102 Y87.562 E10.39506
G1 X54.869 Y86.663 E10.62786
G1 X55.670 Y86.493 E10.69338
G1 X58.360 Y86.210 E10.90978
G1 X58.768 Y86.189 E10.94251
G1 X141.192 Y86.189 E17.53790
G1 X141.629 Y86.213 E17.57297
G1 X144.508 Y86.538 E17.80479
G1 X145.364 Y86.733 E17.87499
G1 X148.305 Y87.762 E18.12438
G1 X149.096 Y88.143 E18.19459
G1 X151.735 Y89.801 E18.44396
G1 X152.421 Y90.348 E18.51416
G1 X154.624 Y92.552 E18.76355
G1 X155.171 Y93.238 E18.83376
G1 X156.830 Y95.877 E19.08314
G1 X157.210 Y96.667 E19.15334
G1 X158.240 Y99.609 E19.40273
G1 X158.435 Y100.464 E19.47294
G1 X158.784 Y103.561 E19.72231
G1 X158.784 Y104.439 E19.79251
G1 X158.435 Y107.536 E20.04190
G1 X158.240 Y108.391 E20.11211
G1 X157.210 Y111.333 E20.36149
G1 X156.830 Y112.123 E20.43169
G1 X155.171 Y114.762 E20.68108
G1 X154.624 Y115.448 E20.75129
G1 X152.421 Y117.652 E21.00066
G1 X151.735 Y118.199 E21.07086
G1 X149.096 Y119.857 E21.32025
G1 X148.305 Y120.238 E21.39045
G1 X145.364 Y121.267 E21.63984
G1 X145.056 Y121.337 E21.66505
G1 X144.784 Y121.679 E21.70005
G1 X144.784 Y136.321 E22.87168
G1 X145.056 Y136.663 E22.90667
G1 X145.364 Y136.733 E22.93189
G1 X148.305 Y137.762 E23.18127
G1 X149.096 Y138.143 E23.25147
G1 X151.735 Y139.801 E23.50085
G1 X152.421 Y140.348 E23.57105
G1 X152.823 Y140.751 E23.61660
G1 X154.624 Y142.552 E23.82045
G1 X155.171 Y143.238 E23.89065
G1 X156.830 Y145.877 E24.14003
G1 X157.210 Y146.667 E24.21023
G1 X158.240 Y149.609 E24.45962
G1 X158.435 Y150.464 E24.52983
G1 X158.784 Y153.561 E24.77920
G1 X158.784 Y154.439 E24.84940
G1 X158.435 Y157.536 E25.09880
G1 X158.240 Y158.391 E25.16900
G1 X157.210 Y161.333 E25.41838
G1 X156.830 Y162.123 E25.48858
G1 X155.171 Y164.762 E25.73797
G1 X154.624 Y165.448 E25.80817
G1 X152.421 Y167.652 E26.05755
G1 X151.735 Y168.199 E26.12776
G1 X149.096 Y169.857 E26.37714
G1 X148.305 Y170.238 E26.44734
G1 X145.364 Y171.267 E26.69673
G1 X145.056 Y171.337 E26.72195
G1 X144.784 Y171.679 E26.75694
G1 X144.784 Y196.219 E28.72060
G1 X144.759 Y196.657 E28.75566
G1 X144.435 Y199.536 E28.98750
G1 X144.240 Y200.391 E29.05770
G1 X143.210 Y203.333 E29.30707
G1 X142.830 Y204.123 E29.37727
G1 X141.171 Y206.762 E29.62667
G1 X140.624 Y207.448 E29.69687
G1 X138.421 Y209.652 E29.94625
G1 X137.735 Y210.199 E30.01645
G1 X135.096 Y211.857 E30.26584
G1 X134.305 Y212.238 E30.33604
G1 X131.364 Y213.267 E30.58543
G1 X130.508 Y213.462 E30.65563
G1 X127.629 Y213.787 E30.88745
G1 X127.192 Y213.811 E30.92252
G1 X72.753 Y213.811 E35.27857
G1 X72.316 Y213.787 E35.31364
G1 X69.437 Y213.462 E35.54547
G1 X68.582 Y213.267 E35.61567
G1 X65.640 Y212.238 E35.86505
G1 X64.849 Y211.857 E35.93525
G1 X62.211 Y210.199 E36.18464
G1 X61.525 Y209.652 E36.25485
G1 X59.321 Y207.448 E36.50422
G1 X58.774 Y206.762 E36.57442
G1 X57.116 Y204.123 E36.82381
G1 X56.735 Y203.333 E36.89401
G1 X55.706 Y200.391 E37.14340
G1 X55.510 Y199.536 E37.21360
G1 X55.186 Y196.657 E37.44542
G1 X55.162 Y196.219 E37.48050
G1 X55.162 Y171.683 E39.44385
G1 X54.923 Y171.354 E39.47634
G1 X52.753 Y170.649 E39.65887
G1 X52.522 Y170.661 E39.67741
G1 X51.519 Y171.108 E39.76529
G1 X51.580 Y170.397 F3600.000
G1 X46.453 Y165.780 E40.31741 F900.000
G1 X45.949 Y165.220 E40.37769
G1 X44.277 Y162.919 E40.60524
G1 X43.901 Y162.267 E40.66551
G1 X42.744 Y159.669 E40.89307
G1 X42.511 Y158.953 E40.95334
G1 X42.408 Y158.465 E40.99323
G1 X41.920 Y156.171 E41.18089
G1 X41.841 Y155.422 E41.24116
G1 X41.841 Y152.578 E41.46872
G1 X41.920 Y151.829 E41.52899
G1 X42.511 Y149.047 E41.75655
G1 X42.744 Y148.331 E41.81682
G1 X43.901 Y145.733 E42.04437
G1 X44.277 Y145.081 E42.10464
G1 X45.949 Y142.780 E42.33220
G1 X46.453 Y142.220 E42.39248
G1 X48.566 Y140.317 E42.62003
G1 X49.175 Y139.875 E42.68030
G1 X51.638 Y138.453 E42.90785
G1 X52.326 Y138.146 E42.96813
G1 X55.031 Y137.268 E43.19568
G1 X55.508 Y137.166 E43.23469
G1 X55.786 Y136.822 E43.27010
G1 X55.786 Y121.178 E44.52196
G1 X55.508 Y120.834 E44.55738
G1 X55.031 Y120.732 E44.59638
G1 X52.326 Y119.854 E44.82394
G1 X51.638 Y119.547 E44.88421
G1 X49.175 Y118.125 E45.11177
G1 X48.566 Y117.683 E45.17204
G1 X46.453 Y115.780 E45.39960
G1 X45.949 Y115.220 E45.45987
G1 X44.277 Y112.919 E45.68742
G1 X43.901 Y112.267 E45.74769
G1 X42.744 Y109.669 E45.97525
G1 X42.511 Y108.953 E46.03552
G1 X41.920 Y106.171 E46.26307
G1 X41.841 Y105.422 E46.32335
G1 X41.841 Y102.578 E46.55090
G1 X41.920 Y101.829 E46.61117
G1 X42.511 Y99.047 E46.83873
G1 X42.744 Y98.331 E46.89900
G1 X43.901 Y95.733 E47.12655
G1 X44.277 Y95.081 E47.18683
G1 X45.949 Y92.780 E47.41438
G1 X46.453 Y92.220 E47.47465
G1 X48.566 Y90.317 E47.70221
G1 X49.176 Y89.875 E47.76248
G1 X51.638 Y88.453 E47.99004
G1 X52.326 Y88.146 E48.05031
G1 X55.031 Y87.268 E48.27786
G1 X55.768 Y87.111 E48.33814
G1 X58.409 Y86.833 E48.55061
G1 X58.784 Y86.814 E48.58073
G1 X141.174 Y86.814 E55.17340
G1 X141.577 Y86.836 E55.20566
G1 X144.403 Y87.155 E55.43327
G1 X145.190 Y87.334 E55.49786
G1 X148.066 Y88.341 E55.74163
G1 X148.793 Y88.691 E55.80622
G1 X151.373 Y90.312 E56.04998
G1 X152.004 Y90.815 E56.11457
G1 X154.158 Y92.969 E56.35834
G1 X154.661 Y93.600 E56.42293
G1 X156.282 Y96.180 E56.66669
G1 X156.632 Y96.907 E56.73127
G1 X157.638 Y99.782 E56.97505
G1 X157.818 Y100.569 E57.03964
G1 X158.159 Y103.596 E57.28340
G1 X158.159 Y104.404 E57.34799
G1 X157.818 Y107.431 E57.59176
G1 X157.638 Y108.218 E57.65635
G1 X156.632 Y111.093 E57.90011
G1 X156.282 Y111.820 E57.96470
G1 X154.661 Y114.400 E58.20847
G1 X154.158 Y115.031 E58.27306
G1 X152.004 Y117.185 E58.51682
G1 X151.373 Y117.688 E58.58141
G1 X148.793 Y119.309 E58.82518
G1 X148.066 Y119.659 E58.88977
G1 X145.190 Y120.666 E59.13353
G1 X144.432 Y120.839 E59.19582
G1 X144.159 Y121.181 E59.23081
G1 X144.159 Y136.819 E60.48219
G1 X144.432 Y137.161 E60.51718
G1 X145.190 Y137.334 E60.57947
G1 X148.066 Y138.341 E60.82324
G1 X148.793 Y138.691 E60.88782
G1 X151.372 Y140.312 E61.13159
G1 X152.003 Y140.815 E61.19617
G1 X152.381 Y141.193 E61.23891
G1 X154.158 Y142.969 E61.43995
G1 X154.661 Y143.600 E61.50454
G1 X156.282 Y146.180 E61.74830
G1 X156.632 Y146.907 E61.81289
G1 X157.638 Y149.782 E62.05666
G1 X157.818 Y150.569 E62.12125
G1 X158.159 Y153.596 E62.36501
G1 X158.159 Y154.404 E62.42959
G1 X157.818 Y157.431 E62.67337
G1 X157.638 Y158.218 E62.73795
G1 X156.632 Y161.093 E62.98172
G1 X156.282 Y161.820 E63.04630
G1 X154.661 Y164.400 E63.29008
G1 X154.158 Y165.031 E63.35466
G1 X152.004 Y167.185 E63.59843
G1 X151.373 Y167.688 E63.66301
G1 X148.793 Y169.309 E63.90679
G1 X148.066 Y169.659 E63.97137
G1 X145.190 Y170.666 E64.21514
G1 X144.432 Y170.839 E64.27742
G1 X144.159 Y171.181 E64.31242
G1 X144.159 Y196.202 E66.31455
G1 X144.136 Y196.604 E66.34681
G1 X143.818 Y199.431 E66.57443
G1 X143.638 Y200.218 E66.63902
G1 X142.632 Y203.093 E66.88278
G1 X142.282 Y203.820 E66.94736
G1 X140.661 Y206.400 E67.19114
G1 X140.158 Y207.031 E67.25572
G1 X138.004 Y209.185 E67.49949
G1 X137.373 Y209.688 E67.56407
G1 X134.793 Y211.309 E67.80785
G1 X134.066 Y211.659 E67.87243
G1 X131.190 Y212.666 E68.11620
G1 X130.403 Y212.845 E68.18079
G1 X127.577 Y213.164 E68.40840
G1 X127.174 Y213.186 E68.44066
G1 X72.771 Y213.186 E72.79390
G1 X72.368 Y213.164 E72.82617
G1 X69.542 Y212.845 E73.05378
G1 X68.755 Y212.666 E73.11837
G1 X65.879 Y211.659 E73.36214
G1 X65.152 Y211.309 E73.42672
G1 X62.573 Y209.688 E73.67049
G1 X61.942 Y209.185 E73.73508
G1 X59.788 Y207.031 E73.97884
G1 X59.284 Y206.400 E74.04342
G1 X57.663 Y203.820 E74.28720
G1 X57.313 Y203.093 E74.35179
G1 X56.307 Y200.218 E74.59556
G1 X56.127 Y199.431 E74.66014
G1 X55.809 Y196.604 E74.88775
G1 X55.786 Y196.202 E74.92002
G1 X55.786 Y171.178 E76.92239
G1 X55.508 Y170.834 E76.95780
G1 X55.031 Y170.732 E76.99683
G1 X52.718 Y169.981 E77.19139
G1 X52.487 Y169.993 E77.20993
G1 X51.635 Y170.372 E77.28453
G1 X51.697 Y169.661 F3600.000
G1 X46.895 Y165.337 E77.80156 F900.000
G1 X46.435 Y164.826 E77.85659
G1 X44.802 Y162.578 E78.07890
G1 X44.458 Y161.983 E78.13394
G1 X43.328 Y159.445 E78.35625
G1 X43.116 Y158.791 E78.41128
G1 X43.019 Y158.335 E78.44855
G1 X42.538 Y156.073 E78.63360
G1 X42.466 Y155.389 E78.68863
G1 X42.466 Y152.611 E78.91094
G1 X42.538 Y151.927 E78.96597
G1 X43.116 Y149.209 E79.18828
G1 X43.328 Y148.555 E79.24332
G1 X44.458 Y146.017 E79.46563
G1 X44.802 Y145.422 E79.52066
G1 X46.435 Y143.174 E79.74297
G1 X46.895 Y142.663 E79.79801
G1 X48.960 Y140.804 E80.02032
G1 X49.516 Y140.399 E80.07535
G1 X51.922 Y139.010 E80.29766
G1 X52.551 Y138.731 E80.35270
G1 X55.193 Y137.872 E80.57501
G1 X55.866 Y137.729 E80.63004
G1 X56.090 Y137.705 E80.64811
G1 X56.411 Y137.349 E80.68650
G1 X56.411 Y120.651 E82.02263
G1 X56.090 Y120.295 E82.06102
G1 X55.866 Y120.271 E82.07909
G1 X55.193 Y120.128 E82.13412
G1 X52.551 Y119.269 E82.35644
G1 X51.922 Y118.990 E82.41147
G1 X49.516 Y117.601 E82.63378
G1 X48.960 Y117.196 E82.68882
G1 X46.895 Y115.337 E82.91113
G1 X46.435 Y114.826 E82.96616
G1 X44.802 Y112.578 E83.18847
G1 X44.458 Y111.983 E83.24350
G1 X43.328 Y109.445 E83.46581
G1 X43.116 Y108.791 E83.52084
G1 X42.538 Y106.073 E83.74316
G1 X42.466 Y105.389 E83.79819
G1 X42.466 Y102.611 E84.02051
G1 X42.538 Y101.927 E84.07554
G1 X43.116 Y99.209 E84.29785
G1 X43.328 Y98.555 E84.35288
G1 X44.458 Y96.017 E84.57520
G1 X44.802 Y95.422 E84.63023
G1 X46.435 Y93.174 E84.85254
G1 X46.895 Y92.663 E84.90757
G1 X48.960 Y90.804 E85.12989
G1 X49.516 Y90.399 E85.18492
G1 X51.922 Y89.010 E85.40723
G1 X52.551 Y88.731 E85.46226
G1 X55.193 Y87.872 E85.68457
G1 X55.866 Y87.729 E85.73961
