; generated by Slic3r 1.2.9 on 2017-08-11 at 22:05:39

; external perimeters extrusion width = 0.40mm
; perimeters extrusion width = 0.48mm
; infill extrusion width = 0.48mm
; solid infill extrusion width = 0.48mm
; top infill extrusion width = 0.48mm

M107
M190 S70 ; set bed temperature
M104 S240 ; set temperature
G21 ; set units to millimeters
G90 ; use absolute coordinates
M203 Z4; max speed min/sec
G1 Z20 F200;
G28 X F2000;
G1 X140 F2000;
G28 Y F2000;
G1 Y140 F2000;
G28 Z F200;
G1 Z5 F500 ; lift nozzle

M109 S240 ; wait for temperature to be reached
G21 ; set units to millimeters
G90 ; use absolute coordinates
M82 ; use absolute distances for extrusion
G92 E0
G1 Z0.200 F3600.000
G1 E-2.00000 F2400.00000
G92 E0
G1 X74.672 Y121.388 F3600.000
G1 E2.00000 F2400.00000
G1 X75.427 Y120.984 E2.07000 F900.000
G1 X75.897 Y120.775 E2.11213
G1 X76.744 Y120.472 E2.18575
G1 X77.197 Y120.347 E2.22424
G1 X78.124 Y120.162 E2.30156
G1 X78.546 Y120.111 E2.33640
G1 X79.196 Y120.069 E2.38970
G1 X120.802 Y120.069 E5.79460
G1 X121.454 Y120.111 E5.84801 F900.000
G1 X121.877 Y120.162 E5.88287
G1 X122.803 Y120.347 E5.96017
G1 X123.256 Y120.472 E5.99868
G1 X123.674 Y120.616 E6.03483
G1 X124.103 Y120.775 E6.07224
G1 X124.572 Y120.984 E6.11427
G1 X125.328 Y121.388 E6.18442
G1 X125.799 Y121.687 E6.23012
G1 X126.050 Y121.871 E6.25551
G1 X126.451 Y122.171 E6.29659
G1 X126.907 Y122.566 E6.34587
G1 X127.434 Y123.093 E6.40688
G1 X127.829 Y123.548 E6.45621
G1 X128.313 Y124.201 E6.52273
G1 X128.612 Y124.672 E6.56840
G1 X128.831 Y125.074 E6.60581
G1 X129.015 Y125.426 E6.63838
G1 X129.224 Y125.897 E6.68052
G1 X129.528 Y126.745 E6.75423
G1 X129.653 Y127.198 E6.79267
G1 X129.751 Y127.644 E6.83009
G1 X129.838 Y128.123 E6.86989
G1 X129.889 Y128.546 E6.90480
G1 X129.936 Y129.398 E6.97464
G1 X129.936 Y170.601 E10.34654
G1 X129.889 Y171.454 E10.41641
G1 X129.784 Y172.182 E10.47664
G1 X129.653 Y172.802 E10.52852
G1 X129.528 Y173.255 E10.56695
G1 X129.385 Y173.674 E10.60320
G1 X129.224 Y174.103 E10.64068
G1 X129.016 Y174.573 E10.68278
G1 X128.612 Y175.328 E10.75281
G1 X128.313 Y175.799 E10.79852
G1 X127.829 Y176.451 E10.86497
G1 X127.434 Y176.907 E10.91430
G1 X126.907 Y177.434 E10.97531
G1 X126.452 Y177.829 E11.02460
G1 X125.799 Y178.312 E11.09106
G1 X125.328 Y178.612 E11.13679
G1 X124.573 Y179.016 E11.20686
G1 X124.103 Y179.224 E11.24891
G1 X123.674 Y179.384 E11.28637
G1 X123.255 Y179.528 E11.32265
G1 X122.802 Y179.653 E11.36107
G1 X122.182 Y179.785 E11.41299
G1 X121.453 Y179.889 E11.47320
G1 X120.804 Y179.931 E11.52649
G1 X79.399 Y179.936 E14.91493
G1 X78.546 Y179.889 E14.98479
G1 X78.123 Y179.838 E15.01968
G1 X77.644 Y179.751 E15.05950
G1 X77.197 Y179.653 E15.09699
G1 X76.743 Y179.527 E15.13555
G1 X75.897 Y179.224 E15.20909
G1 X75.426 Y179.016 E15.25120
G1 X75.074 Y178.831 E15.28376
G1 X74.673 Y178.612 E15.32117
G1 X74.202 Y178.313 E15.36682
G1 X73.548 Y177.829 E15.43338
G1 X73.093 Y177.434 E15.48269
G1 X72.785 Y177.126 E15.51835
G1 X72.566 Y176.906 E15.54375
G1 X72.171 Y176.451 E15.59302
G1 X71.688 Y175.799 E15.65946
G1 X71.388 Y175.328 E15.70518
G1 X70.985 Y174.574 E15.77514
G1 X70.776 Y174.103 E15.81730
G1 X70.616 Y173.675 E15.85475
G1 X70.472 Y173.257 E15.89087
G1 X70.347 Y172.803 E15.92942
G1 X70.215 Y172.182 E15.98136
G1 X70.111 Y171.454 E16.04157
G1 X70.069 Y170.802 E16.09499
G1 X70.069 Y129.197 E19.49980
G1 X70.111 Y128.546 E19.55320
G1 X70.162 Y128.124 E19.58803
G1 X70.347 Y127.197 E19.66535
G1 X70.472 Y126.744 E19.70385
G1 X70.775 Y125.897 E19.77746
G1 X70.984 Y125.427 E19.81956
G1 X71.388 Y124.672 E19.88960
G1 X71.688 Y124.201 E19.93532
G1 X71.897 Y123.915 E19.96432
G1 X72.171 Y123.549 E20.00177
G1 X72.566 Y123.093 E20.05107
G1 X73.093 Y122.566 E20.11210
G1 X73.548 Y122.171 E20.16140
G1 X74.201 Y121.687 E20.22789
G1 X74.622 Y121.420 E20.26867
G1 X74.990 Y121.926 F3600.000
G1 X75.698 Y121.548 E20.33436 F900.000
G1 X76.133 Y121.354 E20.37337
G1 X76.927 Y121.070 E20.44241
G1 X77.347 Y120.954 E20.47804
G1 X78.215 Y120.781 E20.55050
G1 X78.607 Y120.733 E20.58276
G1 X79.219 Y120.693 E20.63296
G1 X120.593 Y120.689 E24.01891
G1 X121.393 Y120.733 E24.08449 F900.000
G1 X122.229 Y120.861 E24.15367
G1 X123.073 Y121.070 E24.22482
G1 X123.866 Y121.354 E24.29379
G1 X124.301 Y121.547 E24.33271
G1 X124.629 Y121.719 E24.36301
G1 X125.010 Y121.927 E24.39853
G1 X125.447 Y122.204 E24.44085
G1 X126.059 Y122.658 E24.50326
G1 X126.481 Y123.023 E24.54889
G1 X126.976 Y123.519 E24.60625
G1 X127.342 Y123.941 E24.65193
G1 X127.796 Y124.554 E24.71439
G1 X128.074 Y124.990 E24.75667
G1 X128.281 Y125.370 E24.79213
G1 X128.452 Y125.697 E24.82234
G1 X128.646 Y126.133 E24.86135
G1 X128.930 Y126.928 E24.93048
G1 X129.139 Y127.771 E25.00150
G1 X129.267 Y128.607 E25.07070
G1 X129.311 Y129.406 E25.13622
G1 X129.311 Y170.594 E28.50689
G1 X129.267 Y171.393 E28.57243
G1 X129.219 Y171.785 E28.60471
G1 X129.046 Y172.653 E28.67711
G1 X128.931 Y173.072 E28.71269
G1 X128.646 Y173.867 E28.78183
G1 X128.320 Y174.558 E28.84433
G1 X128.073 Y175.010 E28.88650
G1 X127.796 Y175.447 E28.92882
G1 X127.342 Y176.059 E28.99122
G1 X126.976 Y176.481 E29.03689
G1 X126.481 Y176.976 E29.09425
G1 X126.059 Y177.342 E29.13989
G1 X125.447 Y177.796 E29.20230
G1 X125.010 Y178.074 E29.24463
G1 X124.629 Y178.281 E29.28015
G1 X124.302 Y178.453 E29.31039
G1 X123.867 Y178.646 E29.34932
G1 X123.072 Y178.931 E29.41846
G1 X122.229 Y179.139 E29.48950
G1 X121.393 Y179.267 E29.55870
G1 X120.781 Y179.307 E29.60888
G1 X79.406 Y179.311 E32.99486
G1 X78.983 Y179.294 E33.02953
G1 X78.215 Y179.219 E33.09269
G1 X77.347 Y179.046 E33.16514
G1 X76.926 Y178.930 E33.20084
G1 X76.539 Y178.797 E33.23435
G1 X76.133 Y178.646 E33.26981
G1 X75.698 Y178.452 E33.30880
G1 X74.990 Y178.074 E33.37445
G1 X74.554 Y177.797 E33.41672
G1 X73.941 Y177.342 E33.47922
G1 X73.519 Y176.976 E33.52487
G1 X73.227 Y176.684 E33.55871
G1 X73.023 Y176.480 E33.58228
G1 X72.658 Y176.059 E33.62790
G1 X72.204 Y175.447 E33.69029
G1 X71.927 Y175.010 E33.73262
G1 X71.548 Y174.303 E33.79827
G1 X71.354 Y173.867 E33.83731
G1 X71.203 Y173.461 E33.87279
G1 X71.070 Y173.074 E33.90629
G1 X70.954 Y172.653 E33.94199
G1 X70.830 Y172.068 E33.99090
G1 X70.733 Y171.394 E34.04670
G1 X70.693 Y170.780 E34.09701
G1 X70.693 Y129.220 E37.49816
G1 X70.733 Y128.607 E37.54845
G1 X70.781 Y128.215 E37.58070
G1 X70.954 Y127.347 E37.65316
G1 X71.070 Y126.927 E37.68881
G1 X71.354 Y126.133 E37.75783
G1 X71.548 Y125.698 E37.79682
G1 X71.927 Y124.990 E37.86254
G1 X72.204 Y124.553 E37.90486
G1 X72.398 Y124.288 E37.93177
G1 X72.658 Y123.941 E37.96726
G1 X73.024 Y123.519 E38.01291
G1 X73.519 Y123.024 E38.07029
G1 X73.941 Y122.658 E38.11593
G1 X74.553 Y122.204 E38.17837
G1 X74.939 Y121.959 E38.21577
G1 X75.307 Y122.465 F3600.000
G1 X75.969 Y122.111 E38.27714 F900.000
G1 X76.369 Y121.933 E38.31303
G1 X77.111 Y121.667 E38.37748
G1 X77.497 Y121.561 E38.41026
G1 X78.307 Y121.399 E38.47787
G1 X78.667 Y121.355 E38.50755
G1 X79.241 Y121.318 E38.55465
G1 X120.758 Y121.318 E41.95220
G1 X121.333 Y121.355 E41.99939 F900.000
G1 X121.693 Y121.399 E42.02908
G1 X122.503 Y121.561 E42.09667
G1 X123.247 Y121.790 E42.16035
G1 X123.630 Y121.933 E42.19384
G1 X124.030 Y122.111 E42.22965
G1 X124.693 Y122.465 E42.29115
G1 X125.308 Y122.877 E42.35178
G1 X125.667 Y123.145 E42.38840
G1 X126.054 Y123.481 E42.43039
G1 X126.519 Y123.945 E42.48409
G1 X126.855 Y124.333 E42.52611
G1 X127.280 Y124.906 E42.58451
G1 X127.535 Y125.307 E42.62342
G1 X127.731 Y125.667 E42.65692
G1 X128.067 Y126.369 E42.72063
G1 X128.333 Y127.112 E42.78516
G1 X128.527 Y127.897 E42.85139
G1 X128.645 Y128.667 E42.91511
G1 X128.686 Y129.413 E42.97630
G1 X128.686 Y170.586 E46.34574
G1 X128.645 Y171.333 E46.40695
G1 X128.601 Y171.693 E46.43666
G1 X128.440 Y172.503 E46.50420
G1 X128.333 Y172.888 E46.53693
G1 X128.067 Y173.631 E46.60148
G1 X127.767 Y174.267 E46.65904
G1 X127.535 Y174.693 E46.69871
G1 X127.280 Y175.094 E46.73764
G1 X126.855 Y175.667 E46.79599
G1 X126.519 Y176.055 E46.83801
G1 X126.055 Y176.519 E46.89172
G1 X125.667 Y176.855 E46.93371
G1 X125.094 Y177.280 E46.99206
G1 X124.693 Y177.535 E47.03101
G1 X124.333 Y177.731 E47.06456
G1 X123.631 Y178.067 E47.12823
G1 X122.888 Y178.333 E47.19277
G1 X122.102 Y178.527 E47.25901
G1 X121.333 Y178.645 E47.32273
G1 X120.759 Y178.682 E47.36982
G1 X79.414 Y178.686 E50.75334
G1 X79.024 Y178.671 E50.78528
G1 X78.306 Y178.601 E50.84426
G1 X77.497 Y178.439 E50.91185
G1 X76.753 Y178.210 E50.97555
G1 X76.369 Y178.067 E51.00906
G1 X75.969 Y177.889 E51.04493
G1 X75.308 Y177.535 E51.10626
G1 X74.907 Y177.280 E51.14515
G1 X74.333 Y176.855 E51.20359
G1 X73.945 Y176.519 E51.24559
G1 X73.481 Y176.054 E51.29934
G1 X73.145 Y175.667 E51.34132
G1 X72.720 Y175.094 E51.39965
G1 X72.465 Y174.693 E51.43860
G1 X72.111 Y174.032 E51.49993
G1 X71.933 Y173.631 E51.53584
G1 X71.790 Y173.247 E51.56937
G1 X71.561 Y172.503 E51.63306
G1 X71.445 Y171.955 E51.67894
G1 X71.355 Y171.333 E51.73033
G1 X71.318 Y170.758 E51.77754
G1 X71.318 Y129.242 E55.17501
G1 X71.355 Y128.667 E55.22220
G1 X71.399 Y128.307 E55.25187
G1 X71.561 Y127.497 E55.31947
G1 X71.667 Y127.111 E55.35227
G1 X71.933 Y126.369 E55.41671
G1 X72.111 Y125.969 E55.45257
G1 X72.465 Y125.307 E55.51397
G1 X72.900 Y124.661 E55.57769
G1 X73.145 Y124.333 E55.61122
G1 X73.481 Y123.945 E55.65322
G1 X73.945 Y123.481 E55.70695
G1 X74.333 Y123.145 E55.74894
G1 X74.906 Y122.720 E55.80732
G1 X75.257 Y122.497 E55.84133
G1 X75.625 Y123.004 F3600.000
G1 X76.240 Y122.675 E55.89839 F900.000
G1 X76.606 Y122.512 E55.93115
G1 X77.294 Y122.265 E55.99102
G1 X77.647 Y122.167 E56.02095
G1 X78.399 Y122.017 E56.08370
G1 X78.727 Y121.977 E56.11080
G1 X79.421 Y121.939 E56.16768
G1 X120.578 Y121.939 E59.53584
G1 X121.273 Y121.977 E59.59275 F900.000
G1 X121.976 Y122.085 E59.65098
G1 X122.706 Y122.265 E59.71251
G1 X123.394 Y122.512 E59.77232
G1 X124.036 Y122.819 E59.83056
G1 X124.375 Y123.004 E59.86215
G1 X124.742 Y123.237 E59.89770
G1 X125.274 Y123.632 E59.95200
G1 X125.628 Y123.939 E59.99033
G1 X126.061 Y124.371 E60.04038
G1 X126.368 Y124.726 E60.07876
G1 X126.764 Y125.259 E60.13310
G1 X126.996 Y125.625 E60.16862
G1 X127.181 Y125.963 E60.20016
G1 X127.488 Y126.606 E60.25840
G1 X127.735 Y127.295 E60.31834
G1 X127.915 Y128.024 E60.37976
G1 X128.023 Y128.727 E60.43800
G1 X128.061 Y129.421 E60.49487
G1 X128.061 Y170.579 E63.86308
G1 X128.023 Y171.273 E63.91996
G1 X127.983 Y171.602 E63.94708
G1 X127.833 Y172.353 E64.00977
G1 X127.735 Y172.705 E64.03966
G1 X127.488 Y173.394 E64.09961
G1 X127.213 Y173.976 E64.15223
G1 X126.996 Y174.375 E64.18941
G1 X126.763 Y174.742 E64.22496
G1 X126.368 Y175.274 E64.27925
G1 X126.061 Y175.629 E64.31762
G1 X125.629 Y176.061 E64.36767
G1 X125.274 Y176.368 E64.40601
G1 X124.742 Y176.763 E64.46031
G1 X124.375 Y176.996 E64.49587
G1 X124.036 Y177.181 E64.52746
G1 X123.394 Y177.488 E64.58566
G1 X122.705 Y177.735 E64.64561
G1 X121.976 Y177.915 E64.70704
G1 X121.273 Y178.023 E64.76528
G1 X120.736 Y178.058 E64.80927
G1 X79.141 Y178.052 E68.21325
G1 X78.398 Y177.983 E68.27434
G1 X77.646 Y177.832 E68.33707
G1 X76.967 Y177.623 E68.39529
G1 X76.240 Y177.325 E68.45956
G1 X75.625 Y176.997 E68.51659
G1 X75.259 Y176.764 E68.55209
G1 X74.726 Y176.368 E68.60647
G1 X74.371 Y176.061 E68.64482
G1 X74.111 Y175.800 E68.67500
G1 X73.632 Y175.274 E68.73321
G1 X73.237 Y174.742 E68.78748
G1 X73.004 Y174.375 E68.82305
G1 X72.675 Y173.761 E68.88006
G1 X72.377 Y173.033 E68.94439
G1 X72.167 Y172.353 E69.00261
G1 X72.059 Y171.841 E69.04545
G1 X71.977 Y171.273 E69.09244
G1 X71.942 Y170.735 E69.13654
G1 X71.942 Y129.265 E72.53035
G1 X72.017 Y128.399 E72.60149
G1 X72.167 Y127.647 E72.66423
G1 X72.265 Y127.294 E72.69417
G1 X72.512 Y126.606 E72.75403
G1 X72.674 Y126.240 E72.78678
G1 X73.004 Y125.625 E72.84386
G1 X73.401 Y125.034 E72.90210
G1 X73.632 Y124.726 E72.93367
G1 X73.939 Y124.371 E72.97202
G1 X74.371 Y123.939 E73.02209
G1 X74.726 Y123.632 E73.06043
G1 X75.259 Y123.236 E73.11475
G1 X75.574 Y123.036 E73.14539
G1 X75.943 Y123.542 F3600.000
G1 X76.511 Y123.238 E73.19812 F900.000
G1 X76.842 Y123.091 E73.22777
G1 X77.478 Y122.863 E73.28305
G1 X77.797 Y122.774 E73.31013
G1 X78.490 Y122.636 E73.36802
G1 X78.788 Y122.599 E73.39254
G1 X79.429 Y122.564 E73.44509
G1 X120.713 Y122.567 E76.82363
G1 X121.213 Y122.599 E76.86461 F900.000
G1 X121.850 Y122.697 E76.91737
G1 X122.523 Y122.863 E76.97408
G1 X123.158 Y123.091 E77.02931
G1 X123.740 Y123.369 E77.08207
G1 X124.389 Y123.753 E77.14383
G1 X124.882 Y124.119 E77.19408
G1 X125.202 Y124.396 E77.22876
G1 X125.603 Y124.797 E77.27516
G1 X125.881 Y125.118 E77.30988
G1 X126.247 Y125.611 E77.36016
G1 X126.458 Y125.943 E77.39230
G1 X126.660 Y126.315 E77.42694
G1 X126.909 Y126.842 E77.47465
G1 X127.138 Y127.478 E77.53000
G1 X127.226 Y127.797 E77.55705
G1 X127.364 Y128.489 E77.61485
G1 X127.401 Y128.787 E77.63942
G1 X127.436 Y129.429 E77.69196
G1 X127.436 Y170.571 E81.05894
G1 X127.401 Y171.212 E81.11150
G1 X127.303 Y171.850 E81.16426
G1 X127.138 Y172.522 E81.22088
G1 X126.909 Y173.158 E81.27624
G1 X126.631 Y173.740 E81.32898
G1 X126.247 Y174.389 E81.39072
G1 X125.881 Y174.882 E81.44096
G1 X125.603 Y175.203 E81.47567
G1 X125.202 Y175.604 E81.52208
G1 X124.882 Y175.881 E81.55677
G1 X124.389 Y176.247 E81.60701
G1 X123.740 Y176.631 E81.66878
G1 X123.158 Y176.909 E81.72150
G1 X122.522 Y177.138 E81.77686
G1 X121.850 Y177.303 E81.83349
G1 X121.212 Y177.401 E81.88625
G1 X120.571 Y177.436 E81.93880
G1 X79.175 Y177.428 E85.32653
G1 X78.490 Y177.364 E85.38284
G1 X77.796 Y177.226 E85.44071
G1 X77.180 Y177.035 E85.49347
G1 X76.511 Y176.762 E85.55266
G1 X75.943 Y176.458 E85.60537
G1 X75.612 Y176.248 E85.63749
G1 X75.118 Y175.881 E85.68781
G1 X74.798 Y175.603 E85.72251
G1 X74.553 Y175.359 E85.75086
G1 X74.119 Y174.882 E85.80359
G1 X73.753 Y174.389 E85.85382
G1 X73.542 Y174.057 E85.88599
G1 X73.238 Y173.490 E85.93870
G1 X72.964 Y172.819 E85.99795
G1 X72.774 Y172.203 E86.05069
G1 X72.674 Y171.728 E86.09050
G1 X72.599 Y171.213 E86.13308
G1 X72.567 Y170.713 E86.17407
G1 X72.567 Y129.287 E89.56421
G1 X72.636 Y128.490 E89.62967
G1 X72.774 Y127.797 E89.68755
G1 X72.863 Y127.478 E89.71464
G1 X73.091 Y126.842 E89.76991
G1 X73.238 Y126.511 E89.79954
G1 X73.542 Y125.943 E89.85230
G1 X73.902 Y125.408 E89.90507
G1 X74.119 Y125.118 E89.93468
G1 X74.396 Y124.798 E89.96938
G1 X74.798 Y124.396 E90.01580
G1 X75.118 Y124.119 E90.05049
G1 X75.611 Y123.753 E90.10075
G1 X75.892 Y123.574 E90.12800
G1 X76.260 Y124.081 F3600.000
G1 X76.782 Y123.801 E90.17642 F900.000
G1 X77.078 Y123.670 E90.20294
G1 X77.661 Y123.460 E90.25364
G1 X77.947 Y123.381 E90.27787
G1 X78.582 Y123.254 E90.33090
G1 X79.436 Y123.188 E90.40103
G1 X120.563 Y123.188 E93.76674
G1 X121.418 Y123.254 E93.83691 F900.000
G1 X122.054 Y123.381 E93.88992
G1 X122.605 Y123.552 E93.93718
G1 X123.217 Y123.801 E93.99125
G1 X123.740 Y124.081 E94.03976
G1 X124.197 Y124.387 E94.08477
G1 X124.490 Y124.606 E94.11470
G1 X124.776 Y124.854 E94.14573
G1 X125.146 Y125.223 E94.18849
G1 X125.394 Y125.510 E94.21955
G1 X125.731 Y125.964 E94.26577
G1 X126.081 Y126.557 E94.32213
G1 X126.330 Y127.078 E94.36941
G1 X126.540 Y127.662 E94.42016
G1 X126.691 Y128.277 E94.47198
G1 X126.779 Y128.848 E94.51927
G1 X126.812 Y129.436 E94.56748
G1 X126.812 Y170.564 E97.93324
G1 X126.746 Y171.418 E98.00339
G1 X126.619 Y172.053 E98.05637
G1 X126.540 Y172.338 E98.08057
G1 X126.330 Y172.922 E98.13133
G1 X126.107 Y173.394 E98.17407
G1 X125.919 Y173.740 E98.20626
G1 X125.731 Y174.037 E98.23503
G1 X125.394 Y174.490 E98.28122
G1 X125.146 Y174.776 E98.31228
G1 X124.776 Y175.146 E98.35503
G1 X124.490 Y175.394 E98.38607
G1 X124.037 Y175.731 E98.43226
G1 X123.443 Y176.081 E98.48868
G1 X122.922 Y176.330 E98.53593
G1 X122.338 Y176.540 E98.58670
G1 X121.723 Y176.691 E98.63852
G1 X121.152 Y176.779 E98.68581
G1 X120.564 Y176.812 E98.73403
G1 X79.209 Y176.804 E102.11839
G1 X78.581 Y176.746 E102.16994
G1 X77.946 Y176.619 E102.22295
G1 X77.394 Y176.448 E102.27022
G1 X76.782 Y176.199 E102.32435
G1 X76.261 Y175.919 E102.37274
G1 X75.964 Y175.731 E102.40148
G1 X75.510 Y175.394 E102.44774
G1 X74.994 Y174.917 E102.50527
G1 X74.606 Y174.490 E102.55253
G1 X74.269 Y174.037 E102.59870
G1 X74.081 Y173.740 E102.62749
