; generated by Slic3r 1.2.9 on 2017-09-10 at 10:02:40

; external perimeters extrusion width = 0.40mm
; perimeters extrusion width = 0.48mm
; infill extrusion width = 0.48mm
; solid infill extrusion width = 0.48mm
; top infill extrusion width = 0.48mm

M107
M190 S70 ; set bed temperature
M104 S240 ; set temperature
G21 ; set units to millimeters
G90 ; use absolute coordinates
M203 Z4; max speed min/sec
G1 Z20 F200;
G28 X F2000;
G1 X140 F2000;
G28 Y F2000;
G1 Y140 F2000;
G28 Z F200;
G1 Z5 F500 ; lift nozzle

M109 S240 ; wait for temperature to be reached
G21 ; set units to millimeters
G90 ; use absolute coordinates
M82 ; use absolute distances for extrusion
G92 E0
G1 Z0.200 F3600.000
G1 E-2.00000 F2400.00000
G92 E0
G1 X85.206 Y129.064 F3600.000
G1 E2.00000 F2400.00000
G1 X114.794 Y129.064 E4.28691 F900.000
G1 X119.736 Y134.006 E4.82706
G1 X119.736 Y165.994 E7.29946 F900.000
G1 X114.794 Y170.936 E7.83961
G1 X85.206 Y170.936 E10.12652
G1 X80.264 Y165.994 E10.66667
G1 X80.264 Y134.006 E13.13908
G1 X85.163 Y129.106 E13.67459
G1 X85.465 Y129.689 F3600.000
G1 X114.535 Y129.689 E15.92149 F900.000
G1 X119.111 Y134.265 E16.42163 F900.000
G1 X119.111 Y165.735 E18.85402
G1 X114.535 Y170.311 E19.35416
G1 X85.465 Y170.311 E21.60106
G1 X80.889 Y165.735 E22.10120
G1 X80.889 Y134.265 E24.53359
G1 X85.422 Y129.731 E25.02909
G1 X85.723 Y130.314 F3600.000
G1 X114.277 Y130.314 E27.23598 F900.000
G1 X118.486 Y134.523 E27.69611
G1 X118.486 Y165.477 E30.08849 F900.000
G1 X114.277 Y169.686 E30.54862
G1 X85.723 Y169.686 E32.75550
G1 X81.514 Y165.477 E33.21563
G1 X81.514 Y134.523 E35.60801
G1 X85.681 Y130.356 E36.06350
G1 X85.982 Y130.939 F3600.000
G1 X114.018 Y130.939 E38.23038 F900.000
G1 X117.861 Y134.782 E38.65050 F900.000
G1 X117.861 Y165.218 E41.00287
G1 X114.018 Y169.061 E41.42298
G1 X85.982 Y169.061 E43.58986
G1 X82.139 Y165.218 E44.00998
G1 X82.139 Y134.782 E46.36235
G1 X85.940 Y130.981 E46.77783
G1 X86.241 Y131.564 F3600.000
G1 X113.759 Y131.564 E48.90469 F900.000
G1 X117.236 Y135.041 E49.28480
G1 X117.236 Y164.959 E51.59716 F900.000
G1 X113.759 Y168.436 E51.97726
G1 X86.241 Y168.436 E54.10413
G1 X82.764 Y164.959 E54.48423
G1 X82.764 Y135.041 E56.79659
G1 X86.199 Y131.606 E57.17206
G1 X86.500 Y132.188 F3600.000
G1 X113.500 Y132.188 E59.25891 F900.000
G1 X116.612 Y135.300 E59.59901 F900.000
G1 X116.612 Y164.700 E61.87136
G1 X113.500 Y167.812 E62.21145
G1 X86.500 Y167.812 E64.29830
G1 X83.388 Y164.700 E64.63840
G1 X83.388 Y135.300 E66.91075
G1 X86.457 Y132.231 E67.24620
G1 X86.759 Y132.813 F3600.000
G1 X113.241 Y132.813 E69.29305 F900.000
G1 X115.987 Y135.559 E69.59313
G1 X115.987 Y164.441 E71.82547 F900.000
G1 X113.241 Y167.187 E72.12555
G1 X86.759 Y167.187 E74.17239
G1 X84.013 Y164.441 E74.47248
G1 X84.013 Y135.559 E76.70481
G1 X86.716 Y132.856 E77.00026
G1 X87.018 Y133.438 F3600.000
G1 X112.982 Y133.438 E79.00709 F900.000
G1 X115.362 Y135.818 E79.26716 F900.000
G1 X115.362 Y164.182 E81.45949
G1 X112.982 Y166.562 E81.71956
G1 X87.018 Y166.562 E83.72639
G1 X84.638 Y164.182 E83.98646
G1 X84.638 Y135.818 E86.17879
G1 X86.975 Y133.481 E86.43422
G1 X87.276 Y134.063 F3600.000
G1 X112.724 Y134.063 E88.40104 F900.000
G1 X114.737 Y136.076 E88.62110
G1 X114.737 Y163.924 E90.77342 F900.000
G1 X112.724 Y165.937 E90.99348
G1 X87.276 Y165.937 E92.96030
G1 X85.263 Y163.924 E93.18036
G1 X85.263 Y136.076 E95.33268
G1 X87.234 Y134.106 E95.54810
G1 X87.535 Y134.688 F3600.000
G1 X112.465 Y134.688 E97.47491 F900.000
G1 X114.112 Y136.335 E97.65496 F900.000
G1 X114.112 Y163.665 E99.76726
G1 X112.465 Y165.312 E99.94731
G1 X87.535 Y165.312 E101.87412
G1 X85.888 Y163.665 E102.05417
G1 X85.888 Y136.335 E104.16647
G1 X87.493 Y134.730 E104.34189
G1 X87.794 Y135.313 F3600.000
G1 X112.206 Y135.313 E106.22868 F900.000
G1 X113.487 Y136.594 E106.36872
G1 X113.487 Y163.406 E108.44102 F900.000
G1 X112.206 Y164.687 E108.58105
G1 X87.794 Y164.687 E110.46785
G1 X86.513 Y163.406 E110.60789
G1 X86.513 Y136.594 E112.68018
G1 X87.752 Y135.355 E112.81558
G1 X88.053 Y135.938 F3600.000
G1 X111.947 Y135.938 E114.66237 F900.000
G1 X112.862 Y136.853 E114.76240 F900.000
G1 X112.862 Y163.147 E116.79468
G1 X111.947 Y164.062 E116.89471
G1 X88.053 Y164.062 E118.74149
G1 X87.138 Y163.147 E118.84152
G1 X87.138 Y136.853 E120.87380
G1 X88.010 Y135.980 E120.96919
G1 X88.312 Y136.563 F3600.000
G1 X111.688 Y136.563 E122.77597 F900.000
G1 X112.237 Y137.112 E122.83598
G1 X112.237 Y162.888 E124.82825 F900.000
G1 X111.688 Y163.437 E124.88827
G1 X88.312 Y163.437 E126.69504
G1 X87.763 Y162.888 E126.75506
G1 X87.763 Y137.112 E128.74733
G1 X88.269 Y136.605 E128.80271
G1 X88.388 Y137.371 F3600.000
G1 X88.571 Y137.188 E128.82272 F900.000
G1 X111.429 Y137.188 E130.58948
G1 X111.612 Y137.371 E130.60948
G1 X111.612 Y162.629 E132.56174
G1 X111.429 Y162.812 E132.58175
G1 X88.571 Y162.812 E134.34851
G1 X88.388 Y162.629 E134.36852
G1 X88.388 Y137.431 E136.31614
G1 E134.31614 F2400.00000
G92 E0
G1 X110.950 Y162.150 F3600.000
G1 E2.00000 F2400.00000
G1 X89.050 Y162.150 E3.69265 F300.000
G1 X89.050 Y137.850 E5.57080
G1 X110.950 Y137.850 E7.26346
G1 X110.950 Y162.090 E9.13697
G1 X110.604 Y161.950 F3600.000
G1 X90.725 Y161.525 F3600.000
G1 X89.675 Y161.525 E9.21814 F600.000
G1 X89.675 Y138.475 E10.99970
G1 X90.725 Y138.475 E11.08087
G1 X90.725 Y161.465 E12.85779
G1 X106.275 Y161.525 F3600.000
G1 X106.275 Y138.475 E14.63934 F600.000
G1 X110.325 Y138.475 E14.95239
G1 X110.325 Y161.525 E16.73394
G1 X106.335 Y161.525 E17.04235
G1 X106.900 Y160.900 F3600.000
G1 X106.900 Y139.100 E18.72731 F600.000
G1 X109.700 Y139.100 E18.94375
G1 X109.700 Y160.900 E20.62871
G1 X106.960 Y160.900 E20.84052
G1 X105.650 Y160.650 F3600.000
G1 X91.350 Y160.650 E21.94577 F300.000
G1 X91.350 Y139.350 E23.59205
G1 X105.650 Y139.350 E24.69730
G1 X105.650 Y160.590 E26.33894
G1 X105.650 Y161.050 F3600.000
G1 X105.962 Y161.400 F3600.000
G1 X91.038 Y161.400 E28.78468 F600.000
G1 X90.200 Y161.213 F3600.000
G1 X90.200 Y138.787 E32.45953 F600.000
G1 X91.038 Y138.600 F3600.000
G1 X105.962 Y138.600 E34.90527 F600.000
G1 X109.384 Y139.721 F3600.000
G1 X109.079 Y139.416 E34.93957 F450.000
G1 X108.170 Y139.416 E35.01185
G1 X109.384 Y140.630 E35.14837
G1 X109.384 Y141.539 E35.22064
G1 X107.261 Y139.416 E35.45937
G1 X107.216 Y140.280 E35.52816
G1 X109.384 Y142.448 E35.77195
G1 X109.384 Y143.357 E35.84422
G1 X107.216 Y141.189 E36.08802
G1 X107.216 Y142.098 E36.16029
G1 X109.384 Y144.266 E36.40409
G1 X109.384 Y145.175 E36.47636
G1 X107.216 Y143.007 E36.72015
G1 X107.216 Y143.916 E36.79243
G1 X109.384 Y146.084 E37.03622
G1 X109.384 Y146.993 E37.10850
G1 X107.216 Y144.825 E37.35229
G1 X107.216 Y145.734 E37.42457
G1 X109.384 Y147.902 E37.66836
G1 X109.384 Y148.812 E37.74063
G1 X107.216 Y146.643 E37.98443
G1 X107.216 Y147.552 E38.05670
G1 X109.384 Y149.721 E38.30050
G1 X109.384 Y150.630 E38.37277
G1 X107.216 Y148.461 E38.61657
G1 X107.216 Y149.370 E38.68884
G1 X109.384 Y151.539 E38.93263
G1 X109.384 Y152.448 E39.00491
G1 X107.216 Y150.279 E39.24870
G1 X107.216 Y151.189 E39.32098
G1 X109.384 Y153.357 E39.56477
G1 X109.384 Y154.266 E39.63705
G1 X107.216 Y152.098 E39.88084
G1 X107.216 Y153.007 E39.95311
G1 X109.384 Y155.175 E40.19691
G1 X109.384 Y156.084 E40.26918
G1 X107.216 Y153.916 E40.51298
G1 X107.216 Y154.825 E40.58525
G1 X109.384 Y156.993 E40.82905
G1 X109.384 Y157.902 E40.90132
G1 X107.216 Y155.734 E41.14511
G1 X107.216 Y156.643 E41.21739
G1 X109.384 Y158.811 E41.46118
G1 X109.384 Y159.720 E41.53346
G1 X107.216 Y157.552 E41.77725
G1 X107.216 Y158.461 E41.84953
G1 X109.339 Y160.584 E42.08825
G1 X108.430 Y160.584 E42.16053
G1 X107.216 Y159.370 E42.29704
G1 X107.216 Y160.279 E42.36932
G1 X107.521 Y160.584 E42.40362
M104 S235 ; set temperature
M140 S80 ; wait for bed temperature to be reached
G1 Z0.500 F3600.000
G1 X105.877 Y160.877 F3600.000
G1 X91.123 Y160.877 E43.05884 F1200.000
G1 X91.123 Y139.123 E44.02492
G1 X105.877 Y139.123 E44.68014
G1 X105.877 Y160.817 E45.64355
G1 X105.500 Y160.500 F3600.000
G1 X91.500 Y160.500 E46.14169 F600.000
G1 X91.500 Y139.500 E46.88890
G1 X105.500 Y139.500 E47.38704
G1 X105.500 Y160.440 E48.13211
G1 X105.500 Y160.900 F3600.000
G1 X90.704 Y161.504 F3600.000
G1 X89.696 Y161.504 E48.17686 F1200.000
G1 X89.696 Y138.496 E49.19859
G1 X90.704 Y138.496 E49.24334
G1 X90.704 Y161.444 E50.26241
G1 X106.296 Y161.504 F3600.000
G1 X106.296 Y138.496 E51.28414 F1200.000
G1 X110.304 Y138.496 E51.46212
G1 X110.304 Y161.504 E52.48385
G1 X106.356 Y161.504 E52.65916
G1 X110.723 Y161.923 F3600.000
G1 X89.277 Y161.923 E53.61152 F1200.000
G1 X89.277 Y138.077 E54.67045
G1 X110.723 Y138.077 E55.62281
G1 X110.723 Y161.863 E56.67908
G1 X111.100 Y162.300 F3600.000
G1 X88.900 Y162.300 E57.46898 F600.000
G1 X88.900 Y137.700 E58.34428
G1 X111.100 Y137.700 E59.13419
G1 X111.100 Y162.240 E60.00735
G1 X110.754 Y162.100 F3600.000
G1 X109.881 Y161.299 F3600.000
G1 X110.099 Y161.081 E60.02118 F900.000
G1 X110.099 Y160.482 E60.04808
G1 X109.282 Y161.299 E60.09995
G1 X108.683 Y161.299 E60.12685
G1 X110.099 Y159.883 E60.21677
G1 X110.099 Y159.284 E60.24367
G1 X108.084 Y161.299 E60.37163
G1 X107.485 Y161.299 E60.39853
G1 X110.099 Y158.685 E60.56454
G1 X110.099 Y158.086 E60.59144
G1 X106.886 Y161.299 E60.79549
G1 X106.501 Y161.084 E60.81526
G1 X110.099 Y157.487 E61.04371
G1 X110.099 Y156.888 E61.07061
G1 X106.501 Y160.485 E61.29906
G1 X106.501 Y159.886 E61.32597
G1 X110.099 Y156.289 E61.55442
G1 X110.099 Y155.689 E61.58132
G1 X106.501 Y159.287 E61.80977
G1 X106.501 Y158.688 E61.83667
G1 X110.099 Y155.090 E62.06513
G1 X110.099 Y154.491 E62.09203
G1 X106.501 Y158.089 E62.32048
G1 X106.501 Y157.490 E62.34738
G1 X110.099 Y153.892 E62.57584
G1 X110.099 Y153.293 E62.60274
G1 X106.501 Y156.890 E62.83119
G1 X106.501 Y156.291 E62.85809
G1 X110.099 Y152.694 E63.08654
G1 X110.099 Y152.095 E63.11345
G1 X106.501 Y155.692 E63.34190
G1 X106.501 Y155.093 E63.36880
G1 X110.099 Y151.496 E63.59725
G1 X110.099 Y150.897 E63.62415
G1 X106.501 Y154.494 E63.85261
G1 X106.501 Y153.895 E63.87951
G1 X110.099 Y150.298 E64.10796
G1 X110.099 Y149.699 E64.13486
G1 X106.501 Y153.296 E64.36332
G1 X106.501 Y152.697 E64.39022
G1 X110.099 Y149.100 E64.61867
G1 X110.099 Y148.501 E64.64557
G1 X106.501 Y152.098 E64.87402
G1 X106.501 Y151.499 E64.90093
G1 X110.099 Y147.902 E65.12938
G1 X110.099 Y147.303 E65.15628
G1 X106.501 Y150.900 E65.38473
G1 X106.501 Y150.301 E65.41163
G1 X110.099 Y146.704 E65.64009
G1 X110.099 Y146.105 E65.66699
G1 X106.501 Y149.702 E65.89544
G1 X106.501 Y149.103 E65.92234
G1 X110.099 Y145.506 E66.15079
G1 X110.099 Y144.907 E66.17770
G1 X106.501 Y148.504 E66.40615
G1 X106.501 Y147.905 E66.43305
G1 X110.099 Y144.308 E66.66150
G1 X110.099 Y143.709 E66.68840
G1 X106.501 Y147.306 E66.91686
G1 X106.501 Y146.707 E66.94376
G1 X110.099 Y143.110 E67.17221
G1 X110.099 Y142.510 E67.19911
G1 X106.501 Y146.108 E67.42757
G1 X106.501 Y145.509 E67.45447
G1 X110.099 Y141.911 E67.68292
G1 X110.099 Y141.312 E67.70982
G1 X106.501 Y144.910 E67.93827
G1 X106.501 Y144.311 E67.96517
G1 X110.099 Y140.713 E68.19363
G1 X110.099 Y140.114 E68.22053
G1 X106.501 Y143.711 E68.44898
G1 X106.501 Y143.112 E68.47588
G1 X110.099 Y139.515 E68.70434
G1 X110.099 Y138.916 E68.73124
G1 X106.501 Y142.513 E68.95969
G1 X106.501 Y141.914 E68.98659
G1 X109.714 Y138.701 E69.19064
G1 X109.115 Y138.701 E69.21754
G1 X106.501 Y141.315 E69.38355
G1 X106.501 Y140.716 E69.41045
G1 X108.516 Y138.701 E69.53841
G1 X107.917 Y138.701 E69.56531
G1 X106.501 Y140.117 E69.65523
G1 X106.501 Y139.518 E69.68213
G1 X107.318 Y138.701 E69.73400
G1 X106.719 Y138.701 E69.76090
G1 X106.501 Y138.919 E69.77473
G1 X106.087 Y138.600 F3600.000
G1 X90.913 Y138.600 E71.22593 F1200.000
G1 X90.200 Y138.706 F3600.000
G1 X90.200 Y161.294 E73.38637 F1200.000
G1 X90.913 Y161.400 F3600.000
G1 X106.087 Y161.400 E74.83757 F1200.000
G1 Z0.800 F3600.000
G1 X105.877 Y160.877 F3600.000
G1 X91.123 Y160.877 E75.49279 F1200.000
G1 X91.123 Y139.123 E76.45887
G1 X105.877 Y139.123 E77.11409
G1 X105.877 Y160.817 E78.07750
G1 X105.500 Y160.500 F3600.000
G1 X91.500 Y160.500 E78.57564 F600.000
G1 X91.500 Y139.500 E79.32285
G1 X105.500 Y139.500 E79.82099
G1 X105.500 Y160.440 E80.56606
G1 X105.500 Y160.900 F3600.000
G1 X90.704 Y161.504 F3600.000
G1 X89.696 Y161.504 E80.61081 F1200.000
G1 X89.696 Y138.496 E81.63254
G1 X90.704 Y138.496 E81.67729
G1 X90.704 Y161.444 E82.69636
G1 X106.296 Y161.504 F3600.000
G1 X106.296 Y138.496 E83.71809 F1200.000
G1 X110.304 Y138.496 E83.89607
G1 X110.304 Y161.504 E84.91780
G1 X106.356 Y161.504 E85.09311
G1 X110.723 Y161.923 F3600.000
G1 X89.277 Y161.923 E86.04547 F1200.000
G1 X89.277 Y138.077 E87.10440
G1 X110.723 Y138.077 E88.05676
G1 X110.723 Y161.863 E89.11303
G1 X111.100 Y162.300 F3600.000
G1 X88.900 Y162.300 E89.90293 F600.000
G1 X88.900 Y137.700 E90.77823
G1 X111.100 Y137.700 E91.56814
G1 X111.100 Y162.240 E92.44130
G1 X110.754 Y162.100 F3600.000
G1 X106.719 Y161.299 F3600.000
G1 X106.501 Y161.081 E92.45513 F900.000
G1 X106.501 Y160.482 E92.48203
G1 X107.318 Y161.299 E92.53390
G1 X107.917 Y161.299 E92.56080
G1 X106.501 Y159.883 E92.65072
G1 X106.501 Y159.284 E92.67762
G1 X108.516 Y161.299 E92.80558
G1 X109.115 Y161.299 E92.83248
G1 X106.501 Y158.685 E92.99849
G1 X106.501 Y158.086 E93.02539
G1 X109.714 Y161.299 E93.22944
G1 X110.099 Y161.084 E93.24921
G1 X106.501 Y157.487 E93.47766
G1 X106.501 Y156.888 E93.50456
G1 X110.099 Y160.485 E93.73301
G1 X110.099 Y159.886 E93.75991
G1 X106.501 Y156.289 E93.98837
G1 X106.501 Y155.689 E94.01527
G1 X110.099 Y159.287 E94.24372
G1 X110.099 Y158.688 E94.27062
G1 X106.501 Y155.090 E94.49908
G1 X106.501 Y154.491 E94.52598
G1 X110.099 Y158.089 E94.75443
G1 X110.099 Y157.490 E94.78133
G1 X106.501 Y153.892 E95.00978
G1 X106.501 Y153.293 E95.03669
G1 X110.099 Y156.890 E95.26514
G1 X110.099 Y156.291 E95.29204
G1 X106.501 Y152.694 E95.52049
G1 X106.501 Y152.095 E95.54739
G1 X110.099 Y155.692 E95.77585
G1 X110.099 Y155.093 E95.80275
G1 X106.501 Y151.496 E96.03120
G1 X106.501 Y150.897 E96.05810
G1 X110.099 Y154.494 E96.28655
G1 X110.099 Y153.895 E96.31346
G1 X106.501 Y150.298 E96.54191
G1 X106.501 Y149.699 E96.56881
G1 X110.099 Y153.296 E96.79726
G1 X110.099 Y152.697 E96.82416
G1 X106.501 Y149.100 E97.05262
G1 X106.501 Y148.501 E97.07952
G1 X110.099 Y152.098 E97.30797
G1 X110.099 Y151.499 E97.33487
G1 X106.501 Y147.902 E97.56333
G1 X106.501 Y147.303 E97.59023
G1 X110.099 Y150.900 E97.81868
G1 X110.099 Y150.301 E97.84558
G1 X106.501 Y146.704 E98.07403
G1 X106.501 Y146.105 E98.10093
G1 X110.099 Y149.702 E98.32939
G1 X110.099 Y149.103 E98.35629
G1 X106.501 Y145.506 E98.58474
G1 X106.501 Y144.907 E98.61164
G1 X110.099 Y148.504 E98.84010
G1 X110.099 Y147.905 E98.86700
G1 X106.501 Y144.308 E99.09545
G1 X106.501 Y143.709 E99.12235
G1 X110.099 Y147.306 E99.35080
G1 X110.099 Y146.707 E99.37771
G1 X106.501 Y143.110 E99.60616
G1 X106.501 Y142.510 E99.63306
G1 X110.099 Y146.108 E99.86151
G1 X110.099 Y145.509 E99.88841
G1 X106.501 Y141.911 E100.11687
G1 X106.501 Y141.312 E100.14377
G1 X110.099 Y144.910 E100.37222
G1 X110.099 Y144.311 E100.39912
G1 X106.501 Y140.713 E100.62757
G1 X106.501 Y140.114 E100.65448
G1 X110.099 Y143.711 E100.88293
G1 X110.099 Y143.112 E100.90983
G1 X106.501 Y139.515 E101.13828
G1 X106.501 Y138.916 E101.16518
G1 X110.099 Y142.513 E101.39364
G1 X110.099 Y141.914 E101.42054
G1 X106.886 Y138.701 E101.62459
G1 X107.485 Y138.701 E101.65149
G1 X110.099 Y141.315 E101.81749
G1 X110.099 Y140.716 E101.84440
G1 X108.084 Y138.701 E101.97236
G1 X108.683 Y138.701 E101.99926
G1 X110.099 Y140.117 E102.08917
G1 X110.099 Y139.518 E102.11608
G1 X109.282 Y138.701 E102.16795
G1 X109.881 Y138.701 E102.19485
G1 X110.099 Y138.919 E102.20868
G1 X106.087 Y138.600 F3600.000
G1 X90.913 Y138.600 E103.65988 F1200.000
G1 X90.200 Y138.706 F3600.000
G1 X90.200 Y161.294 E105.82032 F1200.000
G1 X90.913 Y161.400 F3600.000
G1 X106.087 Y161.400 E107.27152 F1200.000
G1 Z1.100 F3600.000
G1 X105.877 Y160.877 F3600.000
G1 X91.123 Y160.877 E107.92674 F1200.000
G1 X91.123 Y139.123 E108.89282
G1 X105.877 Y139.123 E109.54804
G1 X105.877 Y160.817 E110.51145
G1 X105.500 Y160.500 F3600.000
G1 X91.500 Y160.500 E111.00959 F600.000
