; generated by Slic3r 1.2.9 on 2017-08-15 at 12:09:46

; external perimeters extrusion width = 0.40mm
; perimeters extrusion width = 0.48mm
; infill extrusion width = 0.48mm
; solid infill extrusion width = 0.48mm
; top infill extrusion width = 0.48mm

M107
M190 S70 ; set bed temperature
M104 S240 ; set temperature
G21 ; set units to millimeters
G90 ; use absolute coordinates
M203 Z4; max speed min/sec
G1 Z20 F200;
G28 X F2000;
G1 X140 F2000;
G28 Y F2000;
G1 Y140 F2000;
G28 Z F200;
G1 Z5 F500 ; lift nozzle

M109 S240 ; wait for temperature to be reached
G21 ; set units to millimeters
G90 ; use absolute coordinates
M82 ; use absolute distances for extrusion
G92 E0
G1 Z0.200 F3600.000
G1 E-2.00000 F2400.00000
G92 E0
G1 X70.856 Y134.364 F3600.000
G1 E2.00000 F2400.00000
G1 X95.267 Y134.364 E3.95337 F900.000
G1 X129.144 Y134.364 E6.66414 F900.000
G1 X134.086 Y139.306 E7.22335
G1 X134.086 Y160.694 E8.93483
G1 X129.144 Y165.636 E9.49404
G1 X70.856 Y165.636 E14.15818
G1 X65.914 Y160.694 E14.71740
G1 X65.914 Y139.306 E16.42887
G1 X70.813 Y134.406 E16.98329
G1 X71.115 Y134.989 F3600.000
G1 X74.502 Y134.989 E17.25432 F900.000
G1 X128.885 Y134.989 E21.60600 F900.000
G1 X133.461 Y139.565 E22.12380
G1 X133.461 Y160.435 E23.79385
G1 X128.885 Y165.011 E24.31164
G1 X71.115 Y165.011 E28.93436
G1 X66.539 Y160.435 E29.45215
G1 X66.539 Y139.565 E31.12220
G1 X71.072 Y135.031 E31.63519
G1 X71.373 Y135.614 F3600.000
G1 X95.267 Y135.614 E33.54714 F900.000
G1 X128.627 Y135.614 E36.21648 F900.000
G1 X132.836 Y139.823 E36.69285
G1 X132.836 Y160.177 E38.32148
G1 X128.627 Y164.386 E38.79785
G1 X71.373 Y164.386 E43.37914
G1 X67.164 Y160.177 E43.85551
G1 X67.164 Y139.823 E45.48414
G1 X71.331 Y135.656 E45.95570
G1 X71.632 Y136.239 F3600.000
G1 X74.502 Y136.239 E46.18531 F900.000
G1 X128.368 Y136.239 E50.49557 F900.000
G1 X132.211 Y140.082 E50.93052
G1 X132.211 Y159.918 E52.51772
G1 X128.368 Y163.761 E52.95267
G1 X71.632 Y163.761 E57.49254
G1 X67.789 Y159.918 E57.92748
G1 X67.789 Y140.082 E59.51469
G1 X71.590 Y136.281 E59.94483
G1 X71.891 Y136.864 F3600.000
G1 X95.267 Y136.864 E61.81536 F900.000
G1 X128.109 Y136.864 E64.44328 F900.000
G1 X131.586 Y140.341 E64.83680
G1 X131.586 Y159.659 E66.38258
G1 X128.109 Y163.136 E66.77610
G1 X71.891 Y163.136 E71.27455
G1 X68.414 Y159.659 E71.66807
G1 X68.414 Y140.341 E73.21385
G1 X71.849 Y136.906 E73.60257
G1 X72.150 Y137.488 F3600.000
G1 X74.502 Y137.488 E73.79076 F900.000
G1 X127.850 Y137.488 E78.05960 F900.000
G1 X130.962 Y140.600 E78.41169
G1 X130.962 Y159.400 E79.91605
G1 X127.850 Y162.512 E80.26815
G1 X72.150 Y162.512 E84.72517
G1 X69.038 Y159.400 E85.07727
G1 X69.038 Y140.600 E86.58163
G1 X72.107 Y137.531 E86.92893
G1 X72.409 Y138.113 F3600.000
G1 X95.267 Y138.113 E88.75803 F900.000
G1 X127.591 Y138.113 E91.34453 F900.000
G1 X130.337 Y140.859 E91.65520
G1 X130.337 Y159.141 E93.11814
G1 X127.591 Y161.887 E93.42881
G1 X72.409 Y161.887 E97.84441
G1 X69.663 Y159.141 E98.15509
G1 X69.663 Y140.859 E99.61802
G1 X72.366 Y138.156 E99.92389
G1 X72.668 Y138.738 F3600.000
G1 X74.502 Y138.738 E100.07066 F900.000
G1 X127.332 Y138.738 E104.29807 F900.000
G1 X129.712 Y141.118 E104.56732
G1 X129.712 Y158.882 E105.98883
G1 X127.332 Y161.262 E106.25809
G1 X72.668 Y161.262 E110.63226
G1 X70.288 Y158.882 E110.90151
G1 X70.288 Y141.118 E112.32302
G1 X72.625 Y138.781 E112.58748
G1 X72.926 Y139.363 F3600.000
G1 X95.267 Y139.363 E114.37516 F900.000
G1 X127.074 Y139.363 E116.92023 F900.000
G1 X129.087 Y141.376 E117.14806
G1 X129.087 Y158.624 E118.52814
G1 X127.074 Y160.637 E118.75597
G1 X72.926 Y160.637 E123.08873
G1 X70.913 Y158.624 E123.31655
G1 X70.913 Y141.376 E124.69664
G1 X72.884 Y139.406 E124.91967
G1 X73.185 Y139.988 F3600.000
G1 X74.502 Y139.988 E125.02501 F900.000
G1 X126.815 Y139.988 E129.21100 F900.000
G1 X128.462 Y141.635 E129.39740
G1 X128.462 Y158.365 E130.73607
G1 X126.815 Y160.012 E130.92247
G1 X73.185 Y160.012 E135.21380
G1 X71.538 Y158.365 E135.40021
G1 X71.538 Y141.635 E136.73887
G1 X73.143 Y140.030 E136.92048
G1 X73.444 Y140.613 F3600.000
G1 X95.267 Y140.613 E138.66673 F900.000
G1 X126.556 Y140.613 E141.17038 F900.000
G1 X127.837 Y141.894 E141.31537
G1 X127.837 Y158.106 E142.61261
G1 X126.556 Y159.387 E142.75759
G1 X73.444 Y159.387 E147.00749
G1 X72.163 Y158.106 E147.15248
G1 X72.163 Y141.894 E148.44972
G1 X73.402 Y140.655 E148.58990
G1 X73.703 Y141.238 F3600.000
G1 X74.502 Y141.238 E148.65381 F900.000
G1 X126.297 Y141.238 E152.79838 F900.000
G1 X127.212 Y142.153 E152.90194
G1 X127.212 Y157.847 E154.15776
G1 X126.297 Y158.762 E154.26132
G1 X73.703 Y158.762 E158.46980
G1 X72.788 Y157.847 E158.57336
G1 X72.788 Y142.153 E159.82918
G1 X73.660 Y141.280 E159.92793
G1 X73.962 Y141.863 F3600.000
G1 X95.267 Y141.863 E161.63277 F900.000
G1 X126.038 Y141.863 E164.09499 F900.000
G1 X126.587 Y142.412 E164.15713
G1 X126.587 Y157.588 E165.37152
G1 X126.038 Y158.137 E165.43366
G1 X73.962 Y158.137 E169.60072
G1 X73.413 Y157.588 E169.66285
G1 X73.413 Y142.412 E170.87725
G1 X73.919 Y141.905 E170.93458
G1 X74.038 Y142.671 F3600.000
G1 X74.221 Y142.488 E170.95529 F900.000
G1 X125.779 Y142.488 E175.08093
G1 X125.962 Y142.671 E175.10164
G1 X125.962 Y157.329 E176.27461
G1 X125.779 Y157.512 E176.29532
G1 X74.221 Y157.512 E180.42096
G1 X74.038 Y157.329 E180.44167
G1 X74.038 Y142.731 E181.60984
G1 E179.60984 F2400.00000
G92 E0
G1 X125.300 Y156.850 F3600.000
G1 E2.00000 F2400.00000
G1 X74.700 Y156.850 E6.04891 F300.000
G1 X74.700 Y143.150 E7.14516
G1 X125.300 Y143.150 E11.19407
G1 X125.300 Y156.790 E12.28552
G1 X124.954 Y156.650 F3600.000
G1 X124.675 Y156.225 F3600.000
G1 X75.325 Y156.225 E16.23443 F600.000
G1 X75.325 Y143.775 E17.23067
G1 X124.675 Y143.775 E21.17958
G1 X124.675 Y156.165 E22.17102
G1 X124.050 Y155.600 F3600.000
G1 X109.252 Y155.600 E23.35517 F600.000
G1 X109.252 Y144.400 E24.25141
G1 X124.050 Y144.400 E25.43557
G1 X124.050 Y155.540 E26.32701
G1 X121.344 Y151.548 F3600.000
G1 X121.114 Y151.702 E26.34915 F300.000
G1 X120.773 Y151.843 E26.37866
G1 X120.500 Y151.911 E26.40120
G1 X120.019 Y151.920 E26.43970
G1 X119.645 Y151.846 E26.47021
G1 X119.296 Y151.702 E26.50043
G1 X118.981 Y151.491 E26.53072
G1 X118.713 Y151.224 E26.56103
G1 X118.504 Y150.909 E26.59125
G1 X118.359 Y150.560 E26.62146
G1 X118.285 Y150.189 E26.65174
G1 X118.285 Y149.811 E26.68203
G1 X118.359 Y149.440 E26.71232
G1 X118.504 Y149.091 E26.74253
G1 X118.713 Y148.776 E26.77275
G1 X118.981 Y148.509 E26.80305
G1 X119.296 Y148.298 E26.83335
G1 X119.645 Y148.154 E26.86358
G1 X120.019 Y148.080 E26.89405 F300.000
G1 X120.394 Y148.080 E26.92411
G1 X120.765 Y148.154 E26.95435
G1 X121.114 Y148.298 E26.98456
G1 X121.429 Y148.509 E27.01486
G1 X121.696 Y148.776 E27.04513
G1 X121.907 Y149.091 E27.07543
G1 X122.051 Y149.440 E27.10565
G1 X122.125 Y149.811 E27.13589
G1 X122.125 Y150.189 E27.16618
G1 X122.051 Y150.560 E27.19643
G1 X121.907 Y150.909 E27.22665
G1 X121.696 Y151.224 E27.25694
G1 X121.394 Y151.515 E27.29051
G1 X121.376 Y151.823 F3600.000
G1 X121.691 Y152.068 F3600.000
G1 X121.410 Y152.256 E27.31759 F300.000
G1 X120.970 Y152.437 E27.35568
G1 X120.583 Y152.535 E27.38759
G1 X119.963 Y152.546 E27.43719
G1 X119.463 Y152.447 E27.47801
G1 X119.000 Y152.256 E27.51807
G1 X118.583 Y151.977 E27.55824
G1 X118.227 Y151.621 E27.59847
G1 X117.951 Y151.205 E27.63849
G1 X117.758 Y150.743 E27.67848
G1 X117.661 Y150.251 E27.71867
G1 X117.661 Y149.749 E27.75880
G1 X117.758 Y149.257 E27.79898
G1 X117.951 Y148.795 E27.83898
G1 X118.227 Y148.379 E27.87900
G1 X118.583 Y148.023 E27.91923
G1 X119.000 Y147.744 E27.95940
G1 X119.464 Y147.553 E27.99951
G1 X119.958 Y147.455 E28.03982 F300.000
G1 X120.456 Y147.456 E28.07968
G1 X120.947 Y147.553 E28.11974
G1 X121.410 Y147.744 E28.15980
G1 X121.827 Y148.023 E28.19997
G1 X122.182 Y148.378 E28.24011
G1 X122.461 Y148.795 E28.28027
G1 X122.652 Y149.258 E28.32033
G1 X122.749 Y149.749 E28.36041
G1 X122.749 Y150.251 E28.40055
G1 X122.652 Y150.742 E28.44062
G1 X122.461 Y151.205 E28.48069
G1 X122.182 Y151.622 E28.52085
G1 X121.827 Y151.977 E28.56099
G1 X121.741 Y152.034 E28.56927
G1 X122.038 Y152.587 F3600.000
G1 X121.705 Y152.810 E28.60129 F300.000
G1 X121.166 Y153.032 E28.64797
G1 X120.666 Y153.158 E28.68923
G1 X119.908 Y153.172 E28.74995
G1 X119.281 Y153.048 E28.80107
G1 X118.705 Y152.810 E28.85098
G1 X118.185 Y152.462 E28.90101
G1 X117.741 Y152.019 E28.95116
G1 X117.397 Y151.500 E29.00099
G1 X117.158 Y150.926 E29.05077
G1 X117.036 Y150.312 E29.10085
G1 X117.036 Y149.688 E29.15083
G1 X117.158 Y149.074 E29.20090
G1 X117.397 Y148.500 E29.25068
G1 X117.741 Y147.981 E29.30051
G1 X118.185 Y147.538 E29.35066
G1 X118.705 Y147.190 E29.40070
G1 X119.282 Y146.952 E29.45069
G1 X119.897 Y146.830 E29.50084 F300.000
G1 X120.518 Y146.831 E29.55052
G1 X121.129 Y146.952 E29.60039
G1 X121.705 Y147.190 E29.65030
G1 X122.225 Y147.538 E29.70034
G1 X122.667 Y147.980 E29.75034
G1 X123.015 Y148.500 E29.80037
G1 X123.253 Y149.076 E29.85028
G1 X123.374 Y149.688 E29.90019
G1 X123.374 Y150.312 E29.95017
G1 X123.253 Y150.924 E30.00007
G1 X123.015 Y151.500 E30.04998
G1 X122.667 Y152.020 E30.10001
G1 X122.225 Y152.462 E30.15001
G1 X122.088 Y152.554 E30.16323
G1 X116.452 Y153.586 F3600.000
G1 X114.154 Y152.302 F3600.000
G1 X113.233 Y151.619 F3600.000
G1 X108.652 Y155.739 F3600.000
G1 X91.347 Y155.739 F3600.000
G1 X90.425 Y155.278 F3600.000
G1 X90.748 Y155.600 F3600.000
G1 X75.950 Y155.600 E31.34732 F600.000
G1 X75.950 Y144.400 E32.24355
G1 X90.748 Y144.400 E33.42764
G1 X90.748 Y155.540 E34.31908
G1 X81.496 Y150.909 F3600.000
G1 X81.287 Y151.224 E34.34929 F300.000
G1 X81.019 Y151.491 E34.37960
G1 X80.704 Y151.702 E34.40990
G1 X80.355 Y151.846 E34.44011
G1 X79.984 Y151.920 E34.47036
G1 X79.606 Y151.920 E34.50065
G1 X79.235 Y151.846 E34.53090
G1 X78.886 Y151.702 E34.56112
G1 X78.571 Y151.491 E34.59141
G1 X78.304 Y151.224 E34.62168
G1 X78.093 Y150.909 E34.65198
G1 X77.949 Y150.560 E34.68220
G1 X77.875 Y150.189 E34.71245
G1 X77.875 Y149.811 E34.74273
G1 X77.949 Y149.440 E34.77298
G1 X78.093 Y149.091 E34.80320
G1 X78.304 Y148.776 E34.83349
G1 X78.571 Y148.509 E34.86377
G1 X78.886 Y148.298 E34.89406
G1 X79.235 Y148.154 E34.92430
G1 X79.609 Y148.080 E34.95477 F300.000
G1 X79.984 Y148.080 E34.98482
G1 X80.355 Y148.154 E35.01506
G1 X80.704 Y148.298 E35.04528
G1 X81.019 Y148.509 E35.07558
G1 X81.287 Y148.776 E35.10588
G1 X81.496 Y149.091 E35.13610
G1 X81.641 Y149.439 E35.16631
G1 X81.715 Y149.811 E35.19660
G1 X81.715 Y150.189 E35.22688
G1 X81.641 Y150.561 E35.25717
G1 X81.519 Y150.854 E35.28258
G1 X81.685 Y151.236 F3600.000
G1 X82.016 Y151.255 F3600.000
G1 X81.773 Y151.621 E35.31779 F300.000
G1 X81.417 Y151.977 E35.35802
G1 X81.000 Y152.256 E35.39819
G1 X80.537 Y152.447 E35.43825
G1 X80.046 Y152.544 E35.47833
G1 X79.544 Y152.544 E35.51846
G1 X79.053 Y152.447 E35.55854
G1 X78.590 Y152.256 E35.59860
G1 X78.173 Y151.977 E35.63877
G1 X77.818 Y151.622 E35.67890
G1 X77.539 Y151.205 E35.71907
G1 X77.348 Y150.742 E35.75913
G1 X77.251 Y150.251 E35.79921
G1 X77.251 Y149.749 E35.83934
G1 X77.348 Y149.258 E35.87942
G1 X77.539 Y148.795 E35.91948
G1 X77.818 Y148.378 E35.95965
G1 X78.173 Y148.023 E35.99978
G1 X78.590 Y147.744 E36.03995
G1 X79.054 Y147.553 E36.08006
G1 X79.548 Y147.455 E36.12037 F300.000
G1 X80.046 Y147.456 E36.16023
G1 X80.537 Y147.553 E36.20030
G1 X81.000 Y147.744 E36.24036
G1 X81.417 Y148.023 E36.28053
G1 X81.773 Y148.379 E36.32075
G1 X82.049 Y148.795 E36.36077
G1 X82.242 Y149.257 E36.40077
G1 X82.339 Y149.749 E36.44095
G1 X82.339 Y150.251 E36.48109
G1 X82.242 Y150.743 E36.52127
G1 X82.049 Y151.205 E36.56128
G1 X82.537 Y151.601 F3600.000
G1 X82.259 Y152.019 E36.60148 F300.000
G1 X81.815 Y152.462 E36.65163
G1 X81.295 Y152.810 E36.70167
G1 X80.719 Y153.048 E36.75157
G1 X80.107 Y153.169 E36.80148
G1 X79.483 Y153.169 E36.85146
G1 X78.871 Y153.048 E36.90136
G1 X78.295 Y152.810 E36.95127
G1 X77.775 Y152.462 E37.00131
G1 X77.333 Y152.020 E37.05131
G1 X76.985 Y151.500 E37.10134
G1 X76.747 Y150.924 E37.15125
G1 X76.626 Y150.312 E37.20116
G1 X76.626 Y149.688 E37.25113
G1 X76.747 Y149.076 E37.30104
G1 X76.985 Y148.500 E37.35095
G1 X77.333 Y147.980 E37.40099
G1 X77.775 Y147.538 E37.45098
G1 X78.295 Y147.190 E37.50102
G1 X78.872 Y146.952 E37.55101
G1 X79.487 Y146.830 E37.60116 F300.000
G1 X80.108 Y146.831 E37.65084
G1 X80.719 Y146.952 E37.70072
G1 X81.295 Y147.190 E37.75063
G1 X81.815 Y147.538 E37.80066
G1 X82.259 Y147.981 E37.85081
G1 X82.603 Y148.500 E37.90064
G1 X82.842 Y149.074 E37.95041
G1 X82.964 Y149.688 E38.00050
G1 X82.964 Y150.312 E38.05048
G1 X82.842 Y150.926 E38.10056
G1 X82.570 Y151.551 E38.15508
G1 X91.997 Y154.628 F3600.000
G1 X91.997 Y145.373 E38.89560 F300.000
G1 X108.002 Y145.373 E40.17625
G1 X108.002 Y154.628 E40.91678
G1 X92.057 Y154.628 E42.19262
G1 X91.597 Y154.628 F3600.000
G1 X91.372 Y155.253 F3600.000
G1 X91.372 Y144.748 E43.03316 F600.000
G1 X108.627 Y144.748 E44.41381
G1 X108.627 Y155.253 E45.25434
G1 X91.432 Y155.253 E46.63019
G1 X91.060 Y155.739 F3600.000
G1 X108.939 Y155.739 E48.06084 F600.000
G1 X109.873 Y155.284 F3600.000
G1 X109.568 Y154.979 E48.09575 F450.000
G1 X109.568 Y154.086 E48.16804
G1 X110.766 Y155.284 E48.30517
G1 X111.660 Y155.284 E48.37746
G1 X109.568 Y153.192 E48.61683
G1 X109.568 Y152.299 E48.68911
G1 X112.553 Y155.284 E49.03071
G1 X113.447 Y155.284 E49.10300
G1 X109.568 Y151.405 E49.54682
G1 X109.568 Y150.512 E49.61911
G1 X114.340 Y155.284 E50.16516
G1 X115.234 Y155.284 E50.23745
G1 X109.568 Y149.618 E50.88573
G1 X109.568 Y148.725 E50.95802
G1 X116.127 Y155.284 E51.70853
G1 X117.021 Y155.284 E51.78081
G1 X109.568 Y147.831 E52.63355
G1 X109.568 Y146.938 E52.70584
G1 X117.914 Y155.284 E53.66081
G1 X118.808 Y155.284 E53.73310
G1 X109.568 Y146.044 E54.79030
G1 X109.568 Y145.151 E54.86258
G1 X119.701 Y155.284 E56.02201
G1 X118.403 Y153.093 F3600.000
G1 X120.595 Y155.284 E56.27273 F450.000
G1 X121.488 Y155.284 E56.34502
G1 X119.683 Y153.479 E56.55156
G1 X120.571 Y153.474 E56.62342
G1 X122.382 Y155.284 E56.83057
G1 X123.275 Y155.284 E56.90286
G1 X121.276 Y153.285 E57.13158
G1 X121.890 Y153.005 E57.18614
G1 X123.734 Y154.849 E57.39718
G1 X123.734 Y153.956 E57.46946
G1 X122.418 Y152.639 E57.62009
G1 X123.337 Y152.665 E57.69449
G1 X123.734 Y153.062 E57.73994
G1 X117.115 Y151.804 F3600.000
G1 X110.027 Y144.716 E58.55091 F450.000
G1 X110.920 Y144.716 E58.62319
G1 X116.726 Y150.522 E59.28749
G1 X116.745 Y149.647 E59.35825
G1 X111.814 Y144.716 E59.92250
G1 X112.707 Y144.716 E59.99479
G1 X116.920 Y148.929 E60.47680
G1 X117.201 Y148.316 E60.53132
G1 X113.601 Y144.716 E60.94324
G1 X114.494 Y144.716 E61.01552
G1 X117.566 Y147.787 E61.36695
G1 X118.012 Y147.341 E61.41806
G1 X115.388 Y144.716 E61.71837
G1 X116.281 Y144.716 E61.79066
G1 X118.544 Y146.979 E62.04961
G1 X119.162 Y146.703 E62.10433
G1 X117.175 Y144.716 E62.33173
G1 X118.068 Y144.716 E62.40401
G1 X119.886 Y146.534 E62.61203
G1 X120.777 Y146.531 E62.68407
G1 X118.962 Y144.716 E62.89174
G1 X119.855 Y144.716 E62.96403
G1 X122.093 Y146.954 E63.22007
G1 X123.357 Y147.324 E63.32665
G1 X120.749 Y144.716 E63.62510
G1 X121.642 Y144.716 E63.69738
G1 X123.734 Y146.808 E63.93675
G1 X123.734 Y145.914 E64.00904
G1 X122.536 Y144.716 E64.14618
G1 X123.429 Y144.716 E64.21846
G1 X123.734 Y145.021 E64.25337
G1 X123.032 Y147.930 F3600.000
G1 X123.348 Y148.314 E64.29317 F600.000
G1 X123.587 Y148.671 E64.32752
G1 X123.645 Y148.967 E64.35165
G1 X123.712 Y149.657 E64.40714
G1 X123.712 Y150.348 E64.46245
G1 X123.645 Y151.033 E64.51753
G1 X123.587 Y151.329 E64.54166
G1 X123.348 Y151.686 E64.57602
G1 X123.032 Y152.070 E64.61581
G1 X116.452 Y153.586 F3600.000
G1 X113.233 Y151.619 F3600.000
G1 X113.148 Y149.540 F3600.000
G1 X113.233 Y148.381 F3600.000
G1 X109.575 Y144.723 F3600.000
G1 X108.652 Y144.262 F3600.000
G1 X108.939 Y144.262 F3600.000
G1 X91.060 Y144.262 E66.04646 F600.000
G1 X90.431 Y145.021 F3600.000
G1 X90.126 Y144.716 E66.08137 F450.000
G1 X89.233 Y144.716 E66.15365
G1 X90.431 Y145.914 E66.29078
G1 X90.431 Y146.808 E66.36306
G1 X88.339 Y144.716 E66.60241
G1 X87.446 Y144.716 E66.67469
G1 X90.431 Y147.701 E67.01627
G1 X90.431 Y148.595 E67.08855
G1 X86.552 Y144.716 E67.53234
G1 X85.659 Y144.716 E67.60462
