; generated by Slic3r 1.2.9 on 2017-08-14 at 08:05:07

; external perimeters extrusion width = 0.40mm
; perimeters extrusion width = 0.48mm
; infill extrusion width = 0.48mm
; solid infill extrusion width = 0.48mm
; top infill extrusion width = 0.48mm

M107
M190 S70 ; set bed temperature
M104 S240 ; set temperature
G21 ; set units to millimeters
G90 ; use absolute coordinates
M203 Z4; max speed min/sec
G1 Z20 F200;
G28 X F2000;
G1 X140 F2000;
G28 Y F2000;
G1 Y140 F2000;
G28 Z F200;
G1 Z5 F500 ; lift nozzle

M109 S240 ; wait for temperature to be reached
G21 ; set units to millimeters
G90 ; use absolute coordinates
M82 ; use absolute distances for extrusion
G92 E0
G1 Z0.200 F3600.000
G1 E-2.00000 F2400.00000
G92 E0
G1 X88.506 Y117.329 F3600.000
G1 E2.00000 F2400.00000
G1 X111.494 Y117.329 E3.83950 F900.000
G1 X116.436 Y122.270 E4.39872
G1 X116.436 Y177.730 E8.83644 F900.000
G1 X111.494 Y182.671 E9.39565
G1 X88.506 Y182.671 E11.23516
G1 X83.564 Y177.730 E11.79437
G1 X83.564 Y122.270 E16.23209
G1 X88.463 Y117.371 E16.78651
G1 X88.765 Y117.954 F3600.000
G1 X111.235 Y117.954 E18.58459 F900.000
G1 X115.811 Y122.529 E19.10238 F900.000
G1 X115.811 Y130.924 E19.77413
G1 X115.811 Y177.471 E23.49868
G1 X111.235 Y182.046 E24.01647
G1 X88.765 Y182.046 E25.81455
G1 X84.189 Y177.471 E26.33234
G1 X84.189 Y122.529 E30.72864
G1 X88.722 Y117.996 E31.24163
G1 X89.023 Y118.579 F3600.000
G1 X110.977 Y118.579 E32.99829 F900.000
G1 X115.186 Y122.788 E33.47465
G1 X115.186 Y177.212 E37.82953 F900.000
G1 X110.977 Y181.421 E38.30590
G1 X89.023 Y181.421 E40.06255
G1 X84.814 Y177.212 E40.53892
G1 X84.814 Y122.788 E44.89380
G1 X88.981 Y118.621 E45.36536
G1 X89.282 Y119.203 F3600.000
G1 X110.718 Y119.203 E47.08060 F900.000
G1 X114.561 Y123.047 E47.51554 F900.000
G1 X114.561 Y130.924 E48.14587
G1 X114.561 Y176.953 E51.82899
G1 X110.718 Y180.797 E52.26394
G1 X89.282 Y180.797 E53.97917
G1 X85.439 Y176.953 E54.41412
G1 X85.439 Y123.047 E58.72757
G1 X89.240 Y119.246 E59.15771
G1 X89.541 Y119.828 F3600.000
G1 X110.459 Y119.828 E60.83152 F900.000
G1 X113.936 Y123.306 E61.22504
G1 X113.936 Y176.694 E65.49707 F900.000
G1 X110.459 Y180.172 E65.89059
G1 X89.541 Y180.172 E67.56440
G1 X86.064 Y176.694 E67.95792
G1 X86.064 Y123.306 E72.22995
G1 X89.499 Y119.871 E72.61867
G1 X89.800 Y120.453 F3600.000
G1 X110.200 Y120.453 E74.25106 F900.000
G1 X113.312 Y123.565 E74.60316 F900.000
G1 X113.312 Y130.924 E75.19206
G1 X113.312 Y176.435 E78.83376
G1 X110.200 Y179.547 E79.18586
G1 X89.800 Y179.547 E80.81825
G1 X86.688 Y176.435 E81.17035
G1 X86.688 Y123.565 E85.40095
G1 X89.757 Y120.496 E85.74825
G1 X90.059 Y121.078 F3600.000
G1 X109.941 Y121.078 E87.33921 F900.000
G1 X112.687 Y123.824 E87.64989
G1 X112.687 Y176.176 E91.83907 F900.000
G1 X109.941 Y178.922 E92.14974
G1 X90.059 Y178.922 E93.74070
G1 X87.313 Y176.176 E94.05138
G1 X87.313 Y123.824 E98.24056
G1 X90.016 Y121.121 E98.54643
G1 X90.318 Y121.703 F3600.000
G1 X109.682 Y121.703 E100.09597 F900.000
G1 X112.062 Y124.082 E100.36523 F900.000
G1 X112.062 Y130.924 E100.91270
G1 X112.062 Y175.918 E104.51298
G1 X109.682 Y178.297 E104.78224
G1 X90.318 Y178.297 E106.33178
G1 X87.938 Y175.918 E106.60103
G1 X87.938 Y124.082 E110.74878
G1 X90.275 Y121.745 E111.01324
G1 X90.576 Y122.328 F3600.000
G1 X109.424 Y122.328 E112.52135 F900.000
G1 X111.437 Y124.341 E112.74918
G1 X111.437 Y175.659 E116.85551 F900.000
G1 X109.424 Y177.672 E117.08334
G1 X90.576 Y177.672 E118.59146
G1 X88.563 Y175.659 E118.81929
G1 X88.563 Y124.341 E122.92562
G1 X90.534 Y122.370 E123.14865
G1 X90.835 Y122.953 F3600.000
G1 X109.165 Y122.953 E124.61534 F900.000
G1 X110.812 Y124.600 E124.80175 F900.000
G1 X110.812 Y130.924 E125.30780
G1 X110.812 Y175.400 E128.86666
G1 X109.165 Y177.047 E129.05306
G1 X90.835 Y177.047 E130.51976
G1 X89.188 Y175.400 E130.70616
G1 X89.188 Y124.600 E134.77107
G1 X90.793 Y122.995 E134.95268
G1 X91.094 Y123.578 F3600.000
G1 X108.906 Y123.578 E136.37795 F900.000
G1 X110.187 Y124.859 E136.52293
G1 X110.187 Y175.141 E140.54642 F900.000
G1 X108.906 Y176.422 E140.69140
G1 X91.094 Y176.422 E142.11667
G1 X89.813 Y175.141 E142.26165
G1 X89.813 Y124.859 E146.28514
G1 X91.052 Y123.620 E146.42532
G1 X91.353 Y124.203 F3600.000
G1 X108.647 Y124.203 E147.80916 F900.000
G1 X109.562 Y125.118 E147.91272 F900.000
G1 X109.562 Y130.924 E148.37735
G1 X109.562 Y174.882 E151.89479
G1 X108.647 Y175.797 E151.99835
G1 X91.353 Y175.797 E153.38219
G1 X90.438 Y174.882 E153.48575
G1 X90.438 Y125.118 E157.46782
G1 X91.310 Y124.245 E157.56657
G1 X91.612 Y124.827 F3600.000
G1 X108.388 Y124.827 E158.90900 F900.000
G1 X108.937 Y125.377 E158.97113
G1 X108.937 Y174.623 E162.91177 F900.000
G1 X108.388 Y175.173 E162.97391
G1 X91.612 Y175.173 E164.31633
G1 X91.063 Y174.623 E164.37847
G1 X91.063 Y125.377 E168.31911
G1 X91.569 Y124.870 E168.37644
G1 X91.688 Y125.635 F3600.000
G1 X91.871 Y125.452 E168.39715 F900.000
G1 X108.129 Y125.452 E169.69815
G1 X108.312 Y125.635 E169.71886
G1 X108.312 Y174.365 E173.61808
G1 X108.129 Y174.548 E173.63879
G1 X91.871 Y174.548 E174.93979
G1 X91.688 Y174.365 E174.96050
G1 X91.688 Y125.695 E178.85492
G1 E176.85492 F2400.00000
G92 E0
G1 X107.650 Y173.885 F3600.000
G1 E2.00000 F2400.00000
G1 X92.350 Y173.885 E3.22428 F300.000
G1 X92.350 Y156.957 E4.57881
G1 X92.651 Y156.897 E4.60340
G1 X92.781 Y157.208 E4.63037
G1 X92.996 Y157.530 E4.66132
G1 X93.270 Y157.805 E4.69239
G1 X93.593 Y158.020 E4.72349
G1 X93.950 Y158.168 E4.75442
G1 X94.331 Y158.245 E4.78549
G1 X94.720 Y158.245 E4.81660
G1 X95.100 Y158.168 E4.84766
G1 X95.459 Y158.020 E4.87868
G1 X95.781 Y157.805 E4.90971
G1 X96.056 Y157.530 E4.94080
G1 X96.271 Y157.208 E4.97183
G1 X96.419 Y156.849 E5.00285
G1 X96.496 Y156.470 E5.03382
G1 X96.496 Y156.080 E5.06503
G1 X96.419 Y155.701 E5.09601
G1 X96.271 Y155.342 E5.12702
G1 X96.056 Y155.020 E5.15805
G1 X95.781 Y154.745 E5.18915
G1 X95.459 Y154.530 E5.22017
G1 X95.100 Y154.382 E5.25120
G1 X94.723 Y154.306 E5.28204
G1 X94.413 Y154.301 E5.30679
G1 X93.955 Y154.380 E5.34399
G1 X93.593 Y154.530 E5.37532
G1 X93.270 Y154.745 E5.40642
G1 X92.996 Y155.020 E5.43749
G1 X92.781 Y155.342 E5.46844
G1 X92.651 Y155.653 E5.49541
G1 X92.350 Y155.593 E5.52000
G1 X92.350 Y137.736 E6.94888
G1 X92.633 Y137.664 E6.97227
G1 X92.881 Y138.124 E7.01407
G1 X93.126 Y138.425 E7.04511
G1 X93.427 Y138.670 E7.07615
G1 X93.768 Y138.854 E7.10719
G1 X94.140 Y138.966 E7.13825
G1 X94.526 Y139.004 E7.16930
G1 X94.911 Y138.966 E7.20025
G1 X95.284 Y138.854 E7.23138
G1 X95.625 Y138.670 E7.26243
G1 X95.926 Y138.425 E7.29347
G1 X96.171 Y138.124 E7.32452
G1 X96.355 Y137.783 E7.35557
G1 X96.467 Y137.410 E7.38669
G1 X96.505 Y137.025 E7.41765
G1 X96.467 Y136.639 E7.44870
G1 X96.355 Y136.267 E7.47975
G1 X96.171 Y135.926 E7.51080
G1 X95.926 Y135.625 E7.54184
G1 X95.625 Y135.380 E7.57288
G1 X95.284 Y135.196 E7.60393
G1 X94.911 Y135.084 E7.63509
G1 X94.513 Y135.046 E7.66705
G1 X94.139 Y135.084 E7.69714
G1 X93.768 Y135.196 E7.72812
G1 X93.427 Y135.380 E7.75917
G1 X93.126 Y135.625 E7.79021
G1 X92.881 Y135.926 E7.82125
G1 X92.633 Y136.386 E7.86305
G1 X92.350 Y136.314 E7.88643
G1 X92.350 Y126.115 E8.70258
G1 X107.650 Y126.115 E9.92686
G1 X107.650 Y173.825 E13.74455
G1 X107.304 Y173.685 F3600.000
G1 X107.025 Y173.260 F3600.000
G1 X92.975 Y173.260 E14.86882 F600.000
G1 X92.975 Y166.475 E15.41178
G1 X107.025 Y166.475 E16.53605
G1 X107.025 Y173.200 E17.07421
G1 X106.400 Y172.635 F3600.000
G1 X93.600 Y172.635 E18.09847 F300.000
G1 X93.600 Y167.100 E18.54142
G1 X106.400 Y167.100 E19.56569
G1 X106.400 Y172.575 E20.00384
G1 X107.025 Y160.525 F3600.000
G1 X92.975 Y160.525 E21.12811 F600.000
G1 X92.975 Y158.359 E21.30142
G1 X93.298 Y158.574 E21.33246
G1 X93.767 Y158.769 E21.37313
G1 X94.269 Y158.870 E21.41407
G1 X94.782 Y158.870 E21.45514
G1 X95.283 Y158.769 E21.49604
G1 X95.754 Y158.574 E21.53685
G1 X96.179 Y158.290 E21.57774
G1 X96.541 Y157.928 E21.61869
G1 X96.825 Y157.503 E21.65958
G1 X97.020 Y157.032 E21.70037
G1 X97.121 Y156.532 E21.74119
G1 X97.121 Y156.018 E21.78238
G1 X97.020 Y155.518 E21.82320
G1 X96.825 Y155.047 E21.86399
G1 X96.541 Y154.622 E21.90488
G1 X96.179 Y154.260 E21.94583
G1 X95.754 Y153.976 E21.98672
G1 X95.283 Y153.781 E22.02754
G1 X94.789 Y153.682 E22.06783
G1 X94.365 Y153.675 E22.10183
G1 X93.780 Y153.776 E22.14929
G1 X93.298 Y153.976 E22.19107
G1 X92.975 Y154.191 E22.22211
G1 X92.975 Y139.137 E23.42668
G1 X93.528 Y139.434 E23.47690
G1 X94.018 Y139.582 E23.51789
G1 X94.526 Y139.632 E23.55873
G1 X95.033 Y139.582 E23.59945
G1 X95.524 Y139.434 E23.64050
G1 X95.974 Y139.192 E23.68142
G1 X96.370 Y138.869 E23.72230
G1 X96.693 Y138.473 E23.76318
G1 X96.935 Y138.023 E23.80410
G1 X97.083 Y137.532 E23.84515
G1 X97.133 Y137.025 E23.88587
G1 X97.083 Y136.517 E23.92671
G1 X96.935 Y136.027 E23.96770
G1 X96.693 Y135.577 E24.00858
G1 X96.370 Y135.181 E24.04946
G1 X95.974 Y134.858 E24.09034
G1 X95.524 Y134.616 E24.13126
G1 X95.032 Y134.468 E24.17240
G1 X94.511 Y134.418 E24.21424
G1 X94.016 Y134.469 E24.25407
G1 X93.528 Y134.616 E24.29486
G1 X92.975 Y134.913 E24.34508
G1 X92.975 Y126.740 E24.99910
G1 X107.025 Y126.740 E26.12337
G1 X107.025 Y160.465 E28.82201
G1 X104.600 Y158.100 F3600.000
G1 X104.600 Y137.900 E30.43834 F600.000
G1 X97.625 Y137.900 E30.99647
G1 X97.699 Y137.653 E31.01712
G1 X97.760 Y137.025 E31.06760
G1 X97.699 Y136.395 E31.11823
G1 X97.515 Y135.786 E31.16915
G1 X97.215 Y135.228 E31.21988
G1 X96.814 Y134.737 E31.27060
G1 X96.323 Y134.336 E31.32131
G1 X95.764 Y134.035 E31.37210
G1 X95.152 Y133.851 E31.42322
G1 X94.509 Y133.790 E31.47495
G1 X93.893 Y133.853 E31.52452
G1 X93.600 Y133.941 E31.54899
G1 X93.600 Y127.365 E32.07526
G1 X106.400 Y127.365 E33.09953
G1 X106.400 Y159.900 E35.70297
G1 X93.600 Y159.900 E36.72723
G1 X93.600 Y159.373 E36.76945
G1 X94.207 Y159.495 E36.81898
G1 X94.844 Y159.495 E36.87002
G1 X95.466 Y159.370 E36.92074
G1 X96.050 Y159.128 E36.97134
G1 X96.578 Y158.776 E37.02210
G1 X97.027 Y158.327 E37.07291
G1 X97.178 Y158.100 E37.09475
G1 X104.540 Y158.100 E37.68380
G1 X97.482 Y158.307 F3600.000
G1 X97.577 Y156.294 F3600.000
G1 X97.507 Y155.351 F3600.000
G1 X97.392 Y154.771 F3600.000
G1 X97.307 Y154.459 F3600.000
G1 X97.285 Y154.389 F3600.000
G1 X97.400 Y154.303 F3600.000
G1 X97.134 Y154.384 E37.70605 F300.000
G1 X97.027 Y154.223 E37.72152
G1 X96.578 Y153.774 E37.77233
G1 X96.050 Y153.422 E37.82308
G1 X95.466 Y153.180 E37.87369
G1 X94.856 Y153.058 E37.92343
G1 X94.316 Y153.049 E37.96669
G1 X93.600 Y153.173 E38.02483
G1 X93.600 Y140.109 E39.07021
G1 X93.896 Y140.198 E39.09500
G1 X94.526 Y140.259 E39.14564
G1 X95.154 Y140.198 E39.19611
G1 X95.764 Y140.015 E39.24709
G1 X96.323 Y139.714 E39.29788
G1 X96.814 Y139.313 E39.34859
G1 X97.400 Y138.596 E39.42271
G1 X97.400 Y154.243 E40.67478
G1 X98.650 Y156.850 F3600.000
G1 X98.650 Y139.150 E42.09110 F300.000
G1 X103.350 Y139.150 E42.46719
G1 X103.350 Y156.850 E43.88351
G1 X98.710 Y156.850 E44.25479
G1 X98.250 Y156.850 F3600.000
G1 X98.025 Y157.475 F3600.000
G1 X98.025 Y138.525 E45.77111 F600.000
G1 X103.975 Y138.525 E46.24720
G1 X103.975 Y157.475 E47.76353
G1 X98.085 Y157.475 E48.23482
G1 X93.650 Y161.150 F3600.000
G1 X106.350 Y161.150 E49.25104 F300.000
G1 X106.350 Y165.850 E49.62713
G1 X93.650 Y165.850 E50.64336
G1 X93.650 Y161.210 E51.01464
G1 X93.650 Y160.750 F3600.000
G1 X93.000 Y160.838 F3600.000
G1 X93.000 Y166.162 E51.91803 F600.000
G1 X93.916 Y172.014 F3600.000
G1 X94.221 Y172.319 E51.95376 F450.000
G1 X95.136 Y172.319 E52.02949
G1 X93.916 Y171.100 E52.17231
G1 X93.916 Y170.185 E52.24804
G1 X96.050 Y172.319 E52.49797
G1 X96.965 Y172.319 E52.57370
G1 X93.916 Y169.271 E52.93072
G1 X93.916 Y168.356 E53.00645
G1 X97.879 Y172.319 E53.47057
G1 X98.794 Y172.319 E53.54630
G1 X93.923 Y167.449 E54.11668
G1 X94.805 Y167.416 E54.18974
G1 X99.708 Y172.319 E54.76397
G1 X100.623 Y172.319 E54.83970
G1 X95.719 Y167.416 E55.41393
G1 X96.634 Y167.416 E55.48966
G1 X101.537 Y172.319 E56.06389
G1 X102.452 Y172.319 E56.13962
G1 X97.548 Y167.416 E56.71385
G1 X98.463 Y167.416 E56.78958
G1 X103.366 Y172.319 E57.36381
G1 X104.281 Y172.319 E57.43954
G1 X99.377 Y167.416 E58.01377
G1 X100.292 Y167.416 E58.08950
G1 X105.195 Y172.319 E58.66373
G1 X106.077 Y172.286 E58.73679
G1 X101.206 Y167.416 E59.30717
G1 X102.121 Y167.416 E59.38290
G1 X106.084 Y171.379 E59.84702
G1 X106.084 Y170.465 E59.92275
G1 X103.035 Y167.416 E60.27978
G1 X103.950 Y167.416 E60.35551
G1 X106.084 Y169.550 E60.60543
G1 X106.084 Y168.636 E60.68116
G1 X104.864 Y167.416 E60.82399
G1 X105.779 Y167.416 E60.89972
G1 X106.084 Y167.721 E60.93545
G1 X107.000 Y166.162 F3600.000
G1 X107.000 Y160.838 E61.83884 F600.000
G1 X97.392 Y157.787 F3600.000
G1 X97.514 Y157.163 E61.88973 F600.000
G1 X97.573 Y156.564 E61.93792
G1 X97.573 Y155.986 E61.98412
G1 X97.509 Y155.348 E62.03544
G1 X97.368 Y154.640 E62.09325
G1 X96.563 Y153.269 F3600.000
G1 X93.916 Y150.622 E62.40543 F450.000
G1 X93.916 Y149.701 E62.48224
G1 X97.084 Y152.869 E62.85591
G1 X97.084 Y151.948 E62.93272
G1 X93.916 Y148.780 E63.30638
G1 X93.916 Y147.859 E63.38319
G1 X97.084 Y151.027 E63.75686
G1 X97.084 Y150.106 E63.83367
G1 X93.916 Y146.938 E64.20734
G1 X93.916 Y146.017 E64.28415
G1 X97.084 Y149.185 E64.65781
G1 X97.084 Y148.264 E64.73462
G1 X93.916 Y145.096 E65.10829
G1 X93.916 Y144.175 E65.18510
G1 X97.084 Y147.343 E65.55876
G1 X97.084 Y146.422 E65.63557
G1 X93.916 Y143.254 E66.00924
G1 X93.916 Y142.333 E66.08605
G1 X97.084 Y145.501 E66.45971
G1 X97.084 Y144.580 E66.53653
G1 X93.916 Y141.412 E66.91019
G1 X93.961 Y140.535 E66.98335
G1 X97.084 Y143.659 E67.35172
G1 X97.084 Y142.738 E67.42853
G1 X94.877 Y140.530 E67.68886
G1 X95.621 Y140.354 E67.75266
G1 X97.084 Y141.817 E67.92521
G1 X97.084 Y140.896 E68.00202
G1 X96.248 Y140.060 E68.10059
G1 X96.785 Y139.675 E68.15563
G1 X97.084 Y139.975 E68.19094
G1 X95.135 Y152.762 F3600.000
G1 X93.916 Y151.543 E68.33471 F450.000
G1 X93.916 Y152.464 E68.41152
G1 X94.218 Y152.766 E68.44719
G1 X97.463 Y155.091 F3600.000
G1 X97.455 Y157.500 F3600.000
G1 X97.666 Y158.981 F3600.000
G1 X96.916 Y159.284 F3600.000
G1 X96.550 Y159.402 F3600.000
G1 X96.294 Y159.473 F3600.000
G1 X96.293 Y159.285 F3600.000
G1 X96.592 Y159.584 E68.48145 F450.000
G1 X97.485 Y159.584 E68.55370
G1 X96.812 Y158.911 E68.63072
G1 X97.255 Y158.461 E68.68181
G1 X98.379 Y159.584 E68.81028
G1 X99.272 Y159.584 E68.88253
G1 X98.104 Y158.416 E69.01616
G1 X98.997 Y158.416 E69.08841
G1 X100.165 Y159.584 E69.22204
G1 X101.058 Y159.584 E69.29429
G1 X99.890 Y158.416 E69.42792
G1 X100.783 Y158.416 E69.50017
G1 X101.952 Y159.584 E69.63381
G1 X102.845 Y159.584 E69.70606
G1 X101.677 Y158.416 E69.83969
G1 X102.570 Y158.416 E69.91194
G1 X103.738 Y159.584 E70.04557
G1 X104.632 Y159.584 E70.11782
G1 X103.463 Y158.416 E70.25145
G1 X104.357 Y158.416 E70.32370
G1 X105.525 Y159.584 E70.45733
G1 X106.084 Y159.250 E70.51002
G1 X104.916 Y158.082 E70.64365
G1 X104.916 Y157.189 E70.71590
G1 X106.084 Y158.357 E70.84953
G1 X106.084 Y157.464 E70.92178
G1 X104.916 Y156.295 E71.05542
G1 X104.916 Y155.402 E71.12766
G1 X106.084 Y156.570 E71.26130
G1 X106.084 Y155.677 E71.33355
G1 X104.916 Y154.509 E71.46718
G1 X104.916 Y153.616 E71.53943
G1 X106.084 Y154.784 E71.67306
G1 X106.084 Y153.891 E71.74531
G1 X104.916 Y152.722 E71.87894
G1 X104.916 Y151.829 E71.95119
G1 X106.084 Y152.997 E72.08482
G1 X106.084 Y152.104 E72.15707
G1 X104.916 Y150.936 E72.29070
G1 X104.916 Y150.043 E72.36295
G1 X106.084 Y151.211 E72.49658
G1 X106.084 Y150.318 E72.56883
G1 X104.916 Y149.149 E72.70246
G1 X104.916 Y148.256 E72.77471
G1 X106.084 Y149.424 E72.90835
G1 X106.084 Y148.531 E72.98059
G1 X104.916 Y147.363 E73.11423
G1 X104.916 Y146.469 E73.18648
G1 X106.084 Y147.638 E73.32011
G1 X106.084 Y146.744 E73.39236
G1 X104.916 Y145.576 E73.52599
G1 X104.916 Y144.683 E73.59824
G1 X106.084 Y145.851 E73.73187
G1 X106.084 Y144.958 E73.80412
G1 X104.916 Y143.790 E73.93775
G1 X104.916 Y142.896 E74.01000
G1 X106.084 Y144.065 E74.14363
G1 X106.084 Y143.171 E74.21588
G1 X104.916 Y142.003 E74.34951
G1 X104.916 Y141.110 E74.42176
G1 X106.084 Y142.278 E74.55539
G1 X106.084 Y141.385 E74.62764
G1 X104.916 Y140.217 E74.76128
G1 X104.916 Y139.323 E74.83352
G1 X106.084 Y140.492 E74.96716
