; generated by Slic3r 1.2.9 on 2017-08-11 at 22:06:09

; external perimeters extrusion width = 0.40mm
; perimeters extrusion width = 0.48mm
; infill extrusion width = 0.48mm
; solid infill extrusion width = 0.48mm
; top infill extrusion width = 0.48mm

M107
M190 S70 ; set bed temperature
M104 S240 ; set temperature
G21 ; set units to millimeters
G90 ; use absolute coordinates
M203 Z4; max speed min/sec
G1 Z20 F200;
G28 X F2000;
G1 X140 F2000;
G28 Y F2000;
G1 Y140 F2000;
G28 Z F200;
G1 Z5 F500 ; lift nozzle

M109 S240 ; wait for temperature to be reached
G21 ; set units to millimeters
G90 ; use absolute coordinates
M82 ; use absolute distances for extrusion
G92 E0
G1 Z0.200 F3600.000
G1 E-2.00000 F2400.00000
G92 E0
G1 X85.644 Y118.705 F3600.000
G1 E2.00000 F2400.00000
G1 X87.008 Y117.723 E2.13758 F900.000
G1 X88.515 Y117.036 E2.27312
G1 X90.032 Y116.678 E2.40067
G1 X91.005 Y116.565 E2.48077
G1 X108.993 Y116.565 E3.95292
G1 X109.962 Y116.677 E4.03269
G1 X111.479 Y117.034 E4.16025 F900.000
G1 X112.992 Y117.723 E4.29626
G1 X114.361 Y118.708 E4.43432
G1 X115.196 Y119.500 E4.52850
G1 X116.003 Y120.510 E4.63429
G1 X116.414 Y121.127 E4.69501
G1 X116.920 Y122.057 E4.78160
G1 X117.147 Y122.545 E4.82564
G1 X117.494 Y123.435 E4.90381
G1 X117.619 Y123.806 E4.93588
G1 X117.871 Y124.688 E5.01096
G1 X118.130 Y125.898 E5.11223
G1 X118.300 Y127.062 E5.20847
G1 X118.412 Y128.451 E5.32251
G1 X118.436 Y129.430 E5.40266
G1 X118.436 Y178.493 E9.41784
G1 X113.494 Y183.435 E9.98977
G1 X86.506 Y183.435 E12.19843
G1 X81.564 Y178.493 E12.77035
G1 X81.564 Y129.430 E16.78554
G1 X81.600 Y128.222 E16.88442
G1 X81.674 Y127.302 E16.95993
G1 X81.825 Y126.161 E17.05418
G1 X82.051 Y125.007 E17.15039
G1 X82.381 Y123.806 E17.25231
G1 X82.506 Y123.435 E17.28437
G1 X82.853 Y122.545 E17.36255
G1 X83.080 Y122.056 E17.40660
G1 X83.588 Y121.123 E17.49358
G1 X84.005 Y120.498 E17.55508
G1 X84.815 Y119.490 E17.66089
G1 X85.600 Y118.746 E17.74939
G1 X86.043 Y119.188 F3600.000
G1 X87.323 Y118.267 E17.87848 F900.000
G1 X88.719 Y117.630 E18.00398
G1 X90.141 Y117.295 E18.12353
G1 X91.041 Y117.190 E18.19771
G1 X108.957 Y117.190 E19.66393
G1 X109.854 Y117.294 E19.73779 F900.000
G1 X111.276 Y117.628 E19.85736
G1 X112.677 Y118.266 E19.98330
G1 X113.962 Y119.190 E20.11283
G1 X114.734 Y119.924 E20.20004
G1 X115.498 Y120.879 E20.30009
G1 X115.878 Y121.451 E20.35630
G1 X116.362 Y122.338 E20.43902
G1 X116.572 Y122.790 E20.47980
G1 X117.022 Y123.992 E20.58482
G1 X117.267 Y124.848 E20.65771
G1 X117.516 Y126.013 E20.75519
G1 X117.680 Y127.139 E20.84828
G1 X117.777 Y128.263 E20.94063
G1 X117.811 Y129.434 E21.03649
G1 X117.811 Y178.234 E25.03017
G1 X113.235 Y182.810 E25.55973
G1 X86.765 Y182.810 E27.72602
G1 X82.189 Y178.234 E28.25558
G1 X82.189 Y129.434 E32.24926
G1 X82.223 Y128.264 E32.34507
G1 X82.296 Y127.361 E32.41914
G1 X82.443 Y126.256 E32.51039
G1 X82.661 Y125.143 E32.60319
G1 X82.978 Y123.992 E32.70093
G1 X83.428 Y122.790 E32.80596
G1 X83.638 Y122.338 E32.84674
G1 X84.124 Y121.447 E32.92981
G1 X84.510 Y120.868 E32.98675
G1 X85.276 Y119.915 E33.08682
G1 X85.999 Y119.229 E33.16841
G1 X86.442 Y119.670 F3600.000
G1 X87.638 Y118.810 E33.28901 F900.000
G1 X88.922 Y118.224 E33.40447
G1 X90.249 Y117.911 E33.51603
G1 X91.077 Y117.815 E33.58426
G1 X108.921 Y117.815 E35.04456
G1 X109.746 Y117.910 E35.11252
G1 X111.073 Y118.222 E35.22410 F900.000
G1 X112.362 Y118.809 E35.33996
G1 X113.562 Y119.672 E35.46097
G1 X114.273 Y120.348 E35.54120
G1 X114.993 Y121.248 E35.63551
G1 X115.343 Y121.774 E35.68723
G1 X115.804 Y122.620 E35.76606
G1 X115.997 Y123.035 E35.80358
G1 X116.425 Y124.178 E35.90341
G1 X116.663 Y125.008 E35.97411
G1 X116.902 Y126.128 E36.06780
G1 X117.059 Y127.216 E36.15774
G1 X117.163 Y128.500 E36.26320
G1 X117.186 Y129.438 E36.33998
G1 X117.186 Y177.976 E40.31214
G1 X112.977 Y182.185 E40.79934
G1 X87.023 Y182.185 E42.92327
G1 X82.814 Y177.976 E43.41046
G1 X82.814 Y129.438 E47.38263
G1 X82.847 Y128.305 E47.47537
G1 X82.918 Y127.420 E47.54801
G1 X83.060 Y126.351 E47.63625
G1 X83.271 Y125.280 E47.72563
G1 X83.575 Y124.178 E47.81919
G1 X84.003 Y123.035 E47.91903
G1 X84.196 Y122.620 E47.95655
G1 X84.659 Y121.770 E48.03571
G1 X85.014 Y121.238 E48.08810
G1 X85.736 Y120.339 E48.18243
G1 X86.398 Y119.711 E48.25710
G1 X86.841 Y120.153 F3600.000
G1 X87.953 Y119.353 E48.36921 F900.000
G1 X89.126 Y118.819 E48.47463
G1 X90.357 Y118.528 E48.57819
G1 X91.113 Y118.440 E48.64049
G1 X108.885 Y118.440 E50.09487
G1 X109.638 Y118.527 E50.15692 F900.000
G1 X110.870 Y118.817 E50.26051
G1 X112.047 Y119.352 E50.36629
G1 X113.163 Y120.155 E50.47878
G1 X113.812 Y120.771 E50.55203
G1 X114.488 Y121.616 E50.64060
G1 X114.807 Y122.097 E50.68782
G1 X115.246 Y122.901 E50.76277
G1 X115.422 Y123.281 E50.79703
G1 X115.829 Y124.363 E50.89167
G1 X116.119 Y125.416 E50.98107
G1 X116.287 Y126.243 E51.05008
G1 X116.439 Y127.292 E51.13687
G1 X116.529 Y128.346 E51.22343
G1 X116.561 Y129.442 E51.31314
G1 X116.561 Y177.717 E55.26379
G1 X112.718 Y181.560 E55.70862
G1 X87.282 Y181.560 E57.79019
G1 X83.439 Y177.717 E58.23502
G1 X83.439 Y129.442 E62.18567
G1 X83.471 Y128.347 E62.27534
G1 X83.540 Y127.479 E62.34654
G1 X83.678 Y126.447 E62.43178
G1 X83.881 Y125.416 E62.51775
G1 X84.171 Y124.363 E62.60713
G1 X84.578 Y123.281 E62.70178
G1 X84.754 Y122.901 E62.73604
G1 X85.194 Y122.094 E62.81129
G1 X85.519 Y121.607 E62.85912
G1 X86.197 Y120.764 E62.94772
G1 X86.798 Y120.194 E63.01546
G1 X87.240 Y120.635 F3600.000
G1 X88.268 Y119.896 E63.11909 F900.000
G1 X89.329 Y119.413 E63.21447
G1 X90.465 Y119.144 E63.31003
G1 X91.150 Y119.065 E63.36640
G1 X108.849 Y119.065 E64.81486
G1 X109.530 Y119.144 E64.87099
G1 X110.668 Y119.411 E64.96659 F900.000
G1 X111.732 Y119.895 E65.06230
G1 X112.763 Y120.637 E65.16626
G1 X113.350 Y121.195 E65.23254
G1 X113.983 Y121.985 E65.31537
G1 X114.272 Y122.420 E65.35809
G1 X114.687 Y123.183 E65.42916
G1 X114.847 Y123.526 E65.46016
G1 X115.232 Y124.549 E65.54961
G1 X115.509 Y125.553 E65.63483
G1 X115.705 Y126.542 E65.71737
G1 X115.838 Y127.538 E65.79961
G1 X115.914 Y128.549 E65.88256
G1 X115.936 Y129.446 E65.95597
G1 X115.936 Y177.458 E69.88512
G1 X112.459 Y180.935 E70.28758
G1 X87.541 Y180.935 E72.32678
G1 X84.064 Y177.458 E72.72924
G1 X84.064 Y129.446 E76.65839
G1 X84.094 Y128.388 E76.74498
G1 X84.162 Y127.538 E76.81475
G1 X84.295 Y126.542 E76.89699
G1 X84.491 Y125.553 E76.97954
G1 X84.768 Y124.549 E77.06475
G1 X85.153 Y123.526 E77.15420
G1 X85.313 Y123.183 E77.18520
G1 X85.730 Y122.417 E77.25654
G1 X86.023 Y121.977 E77.29982
G1 X86.657 Y121.188 E77.38268
G1 X87.197 Y120.677 E77.44350
G1 X87.640 Y121.118 F3600.000
G1 X88.583 Y120.439 E77.53864 F900.000
G1 X89.532 Y120.007 E77.62398
G1 X90.574 Y119.761 E77.71154
G1 X91.186 Y119.689 E77.76198
G1 X108.813 Y119.689 E79.20452
G1 X109.423 Y119.760 E79.25474 F900.000
G1 X110.465 Y120.005 E79.34235
G1 X111.417 Y120.439 E79.42798
G1 X112.364 Y121.120 E79.52342
G1 X112.889 Y121.619 E79.58272
G1 X113.478 Y122.354 E79.65981
G1 X113.736 Y122.743 E79.69804
G1 X114.129 Y123.464 E79.76523
G1 X114.272 Y123.771 E79.79296
G1 X114.635 Y124.735 E79.87722
G1 X114.899 Y125.689 E79.95826
G1 X115.059 Y126.473 E80.02367
G1 X115.199 Y127.446 E80.10416
G1 X115.282 Y128.429 E80.18493
G1 X115.312 Y129.450 E80.26848
G1 X115.312 Y177.199 E84.17611
G1 X112.200 Y180.311 E84.53621
G1 X87.800 Y180.311 E86.53304
G1 X84.688 Y177.199 E86.89314
G1 X84.688 Y129.450 E90.80078
G1 X84.710 Y128.574 E90.87247
G1 X84.801 Y127.446 E90.96510
G1 X84.941 Y126.473 E91.04554
G1 X85.150 Y125.488 E91.12793
G1 X85.444 Y124.501 E91.21220
G1 X85.728 Y123.771 E91.27630
G1 X85.871 Y123.464 E91.30403
G1 X86.265 Y122.741 E91.37146
G1 X86.528 Y122.347 E91.41018
G1 X87.118 Y121.612 E91.48730
G1 X87.596 Y121.159 E91.54121
G1 X88.039 Y121.601 F3600.000
G1 X88.898 Y120.982 E91.62786 F900.000
G1 X89.736 Y120.601 E91.70316
G1 X90.682 Y120.377 E91.78273
G1 X91.222 Y120.314 E91.82723
G1 X108.777 Y120.314 E93.26385
G1 X109.315 Y120.377 E93.30816
G1 X110.262 Y120.599 E93.38778 F900.000
G1 X111.102 Y120.982 E93.46334
G1 X111.964 Y121.602 E93.55025
G1 X112.428 Y122.042 E93.60257
G1 X112.972 Y122.723 E93.67392
G1 X113.201 Y123.066 E93.70765
G1 X113.571 Y123.746 E93.77096
G1 X113.697 Y124.017 E93.79543
G1 X114.038 Y124.921 E93.87450
G1 X114.246 Y125.649 E93.93645
G1 X114.469 Y126.733 E94.02707
G1 X114.593 Y127.656 E94.10330
G1 X114.665 Y128.598 E94.18062
G1 X114.687 Y129.454 E94.25065
G1 X114.687 Y176.940 E98.13678
G1 X111.941 Y179.686 E98.45451
G1 X88.059 Y179.686 E100.40898
G1 X85.313 Y176.940 E100.72672
G1 X85.313 Y129.454 E104.61284
G1 X85.335 Y128.599 E104.68284
G1 X85.421 Y127.523 E104.77118
G1 X85.556 Y126.588 E104.84848
G1 X85.754 Y125.648 E104.92707
G1 X86.031 Y124.714 E105.00679
G1 X86.303 Y124.017 E105.06806
G1 X86.429 Y123.746 E105.09254
G1 X86.801 Y123.064 E105.15606
G1 X87.032 Y122.717 E105.19022
G1 X87.579 Y122.037 E105.26161
G1 X87.995 Y121.642 E105.30859
G1 X88.438 Y122.083 F3600.000
G1 X89.213 Y121.525 E105.38675 F900.000
G1 X89.939 Y121.195 E105.45201
G1 X90.790 Y120.994 E105.52358
G1 X91.258 Y120.939 E105.56215
G1 X108.741 Y120.939 E106.99285
G1 X109.207 Y120.993 E107.03126 F900.000
G1 X110.059 Y121.194 E107.10288
G1 X110.787 Y121.525 E107.16836
G1 X111.565 Y122.084 E107.24675
G1 X111.966 Y122.466 E107.29210
G1 X112.467 Y123.092 E107.35771
G1 X112.665 Y123.390 E107.38694
G1 X113.122 Y124.262 E107.46754
G1 X113.441 Y125.106 E107.54142
G1 X113.642 Y125.809 E107.60118
G1 X113.852 Y126.829 E107.68640
G1 X113.971 Y127.715 E107.75963
G1 X114.041 Y128.623 E107.83413
G1 X114.062 Y129.458 E107.90247
G1 X114.062 Y176.681 E111.76708
G1 X111.682 Y179.061 E112.04246
G1 X88.318 Y179.061 E113.95456
G1 X85.938 Y176.681 E114.22993
G1 X85.938 Y129.458 E118.09454
G1 X85.959 Y128.623 E118.16286
G1 X86.042 Y127.600 E118.24691
G1 X86.170 Y126.703 E118.32106
G1 X86.358 Y125.808 E118.39586
G1 X86.619 Y124.928 E118.47102
G1 X86.987 Y124.027 E118.55065
G1 X87.336 Y123.388 E118.61026
G1 X87.537 Y123.086 E118.63987
G1 X88.039 Y122.461 E118.70552
G1 X88.395 Y122.124 E118.74559
G1 X88.837 Y122.566 F3600.000
G1 X89.528 Y122.069 E118.81526 F900.000
G1 X90.142 Y121.789 E118.87048
G1 X90.898 Y121.610 E118.93405
G1 X91.295 Y121.564 E118.96669
G1 X108.705 Y121.564 E120.39146
G1 X109.099 Y121.610 E120.42396
G1 X109.856 Y121.788 E120.48759 F900.000
G1 X110.472 Y122.068 E120.54300
G1 X111.165 Y122.567 E120.61287
G1 X111.505 Y122.890 E120.65123
G1 X111.962 Y123.461 E120.71110
G1 X112.130 Y123.713 E120.73584
G1 X112.547 Y124.508 E120.80930
G1 X112.844 Y125.292 E120.87799
G1 X113.038 Y125.969 E120.93556
G1 X113.234 Y126.924 E121.01538
G1 X113.349 Y127.774 E121.08561
G1 X113.417 Y128.648 E121.15728
G1 X113.437 Y129.462 E121.22394
G1 X113.437 Y176.423 E125.06704
G1 X111.424 Y178.436 E125.30005
G1 X88.576 Y178.436 E127.16979
G1 X86.563 Y176.423 E127.40279
G1 X86.563 Y129.462 E131.24589
G1 X86.583 Y128.648 E131.31253
G1 X86.662 Y127.676 E131.39229
G1 X86.784 Y126.818 E131.46329
G1 X86.962 Y125.968 E131.53429
G1 X87.206 Y125.141 E131.60489
G1 X87.546 Y124.309 E131.67845
G1 X87.871 Y123.711 E131.73415
G1 X88.041 Y123.456 E131.75921
G1 X88.500 Y122.886 E131.81912
G1 X88.794 Y122.607 E131.85226
G1 X89.237 Y123.048 F3600.000
G1 X89.843 Y122.612 E131.91345 F900.000
G1 X90.346 Y122.383 E131.95863
G1 X91.007 Y122.227 E132.01420
G1 X91.331 Y122.189 E132.04090
G1 X108.668 Y122.189 E133.45976
G1 X108.991 Y122.226 E133.48635 F900.000
G1 X109.653 Y122.382 E133.54198
G1 X110.157 Y122.612 E133.58732
G1 X110.766 Y123.049 E133.64866
G1 X111.044 Y123.313 E133.68005
G1 X111.457 Y123.830 E133.73418
G1 X111.594 Y124.036 E133.75442
G1 X111.972 Y124.753 E133.82075
G1 X112.248 Y125.478 E133.88424
G1 X112.434 Y126.129 E133.93962
G1 X112.616 Y127.020 E134.01404
G1 X112.727 Y127.833 E134.08126
G1 X112.792 Y128.672 E134.15011
G1 X112.812 Y129.466 E134.21509
G1 X112.812 Y176.164 E138.03668
G1 X111.165 Y177.811 E138.22732
G1 X88.835 Y177.811 E140.05470
G1 X87.188 Y176.164 E140.24534
G1 X87.188 Y129.466 E144.06693
G1 X87.208 Y128.672 E144.13189
G1 X87.282 Y127.753 E144.20735
G1 X87.399 Y126.932 E144.27521
G1 X87.566 Y126.129 E144.34241
G1 X87.794 Y125.354 E144.40845
G1 X88.028 Y124.753 E144.46127
G1 X88.407 Y124.034 E144.52773
G1 X88.546 Y123.826 E144.54823
G1 X88.960 Y123.310 E144.60240
G1 X89.193 Y123.090 E144.62862
G1 X89.636 Y123.531 F3600.000
G1 X90.158 Y123.155 E144.68132 F900.000
G1 X90.549 Y122.977 E144.71646
G1 X91.115 Y122.843 E144.76404
G1 X91.367 Y122.814 E144.78481
G1 X108.632 Y122.814 E146.19774
G1 X108.883 Y122.843 E146.21842
G1 X109.450 Y122.976 E146.26606 F900.000
G1 X109.842 Y123.155 E146.30132
G1 X110.366 Y123.532 E146.35414
G1 X110.583 Y123.737 E146.37856
G1 X110.952 Y124.199 E146.42695
G1 X111.058 Y124.359 E146.44269
G1 X111.397 Y124.998 E146.50187
G1 X111.651 Y125.664 E146.56018
G1 X111.830 Y126.289 E146.61337
G1 X111.999 Y127.115 E146.68239
G1 X112.105 Y127.892 E146.74660
G1 X112.168 Y128.697 E146.81263
G1 X112.187 Y129.470 E146.87592
G1 X112.187 Y175.905 E150.67600
G1 X110.906 Y177.186 E150.82428
G1 X89.094 Y177.186 E152.60929
G1 X87.813 Y175.905 E152.75757
G1 X87.813 Y129.470 E156.55765
G1 X87.832 Y128.697 E156.62092
G1 X87.902 Y127.830 E156.69210
G1 X88.013 Y127.047 E156.75681
G1 X88.170 Y126.289 E156.82021
G1 X88.382 Y125.568 E156.88170
G1 X88.603 Y124.998 E156.93170
G1 X88.942 Y124.358 E156.99098
G1 X89.050 Y124.196 E157.00693
G1 X89.421 Y123.735 E157.05536
G1 X89.592 Y123.572 E157.07467
G1 X90.035 Y124.014 F3600.000
G1 X90.473 Y123.698 E157.11887 F900.000
G1 X90.753 Y123.571 E157.14397
G1 X91.223 Y123.460 E157.18356
G1 X91.403 Y123.439 E157.19839
G1 X108.596 Y123.439 E158.60540
G1 X108.776 Y123.460 E158.62017 F900.000
G1 X109.247 Y123.570 E158.65982
G1 X109.527 Y123.698 E158.68501
G1 X109.967 Y124.014 E158.72931
G1 X110.121 Y124.161 E158.74675
G1 X110.523 Y124.682 E158.80060
G1 X110.822 Y125.244 E158.85265
G1 X111.054 Y125.850 E158.90576
G1 X111.225 Y126.449 E158.95677
G1 X111.381 Y127.210 E159.02038
G1 X111.482 Y127.951 E159.08160
G1 X111.543 Y128.721 E159.14481
G1 X111.562 Y129.474 E159.20641
G1 X111.562 Y175.646 E162.98498
G1 X110.647 Y176.561 E163.09089
G1 X89.353 Y176.561 E164.83353
G1 X88.438 Y175.646 E164.93945
G1 X88.438 Y129.474 E168.71802
G1 X88.457 Y128.722 E168.77961
G1 X88.518 Y127.951 E168.84283
G1 X88.619 Y127.210 E168.90404
G1 X88.760 Y126.508 E168.96268
G1 X88.946 Y125.850 E169.01866
G1 X89.178 Y125.244 E169.07177
G1 X89.478 Y124.681 E169.12389
G1 X89.882 Y124.159 E169.17794
G1 X89.991 Y124.055 E169.19033
G1 X90.434 Y124.496 F3600.000
G1 X90.788 Y124.241 E169.22605 F900.000
G1 X90.956 Y124.165 E169.24111
G1 X91.440 Y124.064 E169.28155
G1 X108.668 Y124.076 E170.69144
G1 X109.044 Y124.165 E170.72310 F900.000
G1 X109.212 Y124.241 E170.73821
G1 X109.567 Y124.496 E170.77398
G1 X109.660 Y124.584 E170.78444
G1 X109.942 Y124.937 E170.82135
G1 X110.221 Y125.435 E170.86810
G1 X110.443 Y125.994 E170.91735
G1 X110.630 Y126.644 E170.97271
G1 X110.763 Y127.306 E171.02794
G1 X110.857 Y127.984 E171.08395
G1 X110.919 Y128.746 E171.14653
G1 X110.937 Y129.478 E171.20645
G1 X110.937 Y175.387 E174.96351
G1 X110.388 Y175.936 E175.02706
G1 X89.612 Y175.936 E176.72734
G1 X89.063 Y175.387 E176.79088
G1 X89.063 Y129.478 E180.54794
G1 X89.081 Y128.746 E180.60785
G1 X89.140 Y128.010 E180.66825
G1 X89.237 Y127.306 E180.72645
G1 X89.370 Y126.644 E180.78168
G1 X89.543 Y126.035 E180.83348
G1 X89.753 Y125.489 E180.88141
G1 X90.013 Y125.005 E180.92636
G1 X90.391 Y124.537 E180.97554
G1 E178.97554 F2400.00000
G92 E0
G1 X89.871 Y175.311 F3600.000
G1 E2.00000 F2400.00000
G1 X89.688 Y175.128 E2.02118 F900.000
G1 X89.688 Y129.482 E5.75673
G1 X89.706 Y128.762 E5.81565
G1 X89.762 Y128.069 E5.87253
G1 X89.854 Y127.401 E5.92773
G1 X89.980 Y126.781 E5.97955
G1 X90.144 Y126.207 E6.02836
G1 X90.328 Y125.734 E6.06990
G1 X90.548 Y125.328 E6.10769
G1 X90.803 Y125.008 E6.14118
G1 X91.103 Y124.784 E6.17184
G1 X91.476 Y124.689 E6.20330
G1 X108.524 Y124.689 E7.59847
G1 X108.841 Y124.759 E7.62507
G1 X109.168 Y124.979 E7.65728
G1 X109.437 Y125.306 E7.69190
G1 X109.672 Y125.734 E7.73191
G1 X109.856 Y126.207 E7.77346
G1 X110.020 Y126.781 E7.82227
G1 X110.144 Y127.392 E7.87328
