; generated by Slic3r 1.2.9 on 2017-08-14 at 08:04:21

; external perimeters extrusion width = 0.40mm
; perimeters extrusion width = 0.48mm
; infill extrusion width = 0.48mm
; solid infill extrusion width = 0.48mm
; top infill extrusion width = 0.48mm

M107
M190 S70 ; set bed temperature
M104 S240 ; set temperature
G21 ; set units to millimeters
G90 ; use absolute coordinates
M203 Z4; max speed min/sec
G1 Z20 F200;
G28 X F2000;
G1 X140 F2000;
G28 Y F2000;
G1 Y140 F2000;
G28 Z F200;
G1 Z5 F500 ; lift nozzle

M109 S240 ; wait for temperature to be reached
G21 ; set units to millimeters
G90 ; use absolute coordinates
M82 ; use absolute distances for extrusion
G92 E0
G1 Z0.200 F3600.000
G1 E-2.00000 F2400.00000
G92 E0
G1 X83.701 Y124.384 F3600.000
G1 E2.00000 F2400.00000
G1 X84.377 Y123.933 E2.06499 F900.000
G1 X84.857 Y123.656 E2.10935
G1 X85.587 Y123.296 E2.17449
G1 X86.098 Y123.084 E2.21874
G1 X86.866 Y122.823 E2.28369
G1 X87.502 Y122.660 E2.33618
G1 X87.665 Y122.572 E2.35101
G1 X87.842 Y122.395 E2.37104
G1 X94.331 Y122.395 E2.89024
G1 X94.508 Y122.572 E2.91027
G1 X94.671 Y122.660 E2.92510 F900.000
G1 X95.304 Y122.822 E2.97742
G1 X96.083 Y123.087 E3.04324
G1 X96.588 Y123.297 E3.08696
G1 X97.316 Y123.656 E3.15193
G1 X97.794 Y123.932 E3.19608
G1 X98.468 Y124.382 E3.26096
G1 X98.908 Y124.719 E3.30531
G1 X99.507 Y125.245 E3.36910
G1 X99.867 Y125.602 E3.40963
G1 X100.269 Y126.055 E3.45812
G1 X100.639 Y126.152 E3.48873
G1 X105.633 Y124.402 E3.91222
G1 X106.252 Y124.841 E3.97294
G1 X106.465 Y124.899 E3.99057
G1 X107.194 Y124.840 E4.04910
G1 X107.734 Y124.831 E4.09235
G1 X109.809 Y124.929 E4.25855
G1 X110.346 Y124.989 E4.30181
G1 X112.392 Y125.351 E4.46803
G1 X112.917 Y125.480 E4.51128
G1 X114.899 Y126.100 E4.67747
G1 X115.403 Y126.295 E4.72073
G1 X117.290 Y127.164 E4.88695
G1 X117.765 Y127.421 E4.93019
G1 X119.525 Y128.524 E5.09639
G1 X119.964 Y128.839 E5.13965
G1 X121.569 Y130.158 E5.30586
G1 X121.964 Y130.527 E5.34912
G1 X123.387 Y132.040 E5.51530
G1 X123.731 Y132.457 E5.55856
G1 X124.949 Y134.139 E5.72475
G1 X125.238 Y134.596 E5.76803
G1 X126.231 Y136.421 E5.93422
G1 X126.458 Y136.911 E5.97749
G1 X127.210 Y138.847 E6.14369
G1 X127.373 Y139.363 E6.18695
G1 X127.872 Y141.379 E6.35315
G1 X127.968 Y141.911 E6.39640
G1 X128.204 Y143.975 E6.56264
G1 X128.231 Y144.515 E6.60588
G1 X128.202 Y146.591 E6.77206
G1 X128.160 Y147.130 E6.81532
G1 X127.866 Y149.187 E6.98153
G1 X127.756 Y149.716 E7.02481
G1 X127.201 Y151.717 E7.19100
G1 X127.024 Y152.228 E7.23429
G1 X126.267 Y154.026 E7.39031
G1 X126.025 Y154.529 E7.43498
G1 X125.687 Y155.126 E7.48995
G1 X125.644 Y155.286 E7.50319
G1 X125.644 Y172.663 E8.89365
G1 X120.702 Y177.605 E9.45286
G1 X76.713 Y177.605 E12.97274
G1 X71.772 Y172.663 E13.53196
G1 X71.772 Y145.058 E15.74087
G1 X71.853 Y143.407 E15.87309
G1 X71.898 Y142.973 E15.90804
G1 X72.138 Y141.451 E16.03131
G1 X72.231 Y141.017 E16.06686
G1 X72.631 Y139.525 E16.19048
G1 X72.767 Y139.106 E16.22570
G1 X73.319 Y137.667 E16.34903
G1 X73.499 Y137.264 E16.38438
G1 X74.198 Y135.893 E16.50750
G1 X74.417 Y135.513 E16.54260
G1 X75.256 Y134.219 E16.66597
G1 X75.518 Y133.859 E16.70162
G1 X76.489 Y132.661 E16.82503
G1 X76.784 Y132.333 E16.86027
G1 X77.872 Y131.245 E16.98345
G1 X78.199 Y130.950 E17.01869
G1 X79.397 Y129.979 E17.14208
G1 X79.834 Y129.662 E17.18522
G1 X79.949 Y129.506 E17.20073
G1 X80.217 Y128.779 E17.26278
G1 X80.619 Y127.936 E17.33748
G1 X80.939 Y127.378 E17.38896
G1 X81.426 Y126.654 E17.45880
G1 X81.813 Y126.159 E17.50904
G1 X82.307 Y125.600 E17.56872
G1 X82.669 Y125.242 E17.60945
G1 X83.261 Y124.722 E17.67254
G1 X83.654 Y124.421 E17.71215
G1 X84.066 Y124.893 F3600.000
G1 X84.707 Y124.464 E17.77388 F900.000
G1 X85.151 Y124.207 E17.81495
G1 X85.845 Y123.865 E17.87682
G1 X86.318 Y123.669 E17.91779
G1 X87.048 Y123.421 E17.97948
G1 X87.809 Y123.236 E18.04220
G1 X87.973 Y123.148 E18.05703
G1 X88.101 Y123.020 E18.07151
G1 X94.072 Y123.020 E18.54929
G1 X94.200 Y123.148 E18.56377 F900.000
G1 X94.363 Y123.236 E18.57860
G1 X95.123 Y123.421 E18.64117
G1 X95.862 Y123.672 E18.70366
G1 X96.330 Y123.866 E18.74415
G1 X97.021 Y124.207 E18.80585
G1 X97.464 Y124.463 E18.84673
G1 X98.104 Y124.890 E18.90836
G1 X98.511 Y125.203 E18.94942
G1 X99.081 Y125.702 E19.01004
G1 X99.414 Y126.032 E19.04757
G1 X100.057 Y126.777 E19.12631
G1 X100.438 Y126.885 E19.15798
G1 X105.535 Y125.098 E19.59016
G1 X106.076 Y125.482 E19.64324
G1 X106.289 Y125.540 E19.66086
G1 X107.224 Y125.464 E19.73597
G1 X107.725 Y125.456 E19.77603
G1 X109.759 Y125.552 E19.93902
G1 X110.257 Y125.608 E19.97907
G1 X112.263 Y125.963 E20.14209
G1 X112.749 Y126.082 E20.18213
G1 X114.693 Y126.691 E20.34512
G1 X115.160 Y126.871 E20.38518
G1 X117.010 Y127.723 E20.54819
G1 X117.450 Y127.961 E20.58823
G1 X119.177 Y129.042 E20.75123
G1 X119.583 Y129.335 E20.79128
G1 X121.157 Y130.628 E20.95429
G1 X121.522 Y130.970 E20.99434
G1 X122.918 Y132.454 E21.15732
G1 X123.237 Y132.839 E21.19737
G1 X124.431 Y134.489 E21.36036
G1 X124.698 Y134.913 E21.40043
G1 X125.672 Y136.702 E21.56342
G1 X125.883 Y137.156 E21.60348
G1 X126.621 Y139.055 E21.76648
G1 X126.772 Y139.532 E21.80654
G1 X127.260 Y141.510 E21.96953
G1 X127.349 Y142.002 E22.00958
G1 X127.581 Y144.026 E22.17261
G1 X127.606 Y144.526 E22.21265
G1 X127.578 Y146.563 E22.37563
G1 X127.539 Y147.062 E22.41568
G1 X127.251 Y149.078 E22.57869
G1 X127.148 Y149.568 E22.61876
G1 X126.604 Y151.531 E22.78174
G1 X126.440 Y152.005 E22.82183
G1 X125.696 Y153.774 E22.97540
G1 X125.471 Y154.239 E23.01676
G1 X125.062 Y154.958 E23.08296
G1 X125.019 Y155.118 E23.09620
G1 X125.019 Y172.404 E24.47942
G1 X120.443 Y176.980 E24.99721
G1 X76.972 Y176.980 E28.47567
G1 X72.396 Y172.404 E28.99346
G1 X72.396 Y145.066 E31.18100
G1 X72.476 Y143.457 E31.30994
G1 X72.518 Y143.054 E31.34231
G1 X72.753 Y141.565 E31.46295
G1 X72.838 Y141.163 E31.49587
G1 X73.230 Y139.702 E31.61685
G1 X73.356 Y139.315 E31.64946
G1 X73.897 Y137.906 E31.77017
G1 X74.063 Y137.533 E31.80291
G1 X74.747 Y136.191 E31.92342
G1 X74.950 Y135.839 E31.95592
G1 X75.771 Y134.573 E32.07666
G1 X76.014 Y134.239 E32.10968
G1 X76.964 Y133.067 E32.23045
G1 X77.237 Y132.764 E32.26309
G1 X78.302 Y131.698 E32.38365
G1 X78.606 Y131.425 E32.41629
G1 X79.778 Y130.475 E32.53705
G1 X80.340 Y130.085 E32.59176
G1 X80.470 Y129.917 E32.60876
G1 X80.792 Y129.022 E32.68487
G1 X81.174 Y128.225 E32.75559
G1 X81.470 Y127.708 E32.80327
G1 X81.891 Y127.077 E32.86400
G1 X82.289 Y126.563 E32.91599
G1 X82.760 Y126.031 E32.97281
G1 X83.095 Y125.700 E33.01052
G1 X83.658 Y125.206 E33.07048
G1 X84.018 Y124.929 E33.10680
G1 X84.430 Y125.401 F3600.000
G1 X85.037 Y124.995 E33.16527 F900.000
G1 X85.446 Y124.759 E33.20305
G1 X86.103 Y124.435 E33.26165
G1 X86.538 Y124.254 E33.29934
G1 X87.230 Y124.020 E33.35777
G1 X87.685 Y123.897 E33.39553
G1 X88.117 Y123.811 E33.43076
G1 X88.281 Y123.724 E33.44560
G1 X88.360 Y123.645 E33.45453
G1 X93.813 Y123.645 E33.89089
G1 X93.892 Y123.724 E33.89983
G1 X94.055 Y123.811 E33.91466 F900.000
G1 X94.488 Y123.897 E33.94992
G1 X94.941 Y124.019 E33.98751
G1 X95.641 Y124.257 E34.04668
G1 X96.071 Y124.436 E34.08392
G1 X96.726 Y124.759 E34.14236
G1 X97.133 Y124.994 E34.17998
G1 X97.740 Y125.399 E34.23835
G1 X98.115 Y125.686 E34.27612
G1 X98.654 Y126.160 E34.33357
G1 X98.961 Y126.463 E34.36809
G1 X99.417 Y126.980 E34.42328
G1 X99.832 Y127.518 E34.47764
G1 X100.250 Y127.633 E34.51238
G1 X100.527 Y127.516 E34.53643
G1 X105.437 Y125.795 E34.95275
G1 X105.900 Y126.123 E34.99818
G1 X106.112 Y126.181 E35.01580
G1 X107.255 Y126.089 E35.10750
G1 X107.715 Y126.081 E35.14435
G1 X109.710 Y126.175 E35.30413
G1 X110.168 Y126.227 E35.34099
G1 X112.134 Y126.575 E35.50079
G1 X112.581 Y126.684 E35.53764
G1 X114.487 Y127.281 E35.69742
G1 X114.917 Y127.447 E35.73427
G1 X116.731 Y128.282 E35.89408
G1 X117.136 Y128.501 E35.93092
G1 X118.828 Y129.561 E36.09071
G1 X119.202 Y129.830 E36.12755
G1 X120.745 Y131.098 E36.28736
G1 X121.081 Y131.413 E36.32421
G1 X122.449 Y132.867 E36.48398
G1 X122.742 Y133.222 E36.52083
G1 X123.913 Y134.840 E36.68061
G1 X124.159 Y135.229 E36.71748
G1 X125.114 Y136.983 E36.87727
G1 X125.308 Y137.401 E36.91412
G1 X126.031 Y139.262 E37.07392
G1 X126.170 Y139.701 E37.11077
G1 X126.649 Y141.640 E37.27056
G1 X126.731 Y142.093 E37.30741
G1 X126.958 Y144.078 E37.46723
G1 X126.981 Y144.537 E37.50407
G1 X126.953 Y146.534 E37.66384
G1 X126.917 Y146.993 E37.70069
G1 X126.635 Y148.970 E37.86049
G1 X126.540 Y149.421 E37.89735
G1 X126.007 Y151.345 E38.05714
G1 X125.856 Y151.781 E38.09401
G1 X125.124 Y153.521 E38.24513
G1 X124.917 Y153.950 E38.28320
G1 X124.437 Y154.790 E38.36066
G1 X124.394 Y154.950 E38.37390
G1 X124.394 Y172.145 E39.74983
G1 X120.184 Y176.355 E40.22620
G1 X77.231 Y176.355 E43.66323
G1 X73.021 Y172.145 E44.13960
G1 X73.021 Y145.074 E46.30577
G1 X73.099 Y143.506 E46.43144
G1 X73.138 Y143.136 E46.46121
G1 X73.368 Y141.679 E46.57924
G1 X73.446 Y141.308 E46.60952
G1 X73.830 Y139.880 E46.72786
G1 X73.945 Y139.523 E46.75786
G1 X74.474 Y138.146 E46.87595
G1 X74.628 Y137.802 E46.90607
G1 X75.297 Y136.489 E47.02398
G1 X75.483 Y136.165 E47.05388
G1 X76.287 Y134.927 E47.17200
G1 X76.510 Y134.620 E47.20237
G1 X77.439 Y133.473 E47.32052
G1 X77.690 Y133.194 E47.35054
G1 X78.733 Y132.152 E47.46849
G1 X79.012 Y131.900 E47.49852
G1 X80.159 Y130.971 E47.61665
G1 X80.870 Y130.486 E47.68559
G1 X81.004 Y130.307 E47.70341
G1 X81.240 Y129.590 E47.76380
G1 X81.368 Y129.266 E47.79174
G1 X81.728 Y128.513 E47.85847
G1 X82.001 Y128.038 E47.90235
G1 X82.361 Y127.495 E47.95448
G1 X82.766 Y126.967 E48.00771
G1 X83.213 Y126.462 E48.06166
G1 X83.521 Y126.157 E48.09635
G1 X84.055 Y125.689 E48.15319
G1 X84.382 Y125.437 E48.18622
G1 X84.794 Y125.909 F3600.000
G1 X85.368 Y125.526 E48.24142 F900.000
G1 X85.741 Y125.310 E48.27592
G1 X86.361 Y125.004 E48.33124
G1 X86.758 Y124.840 E48.36566
G1 X87.411 Y124.618 E48.42083
G1 X87.827 Y124.506 E48.45530
G1 X88.425 Y124.387 E48.50408
G1 X88.619 Y124.270 E48.52217
G1 X93.554 Y124.270 E48.91711
G1 X93.748 Y124.387 E48.93522 F900.000
G1 X94.346 Y124.506 E48.98400
G1 X94.760 Y124.617 E49.01832
G1 X95.421 Y124.842 E49.07416
G1 X95.813 Y125.005 E49.10817
G1 X96.432 Y125.310 E49.16335
G1 X96.803 Y125.525 E49.19769
G1 X97.376 Y125.907 E49.25280
G1 X97.718 Y126.169 E49.28729
G1 X98.228 Y126.617 E49.34157
G1 X98.508 Y126.894 E49.37309
G1 X99.099 Y127.580 E49.44555
G1 X99.599 Y128.298 E49.51554
G1 X100.056 Y128.419 E49.55339
G1 X100.753 Y128.099 E49.61473
G1 X105.339 Y126.491 E50.00362
G1 X105.724 Y126.764 E50.04138
G1 X105.936 Y126.823 E50.05901
G1 X107.285 Y126.713 E50.16729
G1 X107.706 Y126.706 E50.20094
G1 X109.660 Y126.799 E50.35752
G1 X110.078 Y126.845 E50.39117
G1 X112.005 Y127.187 E50.54777
G1 X112.414 Y127.287 E50.58141
G1 X114.281 Y127.871 E50.73799
G1 X114.673 Y128.022 E50.77164
G1 X116.451 Y128.841 E50.92824
G1 X116.821 Y129.041 E50.96187
G1 X118.479 Y130.080 E51.11846
G1 X118.820 Y130.326 E51.15210
G1 X120.332 Y131.568 E51.30870
G1 X120.639 Y131.855 E51.34234
G1 X121.980 Y133.281 E51.49892
G1 X122.248 Y133.605 E51.53256
G1 X123.396 Y135.190 E51.68914
G1 X123.620 Y135.546 E51.72280
G1 X124.556 Y137.264 E51.87939
G1 X124.733 Y137.646 E51.91304
G1 X125.441 Y139.470 E52.06962
G1 X125.568 Y139.871 E52.10327
G1 X126.037 Y141.771 E52.25986
G1 X126.112 Y142.184 E52.29350
G1 X126.335 Y144.129 E52.45012
G1 X126.356 Y144.549 E52.48375
G1 X126.329 Y146.505 E52.64032
G1 X126.296 Y146.924 E52.67397
G1 X126.019 Y148.862 E52.83056
G1 X125.933 Y149.273 E52.86422
G1 X125.411 Y151.159 E53.02080
G1 X125.273 Y151.557 E53.05447
G1 X124.552 Y153.269 E53.20314
G1 X124.270 Y153.834 E53.25366
G1 X123.812 Y154.622 E53.32658
G1 X123.769 Y154.782 E53.33982
G1 X123.769 Y171.886 E54.70851
G1 X119.925 Y175.730 E55.14345
G1 X77.490 Y175.730 E58.53907
G1 X73.646 Y171.886 E58.97401
G1 X73.646 Y145.082 E61.11881
G1 X73.722 Y143.555 E61.24120
G1 X73.758 Y143.217 E61.26839
G1 X73.982 Y141.792 E61.38379
G1 X74.054 Y141.454 E61.41144
G1 X74.429 Y140.058 E61.52715
G1 X74.535 Y139.732 E61.55454
G1 X75.052 Y138.385 E61.67001
G1 X75.192 Y138.071 E61.69750
G1 X75.846 Y136.787 E61.81280
G1 X76.017 Y136.492 E61.84010
G1 X76.802 Y135.281 E61.95560
G1 X77.006 Y135.001 E61.98333
G1 X77.915 Y133.879 E62.09885
G1 X78.144 Y133.624 E62.12627
G1 X79.163 Y132.605 E62.24161
G1 X79.418 Y132.376 E62.26902
G1 X80.539 Y131.467 E62.38453
G1 X81.408 Y130.881 E62.46839
G1 X81.544 Y130.697 E62.48671
G1 X81.827 Y129.806 E62.56152
G1 X82.054 Y129.265 E62.60846
G1 X82.419 Y128.553 E62.67251
G1 X82.795 Y127.967 E62.72816
G1 X83.102 Y127.543 E62.77009
G1 X83.666 Y126.893 E62.83892
G1 X83.947 Y126.615 E62.87059
G1 X84.452 Y126.172 E62.92431
G1 X84.747 Y125.945 E62.95406
G1 X85.158 Y126.417 F3600.000
G1 X85.698 Y126.056 E63.00599 F900.000
G1 X86.036 Y125.861 E63.03721
G1 X86.619 Y125.574 E63.08925
G1 X86.979 Y125.425 E63.12039
G1 X87.593 Y125.216 E63.17230
G1 X87.969 Y125.115 E63.20349
G1 X88.703 Y124.976 E63.26323
G1 X88.867 Y124.895 E63.27784
G1 X93.306 Y124.895 E63.63307
G1 X93.470 Y124.976 E63.64768
G1 X94.203 Y125.115 E63.70745 F900.000
G1 X94.578 Y125.216 E63.73850
G1 X95.200 Y125.427 E63.79102
G1 X95.555 Y125.574 E63.82178
G1 X96.137 Y125.861 E63.87370
G1 X96.473 Y126.055 E63.90477
G1 X97.012 Y126.415 E63.95663
G1 X97.321 Y126.653 E63.98784
G1 X97.801 Y127.074 E64.03893
G1 X98.055 Y127.325 E64.06745
G1 X98.462 Y127.786 E64.11668
G1 X98.859 Y128.315 E64.16965
G1 X99.111 Y128.697 E64.20624
G1 X99.340 Y129.093 E64.24282
G1 X99.818 Y129.237 E64.28274
G1 X100.628 Y128.831 E64.35531
G1 X100.978 Y128.682 E64.38575
G1 X105.241 Y127.188 E64.74719
G1 X105.548 Y127.406 E64.77731
G1 X105.760 Y127.464 E64.79493
G1 X107.316 Y127.338 E64.91980
G1 X107.696 Y127.331 E64.95024
G1 X109.611 Y127.422 E65.10362
G1 X109.989 Y127.464 E65.13406
G1 X111.877 Y127.799 E65.28746
G1 X112.246 Y127.889 E65.31789
G1 X114.075 Y128.462 E65.47127
G1 X114.430 Y128.598 E65.50171
G1 X116.171 Y129.400 E65.65511
G1 X116.506 Y129.581 E65.68554
G1 X118.130 Y130.599 E65.83892
G1 X118.439 Y130.821 E65.86936
G1 X119.920 Y132.038 E66.02276
G1 X120.198 Y132.298 E66.05319
G1 X121.511 Y133.694 E66.20656
G1 X121.754 Y133.988 E66.23701
G1 X122.878 Y135.540 E66.39038
G1 X123.081 Y135.862 E66.42084
G1 X123.997 Y137.546 E66.57422
G1 X124.157 Y137.891 E66.60466
G1 X124.851 Y139.677 E66.75805
G1 X124.966 Y140.040 E66.78849
G1 X125.426 Y141.901 E66.94187
G1 X125.493 Y142.275 E66.97231
G1 X125.712 Y144.180 E67.12572
G1 X125.731 Y144.560 E67.15615
G1 X125.704 Y146.476 E67.30952
G1 X125.675 Y146.856 E67.33996
G1 X125.403 Y148.753 E67.49335
G1 X125.325 Y149.126 E67.52380
G1 X124.814 Y150.973 E67.67718
G1 X124.689 Y151.333 E67.70764
G1 X123.980 Y153.017 E67.85386
G1 X123.725 Y153.528 E67.89958
G1 X123.187 Y154.454 E67.98522
G1 X123.144 Y154.613 E67.99846
G1 X123.144 Y171.628 E69.35991
G1 X119.667 Y175.105 E69.75343
G1 X77.749 Y175.105 E73.10762
G1 X74.271 Y171.628 E73.50114
G1 X74.271 Y145.091 E75.62458
G1 X74.345 Y143.604 E75.74369
G1 X74.378 Y143.298 E75.76829
G1 X74.597 Y141.906 E75.88107
G1 X74.662 Y141.600 E75.90609
G1 X75.028 Y140.235 E76.01915
G1 X75.124 Y139.941 E76.04393
G1 X75.629 Y138.624 E76.15678
G1 X75.756 Y138.340 E76.18166
G1 X76.395 Y137.086 E76.29435
G1 X76.550 Y136.818 E76.31905
G1 X77.317 Y135.635 E76.43192
G1 X77.502 Y135.381 E76.45701
G1 X78.390 Y134.285 E76.56991
G1 X78.597 Y134.055 E76.59471
G1 X79.593 Y133.058 E76.70744
G1 X79.824 Y132.851 E76.73225
G1 X80.920 Y131.963 E76.84513
G1 X81.958 Y131.270 E76.94503
G1 X82.097 Y131.074 E76.96424
G1 X82.244 Y130.522 E77.00992
G1 X82.519 Y129.753 E77.07531
G1 X82.837 Y129.090 E77.13408
G1 X83.133 Y128.586 E77.18086
G1 X83.593 Y127.931 E77.24492
G1 X84.119 Y127.324 E77.30919
G1 X84.373 Y127.072 E77.33785
G1 X84.849 Y126.655 E77.38845
G1 X85.111 Y126.454 E77.41490
G1 X85.523 Y126.925 F3600.000
G1 X86.028 Y126.587 E77.46357 F900.000
G1 X86.331 Y126.413 E77.49150
G1 X86.877 Y126.143 E77.54027
G1 X87.199 Y126.010 E77.56813
G1 X87.775 Y125.814 E77.61678
G1 X88.111 Y125.724 E77.64469
G1 X88.708 Y125.605 E77.69335
G1 X88.995 Y125.567 E77.71650
G1 X89.091 Y125.520 E77.72513
G1 X93.081 Y125.520 E78.04438
G1 X93.178 Y125.567 E78.05299 F900.000
