; generated by Slic3r 1.2.9 on 2017-08-14 at 08:03:38

; external perimeters extrusion width = 0.40mm
; perimeters extrusion width = 0.48mm
; infill extrusion width = 0.48mm
; solid infill extrusion width = 0.48mm
; top infill extrusion width = 0.48mm

M107
M190 S70 ; set bed temperature
M104 S240 ; set temperature
G21 ; set units to millimeters
G90 ; use absolute coordinates
M203 Z4; max speed min/sec
G1 Z20 F200;
G28 X F2000;
G1 X140 F2000;
G28 Y F2000;
G1 Y140 F2000;
G28 Z F200;
G1 Z5 F500 ; lift nozzle

M109 S240 ; wait for temperature to be reached
G21 ; set units to millimeters
G90 ; use absolute coordinates
M82 ; use absolute distances for extrusion
G92 E0
G1 Z0.200 F3600.000
G1 E-2.00000 F2400.00000
G92 E0
G1 X68.006 Y133.564 F3600.000
G1 E2.00000 F2400.00000
G1 X94.755 Y133.564 E4.14042 F900.000
G1 X131.994 Y133.564 E7.12024 F900.000
G1 X136.936 Y138.506 E7.67946
G1 X136.936 Y161.494 E9.51896
G1 X131.994 Y166.436 E10.07818
G1 X68.006 Y166.436 E15.19842
G1 X63.064 Y161.494 E15.75763
G1 X63.064 Y138.506 E17.59714
G1 X67.963 Y133.606 E18.15155
G1 X68.265 Y134.189 F3600.000
G1 X71.652 Y134.189 E18.42258 F900.000
G1 X131.735 Y134.189 E23.23037 F900.000
G1 X136.311 Y138.765 E23.74816
G1 X136.311 Y161.235 E25.54624
G1 X131.735 Y165.811 E26.06403
G1 X68.265 Y165.811 E31.14285
G1 X63.689 Y161.235 E31.66064
G1 X63.689 Y138.765 E33.45872
G1 X68.222 Y134.231 E33.97172
G1 X68.523 Y134.814 F3600.000
G1 X94.755 Y134.814 E36.07072 F900.000
G1 X131.477 Y134.814 E39.00911 F900.000
G1 X135.686 Y139.023 E39.48548
G1 X135.686 Y160.977 E41.24214
G1 X131.477 Y165.186 E41.71850
G1 X68.523 Y165.186 E46.75590
G1 X64.314 Y160.977 E47.23227
G1 X64.314 Y139.023 E48.98893
G1 X68.481 Y134.856 E49.46049
G1 X68.782 Y135.439 F3600.000
G1 X71.652 Y135.439 E49.69010 F900.000
G1 X131.218 Y135.439 E54.45647 F900.000
G1 X135.061 Y139.282 E54.89141
G1 X135.061 Y160.718 E56.60664
G1 X131.218 Y164.561 E57.04159
G1 X68.782 Y164.561 E62.03756
G1 X64.939 Y160.718 E62.47251
G1 X64.939 Y139.282 E64.18774
G1 X68.740 Y135.481 E64.61788
G1 X69.041 Y136.064 F3600.000
G1 X94.755 Y136.064 E66.67546 F900.000
G1 X130.959 Y136.064 E69.57243 F900.000
G1 X134.436 Y139.541 E69.96596
G1 X134.436 Y160.459 E71.63977
G1 X130.959 Y163.936 E72.03329
G1 X69.041 Y163.936 E76.98784
G1 X65.564 Y160.459 E77.38136
G1 X65.564 Y139.541 E79.05517
G1 X68.999 Y136.106 E79.44389
G1 X69.300 Y136.688 F3600.000
G1 X71.652 Y136.688 E79.63207 F900.000
G1 X130.700 Y136.688 E84.35701 F900.000
G1 X133.812 Y139.800 E84.70911
G1 X133.812 Y160.200 E86.34150
G1 X130.700 Y163.312 E86.69360
G1 X69.300 Y163.312 E91.60672
G1 X66.188 Y160.200 E91.95882
G1 X66.188 Y139.800 E93.59121
G1 X69.257 Y136.731 E93.93851
G1 X69.559 Y137.313 F3600.000
G1 X94.755 Y137.313 E95.95466 F900.000
G1 X130.441 Y137.313 E98.81021 F900.000
G1 X133.187 Y140.059 E99.12088
G1 X133.187 Y159.941 E100.71185
G1 X130.441 Y162.687 E101.02252
G1 X69.559 Y162.687 E105.89423
G1 X66.813 Y159.941 E106.20490
G1 X66.813 Y140.059 E107.79586
G1 X69.516 Y137.356 E108.10174
G1 X69.818 Y137.938 F3600.000
G1 X71.652 Y137.938 E108.24850 F900.000
G1 X130.182 Y137.938 E112.93202 F900.000
G1 X132.562 Y140.318 E113.20127
G1 X132.562 Y159.682 E114.75081
G1 X130.182 Y162.062 E115.02006
G1 X69.818 Y162.062 E119.85034
G1 X67.438 Y159.682 E120.11959
G1 X67.438 Y140.318 E121.66913
G1 X69.775 Y137.981 E121.93358
G1 X70.076 Y138.563 F3600.000
G1 X94.755 Y138.563 E123.90831 F900.000
G1 X129.924 Y138.563 E126.72244 F900.000
G1 X131.937 Y140.576 E126.95027
G1 X131.937 Y159.424 E128.45838
G1 X129.924 Y161.437 E128.68621
G1 X70.076 Y161.437 E133.47507
G1 X68.063 Y159.424 E133.70290
G1 X68.063 Y140.576 E135.21101
G1 X70.034 Y138.606 E135.43404
G1 X70.335 Y139.188 F3600.000
G1 X71.652 Y139.188 E135.53938 F900.000
G1 X129.665 Y139.188 E140.18147 F900.000
G1 X131.312 Y140.835 E140.36788
G1 X131.312 Y159.165 E141.83457
G1 X129.665 Y160.812 E142.02098
G1 X70.335 Y160.812 E146.76841
G1 X68.688 Y159.165 E146.95481
G1 X68.688 Y140.835 E148.42151
G1 X70.293 Y139.230 E148.60311
G1 X70.594 Y139.813 F3600.000
G1 X94.755 Y139.813 E150.53642 F900.000
G1 X129.406 Y139.813 E153.30912 F900.000
G1 X130.687 Y141.094 E153.45410
G1 X130.687 Y158.906 E154.87937
G1 X129.406 Y160.187 E155.02435
G1 X70.594 Y160.187 E159.73036
G1 X69.313 Y158.906 E159.87534
G1 X69.313 Y141.094 E161.30062
G1 X70.552 Y139.855 E161.44080
G1 X70.853 Y140.438 F3600.000
G1 X71.652 Y140.438 E161.50471 F900.000
G1 X129.147 Y140.438 E166.10538 F900.000
G1 X130.062 Y141.353 E166.20894
G1 X130.062 Y158.647 E167.59279
G1 X129.147 Y159.562 E167.69635
G1 X70.853 Y159.562 E172.36093
G1 X69.938 Y158.647 E172.46449
G1 X69.938 Y141.353 E173.84834
G1 X70.810 Y140.480 E173.94709
G1 X71.112 Y141.063 F3600.000
G1 X94.755 Y141.063 E175.83898 F900.000
G1 X128.888 Y141.063 E178.57026 F900.000
G1 X129.437 Y141.612 E178.63239
G1 X129.437 Y158.388 E179.97481
G1 X128.888 Y158.937 E180.03695
G1 X71.112 Y158.937 E184.66011
G1 X70.563 Y158.388 E184.72225
G1 X70.563 Y141.612 E186.06467
G1 X71.069 Y141.105 E186.12200
G1 X71.188 Y141.871 F3600.000
G1 X71.371 Y141.688 E186.14272 F900.000
G1 X128.629 Y141.688 E190.72446
G1 X128.812 Y141.871 E190.74517
G1 X128.812 Y158.129 E192.04617
G1 X128.629 Y158.312 E192.06688
G1 X71.371 Y158.312 E196.64862
G1 X71.188 Y158.129 E196.66933
G1 X71.188 Y141.931 E197.96553
G1 E195.96553 F2400.00000
G92 E0
G1 X128.150 Y157.650 F3600.000
G1 E2.00000 F2400.00000
G1 X71.850 Y157.650 E6.50502 F300.000
G1 X71.850 Y142.350 E7.72929
G1 X128.150 Y142.350 E12.23431
G1 X128.150 Y157.590 E13.45378
G1 X127.804 Y157.450 F3600.000
G1 X127.525 Y157.025 F3600.000
G1 X72.475 Y157.025 E17.85879 F600.000
G1 X72.475 Y142.975 E18.98306
G1 X127.525 Y142.975 E23.38807
G1 X127.525 Y156.965 E24.50754
G1 X126.900 Y156.400 F3600.000
G1 X110.102 Y156.400 E25.85172 F600.000
G1 X110.102 Y143.600 E26.87599
G1 X126.900 Y143.600 E28.22017
G1 X126.900 Y156.340 E29.23963
G1 X123.735 Y151.660 F3600.000
G1 X123.442 Y151.856 E29.26785 F300.000
G1 X123.061 Y152.014 E29.30081
G1 X122.656 Y152.094 E29.33381
G1 X122.244 Y152.094 E29.36685
G1 X121.839 Y152.014 E29.39985
G1 X121.458 Y151.856 E29.43281
G1 X121.115 Y151.627 E29.46586
G1 X120.823 Y151.335 E29.49891
G1 X120.595 Y150.992 E29.53188
G1 X120.437 Y150.611 E29.56484
G1 X120.356 Y150.206 E29.59787
G1 X120.356 Y149.794 E29.63091
G1 X120.437 Y149.389 E29.66395
G1 X120.595 Y149.008 E29.69691
G1 X120.823 Y148.665 E29.72987
G1 X121.115 Y148.373 E29.76293
G1 X121.458 Y148.144 E29.79598
G1 X121.839 Y147.986 E29.82896
G1 X122.247 Y147.906 E29.86218 F300.000
G1 X122.657 Y147.906 E29.89505
G1 X123.100 Y147.996 E29.93117
G1 X123.444 Y148.145 E29.96121
G1 X123.785 Y148.373 E29.99402
G1 X124.077 Y148.665 E30.02704
G1 X124.306 Y149.008 E30.06009
G1 X124.464 Y149.389 E30.09305
G1 X124.544 Y149.794 E30.12604
G1 X124.544 Y150.206 E30.15909
G1 X124.464 Y150.611 E30.19208
G1 X124.306 Y150.992 E30.22505
G1 X124.077 Y151.335 E30.25809
G1 X123.785 Y151.627 E30.29114
G1 X123.778 Y152.010 F3600.000
G1 X124.082 Y152.180 F3600.000
G1 X123.737 Y152.410 E30.32430 F300.000
G1 X123.243 Y152.615 E30.36711
G1 X122.718 Y152.719 E30.40993
G1 X122.182 Y152.719 E30.45282
G1 X121.657 Y152.615 E30.49565
G1 X121.163 Y152.410 E30.53845
G1 X120.717 Y152.112 E30.58137
G1 X120.337 Y151.733 E30.62435
G1 X120.041 Y151.287 E30.66712
G1 X119.836 Y150.794 E30.70986
G1 X119.731 Y150.268 E30.75279
G1 X119.731 Y149.732 E30.79568
G1 X119.836 Y149.206 E30.83861
G1 X120.041 Y148.713 E30.88135
G1 X120.337 Y148.267 E30.92413
G1 X120.717 Y147.888 E30.96710
G1 X121.163 Y147.590 E31.01002
G1 X121.658 Y147.385 E31.05288
G1 X122.186 Y147.281 E31.09593 F300.000
G1 X122.721 Y147.281 E31.13874
G1 X123.288 Y147.397 E31.18512
G1 X123.744 Y147.594 E31.22488
G1 X124.183 Y147.888 E31.26712
G1 X124.562 Y148.267 E31.31001
G1 X124.860 Y148.713 E31.35293
G1 X125.065 Y149.207 E31.39573
G1 X125.169 Y149.732 E31.43856
G1 X125.169 Y150.268 E31.48145
G1 X125.065 Y150.793 E31.52427
G1 X124.860 Y151.287 E31.56708
G1 X124.562 Y151.733 E31.61000
G1 X124.132 Y152.147 E31.65776
G1 X124.429 Y152.700 F3600.000
G1 X124.033 Y152.964 E31.69586 F300.000
G1 X123.425 Y153.215 E31.74851
G1 X122.780 Y153.344 E31.80116
G1 X122.121 Y153.344 E31.85389
G1 X121.475 Y153.215 E31.90655
G1 X120.867 Y152.964 E31.95920
G1 X120.318 Y152.598 E32.01199
G1 X119.851 Y152.130 E32.06489
G1 X119.487 Y151.583 E32.11746
G1 X119.235 Y150.977 E32.16999
G1 X119.106 Y150.329 E32.22282
G1 X119.106 Y149.671 E32.27555
G1 X119.235 Y149.023 E32.32838
G1 X119.487 Y148.417 E32.38091
G1 X119.851 Y147.870 E32.43348
G1 X120.318 Y147.402 E32.48638
G1 X120.867 Y147.036 E32.53917
G1 X121.476 Y146.784 E32.59190
G1 X122.124 Y146.656 E32.64479 F300.000
G1 X122.784 Y146.656 E32.69754
G1 X123.477 Y146.798 E32.75416
G1 X124.044 Y147.043 E32.80365
G1 X124.582 Y147.402 E32.85534
G1 X125.048 Y147.868 E32.90808
G1 X125.414 Y148.417 E32.96087
G1 X125.665 Y149.025 E33.01353
G1 X125.794 Y149.671 E33.06618
G1 X125.794 Y150.329 E33.11891
G1 X125.665 Y150.975 E33.17157
G1 X125.414 Y151.583 E33.22422
G1 X125.048 Y152.132 E33.27701
G1 X124.582 Y152.598 E33.32975
G1 X124.479 Y152.666 E33.33964
G1 X120.623 Y154.705 F3600.000
G1 X117.399 Y153.568 F3600.000
G1 X115.449 Y152.363 F3600.000
G1 X114.703 Y151.799 F3600.000
G1 X109.502 Y156.377 F3600.000
G1 X90.497 Y156.377 F3600.000
G1 X89.897 Y156.400 F3600.000
G1 X73.100 Y156.400 E34.68374 F600.000
G1 X73.100 Y143.600 E35.70801
G1 X89.897 Y143.600 E37.05211
G1 X89.897 Y156.340 E38.07157
G1 X79.405 Y150.992 F3600.000
G1 X79.177 Y151.335 E38.10454 F300.000
G1 X78.885 Y151.627 E38.13760
G1 X78.542 Y151.856 E38.17064
G1 X78.161 Y152.014 E38.20360
G1 X77.756 Y152.094 E38.23660
G1 X77.344 Y152.094 E38.26964
G1 X76.939 Y152.014 E38.30264
G1 X76.558 Y151.856 E38.33560
G1 X76.215 Y151.627 E38.36865
G1 X75.923 Y151.335 E38.40167
G1 X75.694 Y150.992 E38.43472
G1 X75.536 Y150.611 E38.46768
G1 X75.456 Y150.206 E38.50068
G1 X75.456 Y149.794 E38.53372
G1 X75.536 Y149.389 E38.56672
G1 X75.694 Y149.008 E38.59968
G1 X75.923 Y148.665 E38.63273
G1 X76.215 Y148.373 E38.66575
G1 X76.558 Y148.144 E38.69880
G1 X76.939 Y147.986 E38.73178
G1 X77.347 Y147.906 E38.76500 F300.000
G1 X77.757 Y147.906 E38.79780
G1 X78.161 Y147.986 E38.83080
G1 X78.542 Y148.144 E38.86376
G1 X78.885 Y148.373 E38.89680
G1 X79.177 Y148.665 E38.92986
G1 X79.405 Y149.008 E38.96283
G1 X79.563 Y149.389 E38.99578
G1 X79.644 Y149.794 E39.02882
G1 X79.644 Y150.206 E39.06186
G1 X79.563 Y150.611 E39.09490
G1 X79.428 Y150.936 E39.12306
G1 X79.606 Y151.338 F3600.000
G1 X79.982 Y151.232 F3600.000
G1 X79.663 Y151.733 E39.17055 F300.000
G1 X79.283 Y152.112 E39.21353
G1 X78.837 Y152.410 E39.25645
G1 X78.343 Y152.615 E39.29926
G1 X77.818 Y152.719 E39.34208
G1 X77.282 Y152.719 E39.38497
G1 X76.757 Y152.615 E39.42780
G1 X76.263 Y152.410 E39.47060
G1 X75.817 Y152.112 E39.51352
G1 X75.438 Y151.733 E39.55641
G1 X75.140 Y151.287 E39.59932
G1 X74.935 Y150.793 E39.64213
G1 X74.831 Y150.268 E39.68496
G1 X74.831 Y149.732 E39.72784
G1 X74.935 Y149.207 E39.77067
G1 X75.140 Y148.713 E39.81348
G1 X75.438 Y148.267 E39.85640
G1 X75.817 Y147.888 E39.89928
G1 X76.263 Y147.590 E39.94220
G1 X76.758 Y147.385 E39.98505
G1 X77.286 Y147.281 E40.02811 F300.000
G1 X77.818 Y147.281 E40.07073
G1 X78.343 Y147.385 E40.11354
G1 X78.837 Y147.590 E40.15635
G1 X79.283 Y147.888 E40.19927
G1 X79.663 Y148.267 E40.24225
G1 X79.959 Y148.713 E40.28501
G1 X80.164 Y149.206 E40.32776
G1 X80.269 Y149.732 E40.37069
G1 X80.269 Y150.268 E40.41358
G1 X80.164 Y150.794 E40.45651
G1 X80.005 Y151.176 E40.48964
G1 X80.559 Y151.472 F3600.000
G1 X80.513 Y151.583 E40.49926 F300.000
G1 X80.149 Y152.130 E40.55183
G1 X79.682 Y152.598 E40.60473
G1 X79.133 Y152.964 E40.65752
G1 X78.525 Y153.215 E40.71018
G1 X77.879 Y153.344 E40.76283
G1 X77.221 Y153.344 E40.81556
G1 X76.575 Y153.215 E40.86822
G1 X75.967 Y152.964 E40.92087
G1 X75.418 Y152.598 E40.97366
G1 X74.952 Y152.132 E41.02641
G1 X74.586 Y151.583 E41.07919
G1 X74.335 Y150.975 E41.13185
G1 X74.206 Y150.329 E41.18450
G1 X74.206 Y149.671 E41.23723
G1 X74.335 Y149.025 E41.28989
G1 X74.586 Y148.417 E41.34254
G1 X74.952 Y147.868 E41.39533
G1 X75.418 Y147.402 E41.44808
G1 X75.967 Y147.036 E41.50086
G1 X76.576 Y146.784 E41.55359
G1 X77.225 Y146.656 E41.60649 F300.000
G1 X77.880 Y146.656 E41.65893
G1 X78.525 Y146.785 E41.71156
G1 X79.133 Y147.036 E41.76421
G1 X79.682 Y147.402 E41.81700
G1 X80.149 Y147.870 E41.86990
G1 X80.513 Y148.417 E41.92247
G1 X80.765 Y149.023 E41.97500
G1 X80.894 Y149.670 E42.02783
G1 X80.894 Y150.329 E42.08056
G1 X80.765 Y150.977 E42.13339
G1 X80.582 Y151.417 E42.17150
G1 X91.147 Y155.103 F3600.000
G1 X91.147 Y144.898 E42.98808 F300.000
G1 X108.852 Y144.898 E44.40480
G1 X108.852 Y155.103 E45.22139
G1 X91.207 Y155.103 E46.63330
G1 X90.747 Y155.103 F3600.000
G1 X90.522 Y155.728 F3600.000
G1 X90.522 Y144.273 E47.54989 F600.000
G1 X109.477 Y144.273 E49.06662
G1 X109.477 Y155.728 E49.98320
G1 X90.582 Y155.728 E51.49513
G1 X90.210 Y156.377 F3600.000
G1 X109.789 Y156.376 E54.81689 F600.000
G1 X110.723 Y156.084 F3600.000
G1 X110.418 Y155.779 E54.85183 F450.000
G1 X110.418 Y154.885 E54.92425
G1 X111.617 Y156.084 E55.06161
G1 X112.512 Y156.084 E55.13403
G1 X110.418 Y153.990 E55.37381
G1 X110.418 Y153.096 E55.44623
G1 X113.406 Y156.084 E55.78843
G1 X114.300 Y156.084 E55.86085
G1 X110.418 Y152.202 E56.30547
G1 X110.418 Y151.307 E56.37789
G1 X115.195 Y156.084 E56.92493
G1 X116.089 Y156.084 E56.99735
G1 X110.418 Y150.413 E57.64681
G1 X110.418 Y149.519 E57.71923
G1 X116.983 Y156.084 E58.47111
G1 X117.878 Y156.084 E58.54353
G1 X110.418 Y148.624 E59.39783
G1 X110.418 Y147.730 E59.47025
G1 X118.772 Y156.084 E60.42697
G1 X119.666 Y156.084 E60.49939
G1 X110.418 Y146.836 E61.55852
G1 X110.418 Y145.941 E61.63094
G1 X120.561 Y156.084 E62.79250
G1 X121.455 Y156.084 E62.86492
G1 X110.418 Y145.047 E64.12890
G1 X110.418 Y144.153 E64.20132
G1 X122.349 Y156.084 E65.56771
G1 X126.584 Y152.270 F3600.000
G1 X126.216 Y151.902 E65.60982 F450.000
G1 X125.440 Y152.021 E65.67339
G1 X126.584 Y153.164 E65.80437
G1 X126.584 Y154.059 E65.87680
G1 X125.037 Y152.512 E66.05396
G1 X124.561 Y152.930 E66.10527
G1 X126.584 Y154.953 E66.33696
G1 X126.584 Y155.847 E66.40938
G1 X124.009 Y153.272 E66.70428
G1 X123.368 Y153.525 E66.76011
G1 X125.927 Y156.084 E67.05314
G1 X125.032 Y156.084 E67.12556
G1 X122.608 Y153.660 E67.40319
G1 X121.657 Y153.603 E67.48038
G1 X124.138 Y156.084 E67.76454
G1 X123.244 Y156.084 E67.83696
G1 X111.075 Y143.916 E69.23048
G1 X111.970 Y143.916 E69.30290
G1 X118.847 Y150.793 E70.09053
G1 X118.790 Y149.842 E70.16771
G1 X112.864 Y143.916 E70.84637
G1 X113.758 Y143.916 E70.91879
G1 X118.925 Y149.082 E71.51045
G1 X119.179 Y148.442 E71.56623
G1 X114.653 Y143.916 E72.08455
G1 X115.547 Y143.916 E72.15697
G1 X119.520 Y147.889 E72.61197
G1 X119.938 Y147.413 E72.66329
G1 X116.441 Y143.916 E73.06376
G1 X117.336 Y143.916 E73.13619
G1 X120.429 Y147.010 E73.49049
G1 X120.998 Y146.684 E73.54354
G1 X118.230 Y143.916 E73.86051
G1 X119.124 Y143.916 E73.93293
G1 X121.658 Y146.450 E74.22310
G1 X122.443 Y146.340 E74.28726
G1 X120.019 Y143.916 E74.56488
G1 X120.913 Y143.916 E74.63730
G1 X123.434 Y146.436 E74.92596
G1 X126.071 Y148.179 F3600.000
G1 X121.807 Y143.916 E75.41420 F450.000
G1 X122.702 Y143.916 E75.48662
G1 X126.584 Y147.798 E75.93124
G1 X126.584 Y146.904 E76.00366
G1 X123.596 Y143.916 E76.34586
G1 X124.490 Y143.916 E76.41828
G1 X126.584 Y146.010 E76.65807
G1 X126.584 Y145.115 E76.73049
G1 X125.385 Y143.916 E76.86785
G1 X126.279 Y143.916 E76.94027
G1 X126.584 Y144.221 E76.97521
G1 X126.194 Y148.453 F3600.000
G1 X126.274 Y148.873 E77.04768 F600.000
G1 X126.347 Y149.640 E77.17837
G1 X126.345 Y150.408 E77.30865
G1 X126.274 Y151.127 E77.43130
G1 X126.194 Y151.547 E77.50376
G1 X126.256 Y148.781 F3600.000
G1 X121.109 Y145.216 F3600.000
G1 X117.672 Y146.294 F3600.000
G1 X115.721 Y147.446 F3600.000
G1 X114.711 Y148.195 F3600.000
G1 X110.750 Y144.248 F3600.000
G1 X109.502 Y143.624 F3600.000
G1 X109.789 Y143.624 F3600.000
G1 X90.210 Y143.624 E80.82552 F600.000
G1 X89.581 Y144.221 F3600.000
G1 X89.276 Y143.916 E80.86046 F450.000
G1 X88.382 Y143.916 E80.93288
