; generated by Slic3r 1.2.9 on 2017-07-22 at 22:34:53

; external perimeters extrusion width = 0.40mm
; perimeters extrusion width = 0.48mm
; infill extrusion width = 0.48mm
; solid infill extrusion width = 0.48mm
; top infill extrusion width = 0.48mm

M107
M190 S60 ; set bed temperature
M104 S215 ; set temperature
G21 ; set units to millimeters
G90 ; use absolute coordinates
M203 Z4; max speed min/sec
G1 Z20 F200;
G28 X F2000;
G1 X140 F2000;
G28 Y F2000;
G1 Y140 F2000;
G28 Z F200;
G1 Z5 F500 ; lift nozzle

M109 S215 ; wait for temperature to be reached
G21 ; set units to millimeters
G90 ; use absolute coordinates
M82 ; use absolute distances for extrusion
G92 E0
G1 Z0.200 F3600.000
G1 E-2.00000 F2400.00000
G92 E0
G1 X74.006 Y125.164 F3600.000
G1 E2.00000 F2400.00000
G1 X125.994 Y125.164 E6.01821 F900.000
G1 X130.936 Y130.106 E6.55836
G1 X130.936 Y143.094 E7.56225 F900.000
G1 X125.994 Y148.036 E8.10240
G1 X117.802 Y148.036 E8.73558
G1 X117.436 Y148.402 E8.77559
G1 X117.436 Y169.894 E10.43673
G1 X112.494 Y174.836 E10.97688
G1 X87.506 Y174.836 E12.90826
G1 X82.564 Y169.894 E13.44841
G1 X82.564 Y148.402 E15.10955
G1 X82.198 Y148.036 E15.14956
G1 X74.006 Y148.036 E15.78274
G1 X69.064 Y143.094 E16.32289
G1 X69.064 Y130.106 E17.32678
G1 X73.963 Y125.206 E17.86229
G1 X74.265 Y125.789 F3600.000
G1 X125.735 Y125.789 E21.84049 F900.000
G1 X130.311 Y130.365 E22.34063 F900.000
G1 X130.311 Y142.835 E23.30451
G1 X125.735 Y147.411 E23.80465
G1 X117.177 Y147.411 E24.46612
G1 X116.811 Y147.777 E24.50613
G1 X116.811 Y169.635 E26.19556
G1 X112.235 Y174.211 E26.69570
G1 X87.765 Y174.211 E28.58707
G1 X83.189 Y169.635 E29.08721
G1 X83.189 Y147.777 E30.77664
G1 X82.823 Y147.411 E30.81665
G1 X74.265 Y147.411 E31.47812
G1 X69.689 Y142.835 E31.97826
G1 X69.689 Y130.365 E32.94214
G1 X74.222 Y125.831 E33.43764
G1 X74.523 Y126.414 F3600.000
G1 X125.477 Y126.414 E37.37583 F900.000
G1 X129.686 Y130.623 E37.83596
G1 X129.686 Y142.577 E38.75983 F900.000
G1 X125.477 Y146.786 E39.21996
G1 X116.552 Y146.786 E39.90972
G1 X116.186 Y147.152 E39.94973
G1 X116.186 Y169.377 E41.66746
G1 X111.977 Y173.586 E42.12758
G1 X88.023 Y173.586 E43.97894
G1 X83.814 Y169.377 E44.43906
G1 X83.814 Y147.152 E46.15679
G1 X83.448 Y146.786 E46.19680
G1 X74.523 Y146.786 E46.88656
G1 X70.314 Y142.577 E47.34669
G1 X70.314 Y130.623 E48.27056
G1 X74.481 Y126.456 E48.72605
G1 X74.782 Y127.039 F3600.000
G1 X125.218 Y127.039 E52.62423 F900.000
G1 X129.061 Y130.882 E53.04434 F900.000
G1 X129.061 Y142.318 E53.92820
G1 X125.218 Y146.161 E54.34832
G1 X115.927 Y146.161 E55.06638
G1 X115.561 Y146.527 E55.10639
G1 X115.561 Y169.118 E56.85240
G1 X111.718 Y172.961 E57.27252
G1 X88.282 Y172.961 E59.08386
G1 X84.439 Y169.118 E59.50398
G1 X84.439 Y146.527 E61.24999
G1 X84.073 Y146.161 E61.29000
G1 X74.782 Y146.161 E62.00806
G1 X70.939 Y142.318 E62.42818
G1 X70.939 Y130.882 E63.31204
G1 X74.740 Y127.081 E63.72752
G1 X75.041 Y127.664 F3600.000
G1 X124.959 Y127.664 E67.58568 F900.000
G1 X128.436 Y131.141 E67.96579
G1 X128.436 Y142.059 E68.80963 F900.000
G1 X124.959 Y145.536 E69.18974
G1 X115.302 Y145.536 E69.93609
G1 X114.936 Y145.903 E69.97610
G1 X114.936 Y168.859 E71.75041
G1 X111.459 Y172.336 E72.13051
G1 X88.541 Y172.336 E73.90184
G1 X85.064 Y168.859 E74.28195
G1 X85.064 Y145.903 E76.05626
G1 X84.698 Y145.536 E76.09627
G1 X75.041 Y145.536 E76.84262
G1 X71.564 Y142.059 E77.22272
G1 X71.564 Y131.141 E78.06657
G1 X74.999 Y127.706 E78.44204
G1 X75.300 Y128.288 F3600.000
G1 X124.700 Y128.288 E82.26019 F900.000
G1 X127.812 Y131.400 E82.60028 F900.000
G1 X127.812 Y141.800 E83.40412
G1 X124.700 Y144.912 E83.74422
G1 X114.678 Y144.912 E84.51886
G1 X114.312 Y145.278 E84.55887
G1 X114.312 Y168.600 E86.36147
G1 X111.200 Y171.712 E86.70156
G1 X88.800 Y171.712 E88.43288
G1 X85.688 Y168.600 E88.77298
G1 X85.688 Y145.278 E90.57558
G1 X85.322 Y144.912 E90.61559
G1 X75.300 Y144.912 E91.39023
G1 X72.188 Y141.800 E91.73032
G1 X72.188 Y131.400 E92.53416
G1 X75.257 Y128.331 E92.86962
G1 X75.559 Y128.913 F3600.000
G1 X124.441 Y128.913 E96.64776 F900.000
G1 X127.187 Y131.659 E96.94784
G1 X127.187 Y141.541 E97.71167 F900.000
G1 X124.441 Y144.287 E98.01175
G1 X114.053 Y144.287 E98.81468
G1 X113.687 Y144.653 E98.85469
G1 X113.687 Y168.341 E100.68559
G1 X110.941 Y171.087 E100.98567
G1 X89.059 Y171.087 E102.67698
G1 X86.313 Y168.341 E102.97706
G1 X86.313 Y144.653 E104.80795
G1 X85.947 Y144.287 E104.84796
G1 X75.559 Y144.287 E105.65090
G1 X72.813 Y141.541 E105.95098
G1 X72.813 Y131.659 E106.71481
G1 X75.516 Y128.956 E107.01025
G1 X75.818 Y129.538 F3600.000
G1 X124.182 Y129.538 E110.74838 F900.000
G1 X126.562 Y131.918 E111.00845 F900.000
G1 X126.562 Y141.282 E111.73227
G1 X124.182 Y143.662 E111.99234
G1 X113.428 Y143.662 E112.82357
G1 X113.062 Y144.028 E112.86358
G1 X113.062 Y168.082 E114.72276
G1 X110.682 Y170.462 E114.98283
G1 X89.318 Y170.462 E116.63413
G1 X86.938 Y168.082 E116.89420
G1 X86.938 Y144.028 E118.75339
G1 X86.572 Y143.662 E118.79340
G1 X75.818 Y143.662 E119.62462
G1 X73.438 Y141.282 E119.88470
G1 X73.438 Y131.918 E120.60851
G1 X75.775 Y129.581 E120.86394
G1 X76.076 Y130.163 F3600.000
G1 X123.924 Y130.163 E124.56206 F900.000
G1 X125.937 Y132.176 E124.78212
G1 X125.937 Y141.024 E125.46593 F900.000
G1 X123.924 Y143.037 E125.68599
G1 X112.803 Y143.037 E126.54550
G1 X112.437 Y143.403 E126.58552
G1 X112.437 Y167.824 E128.47299
G1 X110.424 Y169.837 E128.69305
G1 X89.576 Y169.837 E130.30434
G1 X87.563 Y167.824 E130.52440
G1 X87.563 Y143.403 E132.41188
G1 X87.197 Y143.037 E132.45189
G1 X76.076 Y143.037 E133.31141
G1 X74.063 Y141.024 E133.53147
G1 X74.063 Y132.176 E134.21527
G1 X76.034 Y130.206 E134.43069
G1 X76.335 Y130.788 F3600.000
G1 X123.665 Y130.788 E138.08880 F900.000
G1 X125.312 Y132.435 E138.26885 F900.000
G1 X125.312 Y140.765 E138.91264
G1 X123.665 Y142.412 E139.09269
G1 X112.178 Y142.412 E139.98050
G1 X111.812 Y142.778 E140.02051
G1 X111.812 Y167.565 E141.93628
G1 X110.165 Y169.212 E142.11633
G1 X89.835 Y169.212 E143.68760
G1 X88.188 Y167.565 E143.86766
G1 X88.188 Y142.778 E145.78342
G1 X87.822 Y142.412 E145.82344
G1 X76.335 Y142.412 E146.71125
G1 X74.688 Y140.765 E146.89130
G1 X74.688 Y132.435 E147.53509
G1 X76.293 Y130.830 E147.71050
G1 X76.594 Y131.413 F3600.000
G1 X123.406 Y131.413 E151.32859 F900.000
G1 X124.687 Y132.694 E151.46863
G1 X124.687 Y140.506 E152.07241 F900.000
G1 X123.406 Y141.787 E152.21245
G1 X111.553 Y141.787 E153.12856
G1 X111.187 Y142.153 E153.16857
G1 X111.187 Y167.306 E155.11263
G1 X109.906 Y168.587 E155.25267
G1 X90.094 Y168.587 E156.78393
G1 X88.813 Y167.306 E156.92397
G1 X88.813 Y142.153 E158.86803
G1 X88.447 Y141.787 E158.90804
G1 X76.594 Y141.787 E159.82414
G1 X75.313 Y140.506 E159.96418
G1 X75.313 Y132.694 E160.56796
G1 X76.552 Y131.455 E160.70336
G1 X76.853 Y132.038 F3600.000
G1 X123.147 Y132.038 E164.28145 F900.000
G1 X124.062 Y132.953 E164.38147 F900.000
G1 X124.062 Y140.247 E164.94524
G1 X123.147 Y141.162 E165.04527
G1 X110.928 Y141.162 E165.98967
G1 X110.562 Y141.528 E166.02968
G1 X110.562 Y167.047 E168.00203
G1 X109.647 Y167.962 E168.10206
G1 X90.353 Y167.962 E169.59331
G1 X89.438 Y167.047 E169.69334
G1 X89.438 Y141.528 E171.66569
G1 X89.072 Y141.162 E171.70570
G1 X76.853 Y141.162 E172.65010
G1 X75.938 Y140.247 E172.75012
G1 X75.938 Y132.953 E173.31389
G1 X76.810 Y132.080 E173.40928
G1 X77.112 Y132.663 F3600.000
G1 X122.888 Y132.663 E176.94736 F900.000
G1 X123.437 Y133.212 E177.00737
G1 X123.437 Y139.988 E177.53113 F900.000
G1 X122.888 Y140.537 E177.59115
G1 X110.303 Y140.537 E178.56383
G1 X109.937 Y140.903 E178.60384
G1 X109.937 Y166.788 E180.60449
G1 X109.388 Y167.337 E180.66451
G1 X100.452 Y167.337 E181.35521
G1 X100.259 Y167.144 E181.37630
G1 X99.741 Y167.144 E181.41631
G1 X99.548 Y167.337 E181.43739
G1 X90.612 Y167.337 E182.12810
G1 X90.063 Y166.788 E182.18811
G1 X90.063 Y140.903 E184.18876
G1 X89.697 Y140.537 E184.22877
G1 X77.112 Y140.537 E185.20146
G1 X76.563 Y139.988 E185.26147
G1 X76.563 Y133.212 E185.78523
G1 X77.069 Y132.705 E185.84061
G1 X77.188 Y133.471 F3600.000
G1 X77.371 Y133.288 E185.86062 F900.000
G1 X122.629 Y133.288 E189.35868
G1 X122.812 Y133.471 E189.37868
G1 X122.812 Y139.729 E189.86243
G1 X122.629 Y139.912 E189.88244
G1 X109.678 Y139.912 E190.88341
G1 X109.312 Y140.279 E190.92343
G1 X109.312 Y166.529 E192.95236
G1 X109.129 Y166.712 E192.97237
G1 X100.711 Y166.712 E193.62306
G1 X100.259 Y166.261 E193.67244
G1 X99.741 Y166.261 E193.71245
G1 X99.289 Y166.712 E193.76183
G1 X90.871 Y166.712 E194.41252
G1 X90.688 Y166.529 E194.43253
G1 X90.688 Y140.278 E196.46147
G1 X90.322 Y139.912 E196.50148
G1 X77.371 Y139.912 E197.50246
G1 X77.188 Y139.729 E197.52246
G1 X77.188 Y133.531 E198.00157
G1 E196.00157 F2400.00000
G92 E0
G1 X97.154 Y150.954 F3600.000
G1 E2.00000 F2400.00000
G1 X97.538 Y150.593 E2.04075 F900.000
G1 X97.935 Y150.309 E2.07846
G1 X98.363 Y150.076 E2.11618
G1 X98.818 Y149.898 E2.15389
G1 X99.291 Y149.779 E2.19161
G1 X99.776 Y149.721 E2.22932
G1 X100.264 Y149.723 E2.26704
G1 X100.747 Y149.787 E2.30475 F900.000
G1 X101.182 Y149.898 E2.33944
G1 X101.672 Y150.092 E2.38019
G1 X102.065 Y150.309 E2.41487
G1 X102.462 Y150.593 E2.45258
G1 X102.819 Y150.926 E2.49030
G1 X103.155 Y151.332 E2.53105
G1 X103.415 Y151.745 E2.56876
G1 X103.606 Y152.151 E2.60345
G1 X103.769 Y152.653 E2.64419
G1 X103.858 Y153.132 E2.68191
G1 X103.886 Y153.580 E2.71660
G1 X103.853 Y154.106 E2.75734
G1 X103.769 Y154.547 E2.79203
G1 X103.620 Y155.012 E2.82974
G1 X103.396 Y155.489 E2.87049
G1 X103.132 Y155.900 E2.90820
G1 X102.846 Y156.246 E2.94289
G1 X102.462 Y156.607 E2.98364
G1 X102.099 Y156.870 E3.01832
G1 X101.672 Y157.108 E3.05603
G1 X101.182 Y157.302 E3.09678
G1 X100.659 Y157.436 E3.13855
G1 X100.306 Y157.891 E3.18300
G1 X99.694 Y157.890 E3.23033
G1 X99.341 Y157.436 E3.27478
G1 X98.818 Y157.302 E3.31655
G1 X98.363 Y157.124 E3.35427
G1 X97.935 Y156.891 E3.39198
G1 X97.538 Y156.607 E3.42970
G1 X97.181 Y156.274 E3.46741
G1 X96.868 Y155.900 E3.50513
G1 X96.604 Y155.489 E3.54284
G1 X96.394 Y155.049 E3.58056
G1 X96.241 Y154.585 E3.61828
G1 X96.142 Y154.068 E3.65902
G1 X96.114 Y153.580 E3.69674
G1 X96.147 Y153.094 E3.73445
G1 X96.241 Y152.615 E3.77217
G1 X96.394 Y152.151 E3.80988
G1 X96.604 Y151.711 E3.84761
G1 X96.845 Y151.332 E3.88229
G1 X97.116 Y151.001 E3.91537
G1 X97.610 Y151.383 F3600.000
G1 X97.937 Y151.076 E3.95004 F900.000
G1 X98.270 Y150.837 E3.98167
G1 X98.630 Y150.642 E4.01331
G1 X99.011 Y150.494 E4.04494
G1 X99.409 Y150.394 E4.07659
G1 X99.776 Y150.348 E4.10520
G1 X100.185 Y150.346 E4.13683
G1 X100.591 Y150.394 E4.16847 F900.000
G1 X101.026 Y150.506 E4.20314
G1 X101.406 Y150.659 E4.23478
G1 X101.730 Y150.837 E4.26339
G1 X102.063 Y151.076 E4.29502
G1 X102.390 Y151.383 E4.32969
G1 X102.626 Y151.668 E4.35830
G1 X102.847 Y152.012 E4.38994
G1 X103.023 Y152.382 E4.42158
G1 X103.162 Y152.808 E4.45625
G1 X103.231 Y153.172 E4.48486
G1 X103.260 Y153.580 E4.51649
G1 X103.236 Y153.989 E4.54813
G1 X103.152 Y154.430 E4.58280
G1 X103.038 Y154.782 E4.61141
G1 X102.866 Y155.153 E4.64305
G1 X102.626 Y155.532 E4.67771
G1 X102.390 Y155.817 E4.70633
G1 X102.093 Y156.099 E4.73796
G1 X101.730 Y156.363 E4.77263
G1 X101.370 Y156.558 E4.80427
G1 X100.989 Y156.706 E4.83590
G1 X100.079 Y156.940 E4.90850
G1 X99.921 Y156.940 E4.92071
G1 X98.974 Y156.694 E4.99632
G1 X98.630 Y156.558 E5.02493
G1 X98.270 Y156.363 E5.05657
G1 X97.907 Y156.099 E5.09123
G1 X97.637 Y155.846 E5.11984
G1 X97.374 Y155.532 E5.15148
G1 X97.134 Y155.153 E5.18615
G1 X96.977 Y154.818 E5.21476
G1 X96.848 Y154.430 E5.24639
G1 X96.769 Y154.028 E5.27803
G1 X96.740 Y153.580 E5.31270
G1 X96.764 Y153.211 E5.34131
G1 X96.838 Y152.808 E5.37295
G1 X96.962 Y152.418 E5.40459
G1 X97.153 Y152.012 E5.43926
G1 X97.351 Y151.700 E5.46786
G1 X97.572 Y151.429 E5.49487
G1 X98.067 Y151.812 F3600.000
G1 X98.337 Y151.558 E5.52346 F900.000
G1 X98.605 Y151.366 E5.54901
G1 X98.896 Y151.209 E5.57457
G1 X99.205 Y151.089 E5.60013
G1 X99.526 Y151.010 E5.62570
G1 X99.854 Y150.971 E5.65126
G1 X100.185 Y150.973 E5.67682
G1 X100.513 Y151.017 E5.70238 F900.000
G1 X100.795 Y151.089 E5.72492
G1 X101.104 Y151.209 E5.75048
G1 X101.395 Y151.366 E5.77604
G1 X101.694 Y151.583 E5.80463
G1 X101.933 Y151.812 E5.83019
G1 X102.119 Y152.036 E5.85272
G1 X102.298 Y152.314 E5.87828
G1 X102.456 Y152.649 E5.90687
G1 X102.546 Y152.926 E5.92940
G1 X102.610 Y153.250 E5.95497
G1 X102.633 Y153.580 E5.98053
G1 X102.610 Y153.950 E6.00912
G1 X102.546 Y154.274 E6.03468
G1 X102.456 Y154.551 E6.05721
G1 X102.317 Y154.851 E6.08277
G1 X102.119 Y155.164 E6.11136
G1 X101.933 Y155.388 E6.13390
G1 X101.694 Y155.617 E6.15946
G1 X101.395 Y155.834 E6.18804
G1 X101.104 Y155.991 E6.21360
G1 X100.795 Y156.111 E6.23916
G1 X100.079 Y156.295 E6.29632
G1 X99.921 Y156.295 E6.30853
G1 X99.168 Y156.098 E6.36870
G1 X98.896 Y155.991 E6.39123
G1 X98.605 Y155.834 E6.41679
G1 X98.306 Y155.617 E6.44538
G1 X98.094 Y155.417 E6.46791
G1 X97.881 Y155.164 E6.49348
G1 X97.683 Y154.852 E6.52206
G1 X97.559 Y154.588 E6.54460
G1 X97.454 Y154.274 E6.57016
G1 X97.390 Y153.950 E6.59572
G1 X97.367 Y153.580 E6.62431
G1 X97.385 Y153.289 E6.64684
G1 X97.444 Y152.964 E6.67240
G1 X97.544 Y152.649 E6.69796
G1 X97.702 Y152.314 E6.72656
G1 X97.858 Y152.068 E6.74908
G1 X98.029 Y151.858 E6.77001
G1 X98.523 Y152.240 F3600.000
G1 X98.736 Y152.041 E6.79253 F900.000
G1 X98.941 Y151.895 E6.81200
G1 X99.163 Y151.775 E6.83148
G1 X99.398 Y151.685 E6.85097
G1 X99.643 Y151.625 E6.87046
G1 X99.894 Y151.595 E6.88994
G1 X100.106 Y151.595 E6.90640
G1 X100.395 Y151.632 E6.92891 F900.000
G1 X100.639 Y151.697 E6.94840
G1 X100.873 Y151.792 E6.96789
G1 X101.059 Y151.895 E6.98433
G1 X101.264 Y152.041 E7.00381
G1 X101.477 Y152.240 E7.02632
G1 X101.612 Y152.404 E7.04279
G1 X101.750 Y152.616 E7.06226
G1 X101.859 Y152.843 E7.08175
G1 X101.949 Y153.120 E7.10427
G1 X101.989 Y153.329 E7.12072
G1 X102.007 Y153.580 E7.14020
G1 X101.994 Y153.832 E7.15969
G1 X101.939 Y154.118 E7.18220
G1 X101.859 Y154.357 E7.20169
G1 X101.768 Y154.550 E7.21814
G1 X101.612 Y154.796 E7.24065
G1 X101.477 Y154.960 E7.25711
G1 X101.295 Y155.134 E7.27659
G1 X101.092 Y155.284 E7.29608
G1 X100.837 Y155.425 E7.31858
G1 X100.602 Y155.515 E7.33807
G1 X100.079 Y155.649 E7.37979
G1 X99.921 Y155.649 E7.39199
G1 X99.361 Y155.503 E7.43673
G1 X99.163 Y155.425 E7.45318
G1 X98.941 Y155.305 E7.47267
G1 X98.705 Y155.134 E7.49517
G1 X98.550 Y154.988 E7.51163
G1 X98.388 Y154.796 E7.53112
G1 X98.232 Y154.550 E7.55363
G1 X98.141 Y154.357 E7.57008
G1 X98.061 Y154.118 E7.58957
G1 X98.011 Y153.871 E7.60905
G1 X97.993 Y153.580 E7.63156
G1 X98.006 Y153.368 E7.64802
G1 X98.051 Y153.120 E7.66750
G1 X98.126 Y152.879 E7.68699
G1 X98.250 Y152.616 E7.70950
G1 X98.485 Y152.286 E7.74076
G1 X98.980 Y152.669 F3600.000
G1 X99.135 Y152.523 E7.75719 F900.000
G1 X99.430 Y152.342 E7.78394
G1 X99.761 Y152.240 E7.81072
G1 X100.106 Y152.223 E7.83747
G1 X100.278 Y152.247 E7.85088 F900.000
G1 X100.570 Y152.342 E7.87464
G1 X100.757 Y152.444 E7.89107
G1 X100.896 Y152.548 E7.90447
G1 X101.020 Y152.669 E7.91787
G1 X101.201 Y152.917 E7.94162
G1 X101.291 Y153.110 E7.95806
G1 X101.368 Y153.407 E7.98181
G1 X101.381 Y153.580 E7.99522
G1 X101.368 Y153.793 E8.01166
G1 X101.333 Y153.963 E8.02506
G1 X101.220 Y154.248 E8.04881
G1 X101.106 Y154.428 E8.06524
G1 X100.896 Y154.652 E8.08900
G1 X100.757 Y154.756 E8.10240
G1 X100.570 Y154.858 E8.11883
G1 X100.408 Y154.920 E8.13224
G1 X100.079 Y155.004 E8.15851
G1 X99.921 Y155.004 E8.17072
G1 X99.554 Y154.908 E8.20002
G1 X99.276 Y154.777 E8.22377
G1 X99.104 Y154.652 E8.24020
G1 X98.894 Y154.428 E8.26395
G1 X98.780 Y154.248 E8.28038
G1 X98.667 Y153.963 E8.30413
G1 X98.632 Y153.793 E8.31754
G1 X98.619 Y153.580 E8.33398
G1 X98.657 Y153.276 E8.35772
G1 X98.709 Y153.110 E8.37113
G1 X98.799 Y152.917 E8.38757
G1 X98.942 Y152.715 E8.40670
G1 X99.436 Y153.097 F3600.000
G1 X99.534 Y153.006 E8.41705 F900.000
G1 X99.696 Y152.908 E8.43167
G1 X99.839 Y152.862 E8.44330
G1 X100.028 Y152.845 E8.45793
G1 X100.252 Y152.888 E8.47558 F900.000
G1 X100.466 Y153.006 E8.49446
G1 X100.564 Y153.097 E8.50481
G1 X100.652 Y153.219 E8.51643
G1 X100.736 Y153.431 E8.53408
G1 X100.752 Y153.675 E8.55297
