; generated by Slic3r 1.2.9 on 2017-08-13 at 11:03:21

; external perimeters extrusion width = 0.40mm
; perimeters extrusion width = 0.48mm
; infill extrusion width = 0.48mm
; solid infill extrusion width = 0.48mm
; top infill extrusion width = 0.48mm

M107
M190 S70 ; set bed temperature
M104 S240 ; set temperature
G21 ; set units to millimeters
G90 ; use absolute coordinates
M203 Z4; max speed min/sec
G1 Z20 F200;
G28 X F2000;
G1 X140 F2000;
G28 Y F2000;
G1 Y140 F2000;
G28 Z F200;
G1 Z5 F500 ; lift nozzle

M109 S240 ; wait for temperature to be reached
G21 ; set units to millimeters
G90 ; use absolute coordinates
M82 ; use absolute distances for extrusion
G92 E0
G1 Z0.200 F3600.000
G1 E-2.00000 F2400.00000
G92 E0
G1 X74.006 Y125.164 F3600.000
G1 E2.00000 F2400.00000
G1 X125.994 Y125.164 E6.16003 F900.000
G1 X130.936 Y130.106 E6.71924
G1 X130.936 Y143.094 E7.75856 F900.000
G1 X125.994 Y148.036 E8.31778
G1 X117.802 Y148.036 E8.97331
G1 X117.436 Y148.402 E9.01473
G1 X117.436 Y169.894 E10.73450
G1 X112.494 Y174.836 E11.29371
G1 X87.506 Y174.836 E13.29325
G1 X82.564 Y169.894 E13.85247
G1 X82.564 Y148.402 E15.57224
G1 X82.198 Y148.036 E15.61366
G1 X74.006 Y148.036 E16.26919
G1 X69.064 Y143.094 E16.82840
G1 X69.064 Y130.106 E17.86773
G1 X73.963 Y125.206 E18.42214
G1 X74.265 Y125.789 F3600.000
G1 X125.735 Y125.789 E22.54074 F900.000
G1 X130.311 Y130.365 E23.05853 F900.000
G1 X130.311 Y142.835 E24.05643
G1 X125.735 Y147.411 E24.57423
G1 X117.177 Y147.411 E25.25904
G1 X116.811 Y147.777 E25.30047
G1 X116.811 Y169.635 E27.04953
G1 X112.235 Y174.211 E27.56732
G1 X87.765 Y174.211 E29.52543
G1 X83.189 Y169.635 E30.04323
G1 X83.189 Y147.777 E31.79228
G1 X82.823 Y147.411 E31.83371
G1 X74.265 Y147.411 E32.51853
G1 X69.689 Y142.835 E33.03632
G1 X69.689 Y130.365 E34.03422
G1 X74.222 Y125.831 E34.54721
G1 X74.523 Y126.414 F3600.000
G1 X125.477 Y126.414 E38.62439 F900.000
G1 X129.686 Y130.623 E39.10076
G1 X129.686 Y142.577 E40.05723 F900.000
G1 X125.477 Y146.786 E40.53360
G1 X116.552 Y146.786 E41.24771
G1 X116.186 Y147.152 E41.28913
G1 X116.186 Y169.377 E43.06748
G1 X111.977 Y173.586 E43.54385
G1 X88.023 Y173.586 E45.46054
G1 X83.814 Y169.377 E45.93691
G1 X83.814 Y147.152 E47.71526
G1 X83.448 Y146.786 E47.75669
G1 X74.523 Y146.786 E48.47079
G1 X70.314 Y142.577 E48.94716
G1 X70.314 Y130.623 E49.90364
G1 X74.481 Y126.456 E50.37521
G1 X74.782 Y127.039 F3600.000
G1 X125.218 Y127.039 E54.41096 F900.000
G1 X129.061 Y130.882 E54.84591 F900.000
G1 X129.061 Y142.318 E55.76096
G1 X125.218 Y146.161 E56.19591
G1 X115.927 Y146.161 E56.93931
G1 X115.561 Y146.527 E56.98073
G1 X115.561 Y169.118 E58.78837
G1 X111.718 Y172.961 E59.22331
G1 X88.282 Y172.961 E61.09858
G1 X84.439 Y169.118 E61.53353
G1 X84.439 Y146.527 E63.34117
G1 X84.073 Y146.161 E63.38259
G1 X74.782 Y146.161 E64.12599
G1 X70.939 Y142.318 E64.56094
G1 X70.939 Y130.882 E65.47599
G1 X74.740 Y127.081 E65.90613
G1 X75.041 Y127.664 F3600.000
G1 X124.959 Y127.664 E69.90047 F900.000
G1 X128.436 Y131.141 E70.29399
G1 X128.436 Y142.059 E71.16762 F900.000
G1 X124.959 Y145.536 E71.56114
G1 X115.302 Y145.536 E72.33383
G1 X114.936 Y145.903 E72.37526
G1 X114.936 Y168.859 E74.21219
G1 X111.459 Y172.336 E74.60571
G1 X88.541 Y172.336 E76.43955
G1 X85.064 Y168.859 E76.83308
G1 X85.064 Y145.903 E78.67001
G1 X84.698 Y145.536 E78.71143
G1 X75.041 Y145.536 E79.48412
G1 X71.564 Y142.059 E79.87764
G1 X71.564 Y131.141 E80.75127
G1 X74.999 Y127.706 E81.13999
G1 X75.300 Y128.288 F3600.000
G1 X124.700 Y128.288 E85.09290 F900.000
G1 X127.812 Y131.400 E85.44500 F900.000
G1 X127.812 Y141.800 E86.27721
G1 X124.700 Y144.912 E86.62931
G1 X114.678 Y144.912 E87.43129
G1 X114.312 Y145.278 E87.47271
G1 X114.312 Y168.600 E89.33893
G1 X111.200 Y171.712 E89.69103
G1 X88.800 Y171.712 E91.48345
G1 X85.688 Y168.600 E91.83555
G1 X85.688 Y145.278 E93.70177
G1 X85.322 Y144.912 E93.74320
G1 X75.300 Y144.912 E94.54518
G1 X72.188 Y141.800 E94.89728
G1 X72.188 Y131.400 E95.72948
G1 X75.257 Y128.331 E96.07678
G1 X75.559 Y128.913 F3600.000
G1 X124.441 Y128.913 E99.98827 F900.000
G1 X127.187 Y131.659 E100.29894
G1 X127.187 Y141.541 E101.08972 F900.000
G1 X124.441 Y144.287 E101.40040
G1 X114.053 Y144.287 E102.23167
G1 X113.687 Y144.653 E102.27309
G1 X113.687 Y168.341 E104.16861
G1 X110.941 Y171.087 E104.47928
G1 X89.059 Y171.087 E106.23028
G1 X86.313 Y168.341 E106.54096
G1 X86.313 Y144.653 E108.43647
G1 X85.947 Y144.287 E108.47789
G1 X75.559 Y144.287 E109.30916
G1 X72.813 Y141.541 E109.61984
G1 X72.813 Y131.659 E110.41062
G1 X75.516 Y128.956 E110.71650
G1 X75.818 Y129.538 F3600.000
G1 X124.182 Y129.538 E114.58656 F900.000
G1 X126.562 Y131.918 E114.85581 F900.000
G1 X126.562 Y141.282 E115.60517
G1 X124.182 Y143.662 E115.87442
G1 X113.428 Y143.662 E116.73499
G1 X113.062 Y144.028 E116.77641
G1 X113.062 Y168.082 E118.70121
G1 X110.682 Y170.462 E118.97046
G1 X89.318 Y170.462 E120.68004
G1 X86.938 Y168.082 E120.94929
G1 X86.938 Y144.028 E122.87409
G1 X86.572 Y143.662 E122.91552
G1 X75.818 Y143.662 E123.77608
G1 X73.438 Y141.282 E124.04533
G1 X73.438 Y131.918 E124.79469
G1 X75.775 Y129.581 E125.05914
G1 X76.076 Y130.163 F3600.000
G1 X123.924 Y130.163 E128.88778 F900.000
G1 X125.937 Y132.176 E129.11561
G1 X125.937 Y141.024 E129.82355 F900.000
G1 X123.924 Y143.037 E130.05137
G1 X112.803 Y143.037 E130.94123
G1 X112.437 Y143.403 E130.98265
G1 X112.437 Y167.824 E132.93675
G1 X110.424 Y169.837 E133.16457
G1 X89.576 Y169.837 E134.83273
G1 X87.563 Y167.824 E135.06056
G1 X87.563 Y143.403 E137.01465
G1 X87.197 Y143.037 E137.05607
G1 X76.076 Y143.037 E137.94593
G1 X74.063 Y141.024 E138.17375
G1 X74.063 Y132.176 E138.88169
G1 X76.034 Y130.206 E139.10472
G1 X76.335 Y130.788 F3600.000
G1 X123.665 Y130.788 E142.89193 F900.000
G1 X125.312 Y132.435 E143.07834 F900.000
G1 X125.312 Y140.765 E143.74485
G1 X123.665 Y142.412 E143.93126
G1 X112.178 Y142.412 E144.85040
G1 X111.812 Y142.778 E144.89183
G1 X111.812 Y167.565 E146.87521
G1 X110.165 Y169.212 E147.06161
G1 X89.835 Y169.212 E148.68834
G1 X88.188 Y167.565 E148.87475
G1 X88.188 Y142.778 E150.85813
G1 X87.822 Y142.412 E150.89956
G1 X76.335 Y142.412 E151.81870
G1 X74.688 Y140.765 E152.00511
G1 X74.688 Y132.435 E152.67162
G1 X76.293 Y130.830 E152.85322
G1 X76.594 Y131.413 F3600.000
G1 X123.406 Y131.413 E156.59902 F900.000
G1 X124.687 Y132.694 E156.74400
G1 X124.687 Y140.506 E157.36909 F900.000
G1 X123.406 Y141.787 E157.51407
G1 X111.553 Y141.787 E158.46250
G1 X111.187 Y142.153 E158.50393
G1 X111.187 Y167.306 E160.51660
G1 X109.906 Y168.587 E160.66158
G1 X90.094 Y168.587 E162.24689
G1 X88.813 Y167.306 E162.39187
G1 X88.813 Y142.153 E164.40455
G1 X88.447 Y141.787 E164.44597
G1 X76.594 Y141.787 E165.39441
G1 X75.313 Y140.506 E165.53939
G1 X75.313 Y132.694 E166.16448
G1 X76.552 Y131.455 E166.30466
G1 X76.853 Y132.038 F3600.000
G1 X123.147 Y132.038 E170.00903 F900.000
G1 X124.062 Y132.953 E170.11259 F900.000
G1 X124.062 Y140.247 E170.69625
G1 X123.147 Y141.162 E170.79981
G1 X110.928 Y141.162 E171.77754
G1 X110.562 Y141.528 E171.81896
G1 X110.562 Y167.047 E173.86093
G1 X109.647 Y167.962 E173.96448
G1 X90.353 Y167.962 E175.50837
G1 X89.438 Y167.047 E175.61193
G1 X89.438 Y141.528 E177.65389
G1 X89.072 Y141.162 E177.69531
G1 X76.853 Y141.162 E178.67304
G1 X75.938 Y140.247 E178.77660
G1 X75.938 Y132.953 E179.36026
G1 X76.810 Y132.080 E179.45902
G1 X77.112 Y132.663 F3600.000
G1 X122.888 Y132.663 E183.12197 F900.000
G1 X123.437 Y133.212 E183.18410
G1 X123.437 Y139.988 E183.72635 F900.000
G1 X122.888 Y140.537 E183.78848
G1 X110.303 Y140.537 E184.79550
G1 X109.937 Y140.903 E184.83692
G1 X109.937 Y166.788 E186.90818
G1 X109.388 Y167.337 E186.97031
G1 X100.452 Y167.337 E187.68540
G1 X100.259 Y167.144 E187.70722
G1 X99.741 Y167.144 E187.74865
G1 X99.548 Y167.337 E187.77048
G1 X90.612 Y167.337 E188.48556
G1 X90.063 Y166.788 E188.54770
G1 X90.063 Y140.903 E190.61895
G1 X89.697 Y140.537 E190.66037
G1 X77.112 Y140.537 E191.66739
G1 X76.563 Y139.988 E191.72953
G1 X76.563 Y133.212 E192.27177
G1 X77.069 Y132.705 E192.32910
G1 X77.188 Y133.471 F3600.000
G1 X77.371 Y133.288 E192.34981 F900.000
G1 X122.629 Y133.288 E195.97134
G1 X122.812 Y133.471 E195.99205
G1 X122.812 Y139.729 E196.49287
G1 X122.629 Y139.912 E196.51358
G1 X109.678 Y139.912 E197.54989
G1 X109.312 Y140.279 E197.59131
G1 X109.312 Y166.529 E199.69186
G1 X109.129 Y166.712 E199.71257
G1 X100.711 Y166.712 E200.38623
G1 X100.259 Y166.261 E200.43735
G1 X99.741 Y166.261 E200.47877
G1 X99.289 Y166.712 E200.52989
G1 X90.871 Y166.712 E201.20355
G1 X90.688 Y166.529 E201.22426
G1 X90.688 Y140.278 E203.32481
G1 X90.322 Y139.912 E203.36623
G1 X77.371 Y139.912 E204.40254
G1 X77.188 Y139.729 E204.42325
G1 X77.188 Y133.531 E204.91927
G1 E202.91927 F2400.00000
G92 E0
G1 X97.154 Y150.954 F3600.000
G1 E2.00000 F2400.00000
G1 X97.538 Y150.593 E2.04219 F900.000
G1 X97.935 Y150.309 E2.08123
G1 X98.363 Y150.076 E2.12028
G1 X98.818 Y149.898 E2.15932
G1 X99.291 Y149.779 E2.19837
G1 X99.776 Y149.721 E2.23742
G1 X100.264 Y149.723 E2.27646
G1 X100.747 Y149.787 E2.31551 F900.000
G1 X101.182 Y149.898 E2.35142
G1 X101.672 Y150.092 E2.39360
G1 X102.065 Y150.309 E2.42951
G1 X102.462 Y150.593 E2.46856
G1 X102.819 Y150.926 E2.50761
G1 X103.155 Y151.332 E2.54979
G1 X103.415 Y151.745 E2.58884
G1 X103.606 Y152.151 E2.62475
G1 X103.769 Y152.653 E2.66693
G1 X103.858 Y153.132 E2.70598
G1 X103.886 Y153.580 E2.74189
G1 X103.853 Y154.106 E2.78407
G1 X103.769 Y154.547 E2.81998
G1 X103.620 Y155.012 E2.85903
G1 X103.396 Y155.489 E2.90121
G1 X103.132 Y155.900 E2.94026
G1 X102.846 Y156.246 E2.97617
G1 X102.462 Y156.607 E3.01835
G1 X102.099 Y156.870 E3.05426
G1 X101.672 Y157.108 E3.09330
G1 X101.182 Y157.302 E3.13549
G1 X100.659 Y157.436 E3.17873
G1 X100.306 Y157.891 E3.22476
G1 X99.694 Y157.890 E3.27375
G1 X99.341 Y157.436 E3.31978
G1 X98.818 Y157.302 E3.36302
G1 X98.363 Y157.124 E3.40206
G1 X97.935 Y156.891 E3.44111
G1 X97.538 Y156.607 E3.48016
G1 X97.181 Y156.274 E3.51921
G1 X96.868 Y155.900 E3.55825
G1 X96.604 Y155.489 E3.59730
G1 X96.394 Y155.049 E3.63635
G1 X96.241 Y154.585 E3.67539
G1 X96.142 Y154.068 E3.71758
G1 X96.114 Y153.580 E3.75662
G1 X96.147 Y153.094 E3.79567
G1 X96.241 Y152.615 E3.83472
G1 X96.394 Y152.151 E3.87376
G1 X96.604 Y151.711 E3.91282
G1 X96.845 Y151.332 E3.94872
G1 X97.116 Y151.001 E3.98297
G1 X97.610 Y151.383 F3600.000
G1 X97.937 Y151.076 E4.01886 F900.000
G1 X98.270 Y150.837 E4.05161
G1 X98.630 Y150.642 E4.08437
G1 X99.011 Y150.494 E4.11712
G1 X99.409 Y150.394 E4.14988
G1 X99.776 Y150.348 E4.17950
G1 X100.185 Y150.346 E4.21225
G1 X100.591 Y150.394 E4.24500 F900.000
G1 X101.026 Y150.506 E4.28090
G1 X101.406 Y150.659 E4.31366
G1 X101.730 Y150.837 E4.34327
G1 X102.063 Y151.076 E4.37602
G1 X102.390 Y151.383 E4.41192
G1 X102.626 Y151.668 E4.44154
G1 X102.847 Y152.012 E4.47429
G1 X103.023 Y152.382 E4.50705
G1 X103.162 Y152.808 E4.54294
G1 X103.231 Y153.172 E4.57256
G1 X103.260 Y153.580 E4.60531
G1 X103.236 Y153.989 E4.63807
G1 X103.152 Y154.430 E4.67396
G1 X103.038 Y154.782 E4.70358
G1 X102.866 Y155.153 E4.73633
G1 X102.626 Y155.532 E4.77222
G1 X102.390 Y155.817 E4.80184
G1 X102.093 Y156.099 E4.83460
G1 X101.730 Y156.363 E4.87049
G1 X101.370 Y156.558 E4.90324
G1 X100.989 Y156.706 E4.93599
G1 X100.079 Y156.940 E5.01116
G1 X99.921 Y156.940 E5.02380
G1 X98.974 Y156.694 E5.10207
G1 X98.630 Y156.558 E5.13169
G1 X98.270 Y156.363 E5.16444
G1 X97.907 Y156.099 E5.20033
G1 X97.637 Y155.846 E5.22995
G1 X97.374 Y155.532 E5.26271
G1 X97.134 Y155.153 E5.29860
G1 X96.977 Y154.818 E5.32822
G1 X96.848 Y154.430 E5.36097
G1 X96.769 Y154.028 E5.39373
G1 X96.740 Y153.580 E5.42962
G1 X96.764 Y153.211 E5.45924
G1 X96.838 Y152.808 E5.49199
G1 X96.962 Y152.418 E5.52475
G1 X97.153 Y152.012 E5.56064
G1 X97.351 Y151.700 E5.59026
G1 X97.572 Y151.429 E5.61822
G1 X98.067 Y151.812 F3600.000
G1 X98.337 Y151.558 E5.64782 F900.000
G1 X98.605 Y151.366 E5.67427
G1 X98.896 Y151.209 E5.70073
G1 X99.205 Y151.089 E5.72720
G1 X99.526 Y151.010 E5.75367
G1 X99.854 Y150.971 E5.78013
G1 X100.185 Y150.973 E5.80659
G1 X100.513 Y151.017 E5.83305 F900.000
G1 X100.795 Y151.089 E5.85639
G1 X101.104 Y151.209 E5.88285
G1 X101.395 Y151.366 E5.90931
G1 X101.694 Y151.583 E5.93891
G1 X101.933 Y151.812 E5.96537
G1 X102.119 Y152.036 E5.98870
G1 X102.298 Y152.314 E6.01516
G1 X102.456 Y152.649 E6.04476
G1 X102.546 Y152.926 E6.06809
G1 X102.610 Y153.250 E6.09455
G1 X102.633 Y153.580 E6.12102
G1 X102.610 Y153.950 E6.15062
G1 X102.546 Y154.274 E6.17708
G1 X102.456 Y154.551 E6.20041
G1 X102.317 Y154.851 E6.22687
G1 X102.119 Y155.164 E6.25647
G1 X101.933 Y155.388 E6.27980
G1 X101.694 Y155.617 E6.30626
G1 X101.395 Y155.834 E6.33586
G1 X101.104 Y155.991 E6.36232
G1 X100.795 Y156.111 E6.38878
G1 X100.079 Y156.295 E6.44796
G1 X99.921 Y156.295 E6.46060
G1 X99.168 Y156.098 E6.52289
G1 X98.896 Y155.991 E6.54622
G1 X98.605 Y155.834 E6.57268
G1 X98.306 Y155.617 E6.60227
G1 X98.094 Y155.417 E6.62560
G1 X97.881 Y155.164 E6.65207
G1 X97.683 Y154.852 E6.68166
G1 X97.559 Y154.588 E6.70499
G1 X97.454 Y154.274 E6.73146
G1 X97.390 Y153.950 E6.75792
G1 X97.367 Y153.580 E6.78752
G1 X97.385 Y153.289 E6.81085
G1 X97.444 Y152.964 E6.83731
G1 X97.544 Y152.649 E6.86377
G1 X97.702 Y152.314 E6.89338
G1 X97.858 Y152.068 E6.91670
G1 X98.029 Y151.858 E6.93837
G1 X98.523 Y152.240 F3600.000
G1 X98.736 Y152.041 E6.96167 F900.000
G1 X98.941 Y151.895 E6.98184
G1 X99.163 Y151.775 E7.00201
G1 X99.398 Y151.685 E7.02218
G1 X99.643 Y151.625 E7.04236
G1 X99.894 Y151.595 E7.06253
G1 X100.106 Y151.595 E7.07957
G1 X100.395 Y151.632 E7.10287 F900.000
G1 X100.639 Y151.697 E7.12305
G1 X100.873 Y151.792 E7.14322
G1 X101.059 Y151.895 E7.16025
G1 X101.264 Y152.041 E7.18042
G1 X101.477 Y152.240 E7.20372
G1 X101.612 Y152.404 E7.22077
G1 X101.750 Y152.616 E7.24093
G1 X101.859 Y152.843 E7.26111
G1 X101.949 Y153.120 E7.28442
G1 X101.989 Y153.329 E7.30145
G1 X102.007 Y153.580 E7.32162
G1 X101.994 Y153.832 E7.34180
G1 X101.939 Y154.118 E7.36510
G1 X101.859 Y154.357 E7.38528
G1 X101.768 Y154.550 E7.40231
G1 X101.612 Y154.796 E7.42561
G1 X101.477 Y154.960 E7.44266
G1 X101.295 Y155.134 E7.46283
G1 X101.092 Y155.284 E7.48300
G1 X100.837 Y155.425 E7.50630
G1 X100.602 Y155.515 E7.52647
G1 X100.079 Y155.649 E7.56966
G1 X99.921 Y155.649 E7.58230
G1 X99.361 Y155.503 E7.62861
G1 X99.163 Y155.425 E7.64565
G1 X98.941 Y155.305 E7.66582
G1 X98.705 Y155.134 E7.68912
G1 X98.550 Y154.988 E7.70615
G1 X98.388 Y154.796 E7.72633
G1 X98.232 Y154.550 E7.74964
G1 X98.141 Y154.357 E7.76667
G1 X98.061 Y154.118 E7.78685
G1 X98.011 Y153.871 E7.80702
G1 X97.993 Y153.580 E7.83032
G1 X98.006 Y153.368 E7.84736
G1 X98.051 Y153.120 E7.86753
G1 X98.126 Y152.879 E7.88771
G1 X98.250 Y152.616 E7.91102
G1 X98.485 Y152.286 E7.94337
G1 X98.980 Y152.669 F3600.000
G1 X99.135 Y152.523 E7.96039 F900.000
G1 X99.430 Y152.342 E7.98808
G1 X99.761 Y152.240 E8.01580
G1 X100.106 Y152.223 E8.04350
G1 X100.278 Y152.247 E8.05738 F900.000
G1 X100.570 Y152.342 E8.08198
G1 X100.757 Y152.444 E8.09899
G1 X100.896 Y152.548 E8.11286
G1 X101.020 Y152.669 E8.12674
G1 X101.201 Y152.917 E8.15133
G1 X101.291 Y153.110 E8.16835
G1 X101.368 Y153.407 E8.19293
G1 X101.381 Y153.580 E8.20682
G1 X101.368 Y153.793 E8.22383
G1 X101.333 Y153.963 E8.23771
G1 X101.220 Y154.248 E8.26230
G1 X101.106 Y154.428 E8.27931
G1 X100.896 Y154.652 E8.30390
G1 X100.757 Y154.756 E8.31778
G1 X100.570 Y154.858 E8.33479
G1 X100.408 Y154.920 E8.34867
G1 X100.079 Y155.004 E8.37587
G1 X99.921 Y155.004 E8.38851
G1 X99.554 Y154.908 E8.41884
G1 X99.276 Y154.777 E8.44343
G1 X99.104 Y154.652 E8.46044
G1 X98.894 Y154.428 E8.48503
G1 X98.780 Y154.248 E8.50204
G1 X98.667 Y153.963 E8.52663
G1 X98.632 Y153.793 E8.54051
G1 X98.619 Y153.580 E8.55753
G1 X98.657 Y153.276 E8.58211
G1 X98.709 Y153.110 E8.59600
G1 X98.799 Y152.917 E8.61302
G1 X98.942 Y152.715 E8.63281
G1 X99.436 Y153.097 F3600.000
G1 X99.534 Y153.006 E8.64354 F900.000
G1 X99.696 Y152.908 E8.65867
G1 X99.839 Y152.862 E8.67071
G1 X100.028 Y152.845 E8.68586
G1 X100.252 Y152.888 E8.70413 F900.000
G1 X100.466 Y153.006 E8.72367
G1 X100.564 Y153.097 E8.73439
G1 X100.652 Y153.219 E8.74642
G1 X100.736 Y153.431 E8.76470
G1 X100.752 Y153.675 E8.78425
