; generated by Slic3r 1.2.9 on 2017-08-13 at 15:20:21

; external perimeters extrusion width = 0.40mm
; perimeters extrusion width = 0.48mm
; infill extrusion width = 0.48mm
; solid infill extrusion width = 0.48mm
; top infill extrusion width = 0.48mm

M107
M190 S70 ; set bed temperature
M104 S240 ; set temperature
G21 ; set units to millimeters
G90 ; use absolute coordinates
M203 Z4; max speed min/sec
G1 Z20 F200;
G28 X F2000;
G1 X140 F2000;
G28 Y F2000;
G1 Y140 F2000;
G28 Z F200;
G1 Z5 F500 ; lift nozzle

M109 S240 ; wait for temperature to be reached
G21 ; set units to millimeters
G90 ; use absolute coordinates
M82 ; use absolute distances for extrusion
G92 E0
G1 Z0.200 F3600.000
G1 E-2.00000 F2400.00000
G92 E0
G1 X92.577 Y138.798 F3600.000
G1 E2.00000 F2400.00000
G1 X93.530 Y138.221 E2.08911 F900.000
G1 X93.982 Y137.985 E2.12991
G1 X94.997 Y137.528 E2.21902
G1 X95.474 Y137.347 E2.25980
G1 X96.537 Y137.015 E2.34892
G1 X97.032 Y136.893 E2.38973
G1 X98.128 Y136.693 E2.47883
G1 X98.634 Y136.631 E2.51963
G1 X99.745 Y136.564 E2.60872
G1 X100.544 Y136.582 E2.67269
G1 X101.367 Y136.631 E2.73861 F900.000
G1 X101.873 Y136.693 E2.77940
G1 X102.968 Y136.893 E2.86850
G1 X103.463 Y137.015 E2.90930
G1 X104.526 Y137.347 E2.99841
G1 X105.003 Y137.527 E3.03920
G1 X106.018 Y137.985 E3.12831
G1 X106.470 Y138.222 E3.16911
G1 X107.423 Y138.798 E3.25822
G1 X107.842 Y139.087 E3.29902
G1 X108.719 Y139.774 E3.38812
G1 X109.101 Y140.112 E3.42891
G1 X109.888 Y140.899 E3.51802
G1 X110.226 Y141.281 E3.55881
G1 X110.913 Y142.158 E3.64792
G1 X111.202 Y142.577 E3.68872
G1 X111.778 Y143.530 E3.77781
G1 X112.015 Y143.982 E3.81862
G1 X112.473 Y144.997 E3.90774
G1 X112.653 Y145.474 E3.94852
G1 X112.985 Y146.537 E4.03763
G1 X113.107 Y147.032 E4.07843
G1 X113.307 Y148.127 E4.16753
G1 X113.369 Y148.633 E4.20833
G1 X113.436 Y149.745 E4.29742
G1 X113.436 Y150.255 E4.33823
G1 X113.369 Y151.367 E4.42735
G1 X113.307 Y151.873 E4.46813
G1 X113.107 Y152.968 E4.55724
G1 X112.985 Y153.463 E4.59804
G1 X112.653 Y154.526 E4.68714
G1 X112.473 Y155.003 E4.72794
G1 X112.015 Y156.018 E4.81704
G1 X111.779 Y156.470 E4.85785
G1 X111.202 Y157.423 E4.94696
G1 X110.913 Y157.842 E4.98775
G1 X110.226 Y158.719 E5.07685
G1 X109.888 Y159.101 E5.11765
G1 X109.101 Y159.888 E5.20676
G1 X108.719 Y160.226 E5.24756
G1 X107.842 Y160.913 E5.33666
G1 X107.423 Y161.202 E5.37745
G1 X106.470 Y161.779 E5.46656
G1 X106.018 Y162.015 E5.50737
G1 X105.003 Y162.473 E5.59648
G1 X104.526 Y162.653 E5.63728
G1 X103.463 Y162.985 E5.72637
G1 X102.968 Y163.107 E5.76717
G1 X101.872 Y163.307 E5.85628
G1 X101.366 Y163.369 E5.89708
G1 X100.255 Y163.436 E5.98618
G1 X99.745 Y163.436 E6.02698
G1 X98.633 Y163.369 E6.11608
G1 X98.127 Y163.307 E6.15688
G1 X97.032 Y163.107 E6.24598
G1 X96.537 Y162.985 E6.28678
G1 X95.474 Y162.653 E6.37589
G1 X94.997 Y162.473 E6.41667
G1 X93.982 Y162.015 E6.50579
G1 X93.530 Y161.778 E6.54659
G1 X92.577 Y161.202 E6.63570
G1 X92.158 Y160.913 E6.67650
G1 X91.281 Y160.226 E6.76560
G1 X90.899 Y159.888 E6.80639
G1 X90.112 Y159.101 E6.89550
G1 X89.774 Y158.719 E6.93629
G1 X89.087 Y157.842 E7.02540
G1 X88.798 Y157.423 E7.06619
G1 X88.372 Y156.718 E7.13209
G1 X87.985 Y156.018 E7.19608
G1 X87.527 Y155.003 E7.28519
G1 X87.347 Y154.526 E7.32598
G1 X87.015 Y153.463 E7.41508
G1 X86.893 Y152.968 E7.45588
G1 X86.693 Y151.873 E7.54498
G1 X86.631 Y151.367 E7.58577
G1 X86.564 Y150.255 E7.67491
G1 X86.564 Y149.745 E7.71569
G1 X86.631 Y148.634 E7.80478
G1 X86.693 Y148.128 E7.84558
G1 X86.893 Y147.032 E7.93469
G1 X87.015 Y146.537 E7.97549
G1 X87.347 Y145.474 E8.06462
G1 X87.528 Y144.997 E8.10539
G1 X87.985 Y143.982 E8.19449
G1 X88.221 Y143.530 E8.23530
G1 X88.798 Y142.577 E8.32440
G1 X89.087 Y142.158 E8.36520
G1 X89.774 Y141.281 E8.45432
G1 X90.112 Y140.899 E8.49510
G1 X90.899 Y140.112 E8.58420
G1 X91.281 Y139.774 E8.62498
G1 X92.158 Y139.087 E8.71411
G1 X92.528 Y138.832 E8.75010
G1 X92.917 Y139.323 F3600.000
G1 X93.837 Y138.766 E8.83619 F900.000
G1 X94.255 Y138.547 E8.87396
G1 X95.236 Y138.105 E8.96005
G1 X95.678 Y137.938 E8.99782
G1 X96.705 Y137.618 E9.08391
G1 X97.163 Y137.505 E9.12169
G1 X98.222 Y137.311 E9.20778
G1 X98.690 Y137.254 E9.24555
G1 X99.764 Y137.189 E9.33162
G1 X100.236 Y137.189 E9.36938
G1 X101.310 Y137.254 E9.45549 F900.000
G1 X101.779 Y137.311 E9.49327
G1 X102.837 Y137.505 E9.57934
G1 X103.295 Y137.618 E9.61712
G1 X104.322 Y137.938 E9.70321
G1 X104.763 Y138.105 E9.74097
G1 X105.745 Y138.547 E9.82706
G1 X106.163 Y138.766 E9.86484
G1 X107.083 Y139.323 E9.95093
G1 X107.472 Y139.591 E9.98871
G1 X108.319 Y140.254 E10.07479
G1 X108.672 Y140.567 E10.11256
G1 X109.433 Y141.328 E10.19864
G1 X109.746 Y141.681 E10.23641
G1 X110.409 Y142.528 E10.32250
G1 X110.677 Y142.917 E10.36027
G1 X111.234 Y143.837 E10.44635
G1 X111.453 Y144.255 E10.48414
G1 X111.895 Y145.236 E10.57023
G1 X112.062 Y145.678 E10.60799
G1 X112.382 Y146.705 E10.69408
G1 X112.495 Y147.163 E10.73186
G1 X112.689 Y148.221 E10.81794
G1 X112.746 Y148.690 E10.85571
G1 X112.811 Y149.764 E10.94178
G1 X112.811 Y150.236 E10.97957
G1 X112.746 Y151.310 E11.06566
G1 X112.689 Y151.778 E11.10343
G1 X112.495 Y152.837 E11.18951
G1 X112.382 Y153.295 E11.22729
G1 X112.062 Y154.322 E11.31337
G1 X111.895 Y154.763 E11.35114
G1 X111.453 Y155.745 E11.43723
G1 X111.234 Y156.163 E11.47501
G1 X110.677 Y157.083 E11.56110
G1 X110.409 Y157.472 E11.59887
G1 X109.746 Y158.319 E11.68495
G1 X109.433 Y158.672 E11.72273
G1 X108.672 Y159.433 E11.80882
G1 X108.319 Y159.746 E11.84659
G1 X107.472 Y160.409 E11.93267
G1 X107.083 Y160.677 E11.97045
G1 X106.163 Y161.234 E12.05653
G1 X105.745 Y161.453 E12.09431
G1 X104.763 Y161.895 E12.18040
G1 X104.322 Y162.062 E12.21818
G1 X103.295 Y162.382 E12.30425
G1 X102.837 Y162.495 E12.34203
G1 X101.778 Y162.689 E12.42812
G1 X101.310 Y162.746 E12.46589
G1 X100.236 Y162.811 E12.55197
G1 X99.764 Y162.811 E12.58975
G1 X98.690 Y162.746 E12.67583
G1 X98.221 Y162.689 E12.71361
G1 X97.163 Y162.495 E12.79969
G1 X96.705 Y162.382 E12.83746
G1 X95.678 Y162.062 E12.92355
G1 X95.236 Y161.895 E12.96132
G1 X94.255 Y161.453 E13.04741
G1 X93.837 Y161.234 E13.08519
G1 X92.917 Y160.677 E13.17127
G1 X92.528 Y160.409 E13.20905
G1 X91.681 Y159.746 E13.29513
G1 X91.328 Y159.433 E13.33290
G1 X90.567 Y158.672 E13.41899
G1 X90.254 Y158.319 E13.45676
G1 X89.758 Y157.685 E13.52114
G1 X89.323 Y157.083 E13.58059
G1 X88.766 Y156.163 E13.66668
G1 X88.547 Y155.745 E13.70446
G1 X88.105 Y154.763 E13.79055
G1 X87.938 Y154.322 E13.82831
G1 X87.618 Y153.295 E13.91440
G1 X87.505 Y152.837 E13.95218
G1 X87.311 Y151.779 E14.03825
G1 X87.254 Y151.310 E14.07603
G1 X87.189 Y150.236 E14.16214
G1 X87.189 Y149.764 E14.19990
G1 X87.254 Y148.690 E14.28597
G1 X87.311 Y148.222 E14.32374
G1 X87.505 Y147.163 E14.40983
G1 X87.618 Y146.705 E14.44761
G1 X87.938 Y145.678 E14.53371
G1 X88.105 Y145.236 E14.57147
G1 X88.547 Y144.255 E14.65755
G1 X88.766 Y143.837 E14.69533
G1 X89.323 Y142.917 E14.78141
G1 X89.591 Y142.528 E14.81919
G1 X90.254 Y141.681 E14.90528
G1 X90.567 Y141.328 E14.94305
G1 X91.328 Y140.567 E15.02913
G1 X91.681 Y140.254 E15.06689
G1 X92.528 Y139.591 E15.15299
G1 X92.867 Y139.357 E15.18596
G1 X93.256 Y139.848 F3600.000
G1 X94.144 Y139.311 E15.26902 F900.000
G1 X94.529 Y139.109 E15.30378
G1 X95.476 Y138.683 E15.38684
G1 X95.882 Y138.529 E15.42159
G1 X96.873 Y138.220 E15.50466
G1 X97.295 Y138.116 E15.53942
G1 X98.316 Y137.929 E15.62248
G1 X98.747 Y137.876 E15.65723
G1 X99.783 Y137.814 E15.74028
G1 X100.469 Y137.829 E15.79519
G1 X101.253 Y137.876 E15.85809 F900.000
G1 X101.684 Y137.929 E15.89284
G1 X102.705 Y138.116 E15.97589
G1 X103.127 Y138.220 E16.01065
G1 X104.118 Y138.529 E16.09371
G1 X104.524 Y138.683 E16.12846
G1 X105.471 Y139.109 E16.21153
G1 X105.856 Y139.311 E16.24629
G1 X106.744 Y139.848 E16.32935
G1 X107.101 Y140.094 E16.36410
G1 X107.918 Y140.735 E16.44716
G1 X108.243 Y141.022 E16.48191
G1 X108.978 Y141.756 E16.56498
G1 X109.265 Y142.082 E16.59973
G1 X109.906 Y142.899 E16.68279
G1 X110.152 Y143.256 E16.71754
G1 X110.689 Y144.144 E16.80060
G1 X110.891 Y144.529 E16.83536
G1 X111.317 Y145.476 E16.91843
G1 X111.471 Y145.882 E16.95317
G1 X111.780 Y146.873 E17.03624
G1 X111.884 Y147.295 E17.07099
G1 X112.071 Y148.316 E17.15405
G1 X112.124 Y148.747 E17.18880
G1 X112.186 Y149.783 E17.27185
G1 X112.186 Y150.217 E17.30662
G1 X112.124 Y151.253 E17.38969
G1 X112.071 Y151.684 E17.42443
G1 X111.884 Y152.705 E17.50749
G1 X111.780 Y153.127 E17.54225
G1 X111.471 Y154.118 E17.62531
G1 X111.317 Y154.524 E17.66006
G1 X110.891 Y155.471 E17.74313
G1 X110.689 Y155.856 E17.77788
G1 X110.152 Y156.744 E17.86095
G1 X109.906 Y157.101 E17.89570
G1 X109.266 Y157.918 E17.97876
G1 X108.978 Y158.243 E18.01351
G1 X108.243 Y158.978 E18.09658
G1 X107.918 Y159.266 E18.13133
G1 X107.101 Y159.906 E18.21439
G1 X106.744 Y160.152 E18.24914
G1 X105.855 Y160.689 E18.33221
G1 X105.471 Y160.891 E18.36697
G1 X104.524 Y161.317 E18.45003
G1 X104.118 Y161.471 E18.48479
G1 X103.127 Y161.780 E18.56784
G1 X102.705 Y161.884 E18.60260
G1 X101.684 Y162.071 E18.68566
G1 X101.253 Y162.124 E18.72042
G1 X100.217 Y162.186 E18.80347
G1 X99.783 Y162.186 E18.83823
G1 X98.747 Y162.124 E18.92129
G1 X98.316 Y162.071 E18.95604
G1 X97.295 Y161.884 E19.03910
G1 X96.873 Y161.780 E19.07386
G1 X95.882 Y161.471 E19.15692
G1 X95.476 Y161.317 E19.19167
G1 X94.529 Y160.891 E19.27473
G1 X94.144 Y160.689 E19.30949
G1 X93.256 Y160.152 E19.39256
G1 X92.899 Y159.906 E19.42731
G1 X92.082 Y159.265 E19.51037
G1 X91.757 Y158.978 E19.54512
G1 X91.022 Y158.243 E19.62818
G1 X90.735 Y157.918 E19.66293
G1 X90.250 Y157.300 E19.72580
G1 X89.848 Y156.744 E19.78072
G1 X89.311 Y155.855 E19.86379
G1 X89.109 Y155.471 E19.89855
G1 X88.683 Y154.524 E19.98162
G1 X88.529 Y154.118 E20.01636
G1 X88.220 Y153.127 E20.09942
G1 X88.116 Y152.705 E20.13418
G1 X87.929 Y151.684 E20.21723
G1 X87.876 Y151.253 E20.25198
G1 X87.814 Y150.217 E20.33507
G1 X87.814 Y149.783 E20.36981
G1 X87.876 Y148.747 E20.45286
G1 X87.929 Y148.316 E20.48761
G1 X88.116 Y147.295 E20.57068
G1 X88.220 Y146.873 E20.60544
G1 X88.529 Y145.882 E20.68852
G1 X88.683 Y145.476 E20.72325
G1 X89.109 Y144.529 E20.80631
G1 X89.311 Y144.144 E20.84107
G1 X89.848 Y143.256 E20.92413
G1 X90.094 Y142.899 E20.95888
G1 X90.735 Y142.081 E21.04196
G1 X91.023 Y141.756 E21.07670
G1 X91.756 Y141.023 E21.15976
G1 X92.081 Y140.735 E21.19450
G1 X92.899 Y140.094 E21.27758
G1 X93.207 Y139.882 E21.30752
G1 X93.596 Y140.373 F3600.000
G1 X94.452 Y139.855 E21.38757 F900.000
G1 X94.803 Y139.671 E21.41930
G1 X95.715 Y139.260 E21.49934
G1 X96.086 Y139.120 E21.53107
G1 X97.041 Y138.822 E21.61111
G1 X97.426 Y138.727 E21.64285
G1 X98.410 Y138.547 E21.72289
G1 X98.803 Y138.499 E21.75462
G1 X99.802 Y138.439 E21.83465
G1 X100.198 Y138.439 E21.86637
G1 X101.197 Y138.499 E21.94644 F900.000
G1 X101.590 Y138.547 E21.97816
G1 X102.574 Y138.727 E22.05820
G1 X102.959 Y138.822 E22.08993
G1 X103.914 Y139.120 E22.16998
G1 X104.285 Y139.260 E22.20170
G1 X105.197 Y139.671 E22.28175
G1 X105.548 Y139.855 E22.31348
G1 X106.404 Y140.373 E22.39352
G1 X106.731 Y140.598 E22.42525
G1 X107.518 Y141.215 E22.50529
G1 X107.815 Y141.478 E22.53702
G1 X108.522 Y142.185 E22.61706
G1 X108.785 Y142.482 E22.64879
G1 X109.402 Y143.269 E22.72883
G1 X109.627 Y143.596 E22.76056
G1 X110.145 Y144.452 E22.84060
G1 X110.329 Y144.803 E22.87234
G1 X110.740 Y145.715 E22.95238
G1 X110.880 Y146.086 E22.98411
G1 X111.178 Y147.041 E23.06415
G1 X111.273 Y147.426 E23.09588
G1 X111.453 Y148.410 E23.17592
G1 X111.501 Y148.803 E23.20765
G1 X111.561 Y149.802 E23.28768
G1 X111.561 Y150.198 E23.31942
G1 X111.501 Y151.197 E23.39947
G1 X111.453 Y151.590 E23.43119
G1 X111.273 Y152.574 E23.51123
G1 X111.178 Y152.959 E23.54297
G1 X110.880 Y153.914 E23.62301
G1 X110.740 Y154.285 E23.65474
G1 X110.329 Y155.197 E23.73478
G1 X110.145 Y155.548 E23.76651
G1 X109.627 Y156.404 E23.84656
G1 X109.402 Y156.731 E23.87829
G1 X108.785 Y157.518 E23.95833
G1 X108.522 Y157.815 E23.99006
G1 X107.815 Y158.522 E24.07010
G1 X107.518 Y158.785 E24.10183
G1 X106.731 Y159.402 E24.18187
G1 X106.404 Y159.627 E24.21360
G1 X105.548 Y160.145 E24.29364
G1 X105.197 Y160.329 E24.32538
G1 X104.285 Y160.740 E24.40542
G1 X103.914 Y160.880 E24.43716
G1 X102.959 Y161.178 E24.51719
G1 X102.574 Y161.273 E24.54892
G1 X101.590 Y161.453 E24.62897
G1 X101.197 Y161.501 E24.66070
G1 X100.198 Y161.561 E24.74073
G1 X99.802 Y161.561 E24.77246
G1 X98.803 Y161.501 E24.85251
G1 X98.410 Y161.453 E24.88423
G1 X97.426 Y161.273 E24.96427
G1 X97.041 Y161.178 E24.99600
G1 X96.086 Y160.880 E25.07605
G1 X95.715 Y160.740 E25.10777
G1 X94.803 Y160.329 E25.18782
G1 X94.452 Y160.145 E25.21955
G1 X93.596 Y159.627 E25.29960
G1 X93.269 Y159.402 E25.33133
G1 X92.482 Y158.785 E25.41137
G1 X92.185 Y158.522 E25.44309
G1 X91.478 Y157.815 E25.52313
G1 X91.215 Y157.518 E25.55486
G1 X90.742 Y156.915 E25.61622
G1 X90.373 Y156.404 E25.66661
G1 X89.855 Y155.548 E25.74666
G1 X89.671 Y155.197 E25.77839
G1 X89.260 Y154.285 E25.85844
G1 X89.120 Y153.914 E25.89016
G1 X88.822 Y152.959 E25.97020
G1 X88.727 Y152.574 E26.00194
G1 X88.547 Y151.590 E26.08197
G1 X88.499 Y151.197 E26.11370
G1 X88.439 Y150.198 E26.19376
G1 X88.439 Y149.802 E26.22548
G1 X88.499 Y148.803 E26.30551
G1 X88.547 Y148.410 E26.33724
G1 X88.727 Y147.426 E26.41728
G1 X88.822 Y147.041 E26.44902
G1 X89.120 Y146.086 E26.52908
G1 X89.260 Y145.715 E26.56079
G1 X89.671 Y144.803 E26.64083
G1 X89.855 Y144.452 E26.67256
G1 X90.373 Y143.596 E26.75260
G1 X90.598 Y143.269 E26.78434
G1 X91.215 Y142.482 E26.86439
G1 X91.478 Y142.185 E26.89611
G1 X92.185 Y141.478 E26.97615
G1 X92.482 Y141.215 E27.00786
G1 X93.269 Y140.598 E27.08792
G1 X93.546 Y140.407 E27.11484
G1 X93.935 Y140.898 F3600.000
G1 X94.759 Y140.400 E27.19187 F900.000
G1 X95.076 Y140.233 E27.22058
G1 X95.954 Y139.838 E27.29760
G1 X96.290 Y139.711 E27.32630
G1 X97.209 Y139.424 E27.40333
G1 X97.557 Y139.338 E27.43204
G1 X98.504 Y139.165 E27.50906
G1 X98.860 Y139.122 E27.53777
G1 X99.821 Y139.064 E27.61478
G1 X100.393 Y139.076 E27.66063
G1 X101.140 Y139.122 E27.72050 F900.000
G1 X101.496 Y139.165 E27.74920
G1 X102.443 Y139.338 E27.82622
G1 X102.791 Y139.424 E27.85493
G1 X103.710 Y139.711 E27.93195
G1 X104.046 Y139.838 E27.96065
G1 X104.924 Y140.233 E28.03768
G1 X105.241 Y140.400 E28.06639
G1 X106.065 Y140.898 E28.14341
G1 X106.360 Y141.101 E28.17212
G1 X107.118 Y141.695 E28.24914
G1 X107.386 Y141.933 E28.27784
G1 X108.067 Y142.614 E28.35486
G1 X108.305 Y142.882 E28.38357
G1 X108.899 Y143.640 E28.46059
G1 X109.102 Y143.935 E28.48930
G1 X109.600 Y144.759 E28.56631
G1 X109.767 Y145.076 E28.59503
G1 X110.162 Y145.954 E28.67205
G1 X110.289 Y146.290 E28.70075
G1 X110.576 Y147.209 E28.77778
G1 X110.662 Y147.557 E28.80649
G1 X110.835 Y148.504 E28.88350
G1 X110.878 Y148.860 E28.91221
G1 X110.936 Y149.820 E28.98922
G1 X110.936 Y150.179 E29.01794
G1 X110.878 Y151.140 E29.09496
G1 X110.835 Y151.496 E29.12367
G1 X110.662 Y152.443 E29.20068
G1 X110.576 Y152.791 E29.22940
G1 X110.289 Y153.710 E29.30641
G1 X110.162 Y154.046 E29.33512
G1 X109.767 Y154.924 E29.41214
G1 X109.600 Y155.241 E29.44085
G1 X109.102 Y156.065 E29.51788
G1 X108.899 Y156.360 E29.54658
G1 X108.305 Y157.118 E29.62360
G1 X108.067 Y157.386 E29.65231
G1 X107.386 Y158.067 E29.72933
G1 X107.118 Y158.305 E29.75804
G1 X106.360 Y158.899 E29.83506
G1 X106.065 Y159.102 E29.86377
G1 X105.241 Y159.600 E29.94079
G1 X104.924 Y159.767 E29.96950
G1 X104.046 Y160.162 E30.04652
G1 X103.710 Y160.289 E30.07523
G1 X102.791 Y160.576 E30.15224
G1 X102.443 Y160.662 E30.18096
G1 X101.496 Y160.835 E30.25798
G1 X101.140 Y160.878 E30.28669
G1 X100.179 Y160.936 E30.36370
G1 X99.821 Y160.936 E30.39241
G1 X98.860 Y160.878 E30.46943
G1 X98.504 Y160.835 E30.49814
G1 X97.557 Y160.662 E30.57516
G1 X97.209 Y160.576 E30.60387
G1 X96.290 Y160.289 E30.68089
G1 X95.954 Y160.162 E30.70959
G1 X95.076 Y159.767 E30.78661
G1 X94.759 Y159.600 E30.81533
G1 X93.935 Y159.102 E30.89235
G1 X93.640 Y158.899 E30.92106
G1 X92.882 Y158.305 E30.99807
G1 X92.614 Y158.067 E31.02678
G1 X91.933 Y157.386 E31.10380
G1 X91.695 Y157.118 E31.13251
G1 X91.101 Y156.360 E31.20953
G1 X90.898 Y156.065 E31.23823
G1 X90.511 Y155.425 E31.29808
