; generated by Slic3r 1.2.9 on 2017-08-30 at 19:09:59

; external perimeters extrusion width = 0.40mm
; perimeters extrusion width = 0.48mm
; infill extrusion width = 0.48mm
; solid infill extrusion width = 0.48mm
; top infill extrusion width = 0.48mm

M107
M190 S70 ; set bed temperature
M104 S240 ; set temperature
G21 ; set units to millimeters
G90 ; use absolute coordinates
M203 Z4; max speed min/sec
G1 Z20 F200;
G28 X F2000;
G1 X140 F2000;
G28 Y F2000;
G1 Y140 F2000;
G28 Z F200;
G1 Z5 F500 ; lift nozzle

M109 S240 ; wait for temperature to be reached
G21 ; set units to millimeters
G90 ; use absolute coordinates
M82 ; use absolute distances for extrusion
G92 E0
G1 Z0.200 F3600.000
G1 E-2.00000 F2400.00000
G92 E0
G1 X68.888 Y108.825 F3600.000
G1 E2.00000 F2400.00000
G1 X69.983 Y108.285 E2.09443 F900.000
G1 X71.770 Y107.706 E2.23954
G1 X72.718 Y107.516 E2.31431
G1 X74.122 Y107.412 E2.42316
G1 X125.861 Y107.412 E6.42201
G1 X126.205 Y107.426 E6.44865
G1 X127.226 Y107.511 E6.52787 F900.000
G1 X128.067 Y107.668 E6.59395
G1 X129.042 Y107.943 E6.67231
G1 X129.886 Y108.242 E6.74149
G1 X130.592 Y108.586 E6.80217
G1 X131.582 Y109.124 E6.88926
G1 X132.306 Y109.622 E6.95719
G1 X133.040 Y110.223 E7.03051
G1 X133.827 Y111.010 E7.11653
G1 X134.788 Y112.266 E7.23875
G1 X135.247 Y113.014 E7.30657
G1 X135.950 Y114.484 E7.43255
G1 X136.312 Y115.643 E7.52632
G1 X136.585 Y117.345 E7.65960
G1 X136.638 Y118.014 E7.71148
G1 X136.638 Y181.822 E12.64320
G1 X136.543 Y183.158 E12.74672
G1 X136.382 Y184.016 E12.81418
G1 X136.197 Y184.641 E12.86460
G1 X136.135 Y184.931 E12.88746
G1 X135.709 Y186.092 E12.98307
G1 X134.925 Y187.534 E13.10997
G1 X134.427 Y188.259 E13.17790
G1 X133.562 Y189.273 E13.28089
G1 X132.830 Y189.949 E13.35792
G1 X131.444 Y190.974 E13.49117
G1 X130.288 Y191.603 E13.59286
G1 X129.551 Y191.865 E13.65332
G1 X129.319 Y191.974 E13.67318
G1 X128.034 Y192.354 E13.77675
G1 X126.693 Y192.535 E13.88128
G1 X126.024 Y192.588 E13.93318
G1 X73.964 Y192.588 E17.95688
G1 X73.295 Y192.535 E18.00879
G1 X71.703 Y192.279 E18.13335
G1 X70.754 Y192.010 E18.20965
G1 X69.635 Y191.547 E18.30322
G1 X69.046 Y191.246 E18.35437
G1 X68.607 Y190.978 E18.39411
G1 X67.036 Y189.852 E18.54350
G1 X66.098 Y188.914 E18.64605
G1 X65.060 Y187.486 E18.78252
G1 X64.714 Y186.921 E18.83371
G1 X64.402 Y186.311 E18.88665
G1 X64.149 Y185.699 E18.93787
G1 X63.656 Y184.183 E19.06106
G1 X63.462 Y183.219 E19.13704
G1 X63.362 Y181.822 E19.24529
G1 X63.362 Y118.178 E24.16437
G1 X63.376 Y117.834 E24.19100
G1 X63.448 Y116.950 E24.25950
G1 X63.552 Y116.304 E24.31011
G1 X63.761 Y115.494 E24.37469
G1 X64.255 Y113.975 E24.49822
G1 X64.858 Y112.792 E24.60078
G1 X65.759 Y111.551 E24.71935
G1 X66.304 Y110.865 E24.78708
G1 X67.119 Y110.087 E24.87417
G1 X68.838 Y108.859 E25.03744
G1 X69.204 Y109.366 F3600.000
G1 X70.219 Y108.866 E25.12488 F900.000
G1 X71.928 Y108.312 E25.26371
G1 X72.806 Y108.135 E25.33294
G1 X74.136 Y108.037 E25.43597
G1 X125.848 Y108.037 E29.43282
G1 X127.142 Y108.131 E29.53314 F900.000
G1 X127.920 Y108.277 E29.59433
G1 X128.865 Y108.544 E29.67022
G1 X129.647 Y108.820 E29.73428
G1 X130.301 Y109.139 E29.79051
G1 X131.255 Y109.657 E29.87446
G1 X131.926 Y110.118 E29.93735
G1 X132.627 Y110.694 E30.00751
G1 X133.356 Y111.423 E30.08715
G1 X134.273 Y112.620 E30.20369
G1 X134.697 Y113.313 E30.26648
G1 X135.367 Y114.714 E30.38649
G1 X135.702 Y115.786 E30.47331
G1 X135.964 Y117.420 E30.60120
G1 X136.013 Y118.039 E30.64924
G1 X136.013 Y181.809 E35.57805
G1 X135.923 Y183.075 E35.67612
G1 X135.774 Y183.869 E35.73858
G1 X135.590 Y184.489 E35.78850
G1 X135.533 Y184.759 E35.80983
G1 X135.138 Y185.834 E35.89836
G1 X134.391 Y187.207 E36.01921
G1 X133.930 Y187.878 E36.08211
G1 X133.111 Y188.839 E36.17972
G1 X132.433 Y189.466 E36.25104
G1 X131.103 Y190.448 E36.37889
G1 X130.033 Y191.030 E36.47304
G1 X129.311 Y191.287 E36.53225
G1 X129.094 Y191.389 E36.55078
G1 X127.904 Y191.741 E36.64667
G1 X126.619 Y191.914 E36.74690
G1 X125.999 Y191.963 E36.79496
G1 X73.989 Y191.963 E40.81482
G1 X73.369 Y191.914 E40.86288
G1 X71.839 Y191.668 E40.98270
G1 X70.959 Y191.419 E41.05335
G1 X69.897 Y190.979 E41.14220
G1 X69.351 Y190.701 E41.18956
G1 X68.944 Y190.451 E41.22644
G1 X67.443 Y189.376 E41.36918
G1 X66.574 Y188.507 E41.46414
G1 X65.580 Y187.138 E41.59492
G1 X65.259 Y186.615 E41.64231
G1 X64.970 Y186.049 E41.69146
G1 X64.735 Y185.482 E41.73889
G1 X64.261 Y184.024 E41.85736
G1 X64.082 Y183.132 E41.92772
G1 X63.987 Y181.809 E42.03020
G1 X63.987 Y118.191 E46.94731
G1 X64.000 Y117.872 E46.97196
G1 X64.069 Y117.025 E47.03760
G1 X64.165 Y116.427 E47.08446
G1 X64.359 Y115.676 E47.14436
G1 X64.834 Y114.215 E47.26315
G1 X65.392 Y113.120 E47.35811
G1 X66.261 Y111.925 E47.47232
G1 X66.765 Y111.288 E47.53511
G1 X67.520 Y110.568 E47.61574
G1 X69.155 Y109.400 E47.77104
G1 X69.521 Y109.906 F3600.000
G1 X70.455 Y109.446 E47.85148 F900.000
G1 X72.086 Y108.918 E47.98405
G1 X72.894 Y108.755 E48.04774
G1 X74.149 Y108.662 E48.14496
G1 X126.128 Y108.674 E52.16247
G1 X127.058 Y108.751 E52.23458 F900.000
G1 X127.774 Y108.885 E52.29088
G1 X128.688 Y109.144 E52.36431
G1 X129.407 Y109.398 E52.42324
G1 X130.010 Y109.692 E52.47504
G1 X130.928 Y110.191 E52.55584
G1 X131.545 Y110.615 E52.61370
G1 X132.214 Y111.165 E52.68069
G1 X132.885 Y111.836 E52.75396
G1 X133.757 Y112.974 E52.86481
G1 X134.147 Y113.612 E52.92257
G1 X134.784 Y114.943 E53.03661
G1 X135.092 Y115.929 E53.11648
G1 X135.343 Y117.494 E53.23898
G1 X135.388 Y118.064 E53.28318
G1 X135.388 Y181.797 E58.20908
G1 X135.302 Y182.992 E58.30169
G1 X135.166 Y183.723 E58.35916
G1 X134.984 Y184.336 E58.40858
G1 X134.931 Y184.586 E58.42837
G1 X134.567 Y185.575 E58.50982
G1 X133.858 Y186.880 E58.62463
G1 X133.434 Y187.497 E58.68249
G1 X132.659 Y188.405 E58.77473
G1 X132.036 Y188.982 E58.84035
G1 X130.762 Y189.923 E58.96278
G1 X129.777 Y190.458 E59.04940
G1 X129.071 Y190.710 E59.10735
G1 X128.869 Y190.804 E59.12455
G1 X127.775 Y191.128 E59.21278
G1 X126.544 Y191.293 E59.30871
G1 X125.974 Y191.338 E59.35292
G1 X74.014 Y191.338 E63.36893
G1 X73.444 Y191.293 E63.41315
G1 X71.974 Y191.057 E63.52822
G1 X71.164 Y190.828 E63.59322
G1 X70.159 Y190.411 E63.67735
G1 X69.657 Y190.155 E63.72092
G1 X69.046 Y189.768 E63.77683
G1 X67.850 Y188.899 E63.89105
G1 X67.051 Y188.100 E63.97842
G1 X66.100 Y186.791 E64.10350
G1 X65.805 Y186.310 E64.14710
G1 X65.538 Y185.787 E64.19245
G1 X65.322 Y185.265 E64.23609
G1 X64.867 Y183.866 E64.34985
G1 X64.702 Y183.045 E64.41458
G1 X64.612 Y181.797 E64.51129
G1 X64.624 Y117.910 E69.44909
G1 X64.690 Y117.101 E69.51186
G1 X64.778 Y116.550 E69.55498
G1 X64.957 Y115.858 E69.61019
G1 X65.413 Y114.455 E69.72424
G1 X65.926 Y113.448 E69.81161
G1 X66.762 Y112.298 E69.92144
G1 X67.227 Y111.711 E69.97930
G1 X67.921 Y111.049 E70.05348
G1 X69.472 Y109.940 E70.20081
G1 X69.838 Y110.447 F3600.000
G1 X70.690 Y110.027 E70.27425 F900.000
G1 X72.245 Y109.523 E70.40055
G1 X72.983 Y109.375 E70.45870
G1 X74.162 Y109.287 E70.55010
G1 X125.822 Y109.287 E74.54294
G1 X126.974 Y109.371 E74.63220 F900.000
G1 X127.628 Y109.493 E74.68360
G1 X128.511 Y109.744 E74.75457
G1 X129.167 Y109.976 E74.80838
G1 X129.718 Y110.244 E74.85573
G1 X130.601 Y110.724 E74.93339
G1 X131.164 Y111.111 E74.98622
G1 X131.802 Y111.636 E75.05004
G1 X132.414 Y112.249 E75.11694
G1 X133.241 Y113.329 E75.22209
G1 X133.598 Y113.910 E75.27484
G1 X134.201 Y115.172 E75.38290
G1 X134.482 Y116.072 E75.45583
G1 X134.722 Y117.568 E75.57294
G1 X134.763 Y118.089 E75.61329
G1 X134.763 Y181.784 E80.53629
G1 X134.682 Y182.909 E80.62344
G1 X134.557 Y183.576 E80.67591
G1 X134.377 Y184.183 E80.72484
G1 X134.328 Y184.414 E80.74309
G1 X133.997 Y185.317 E80.81745
G1 X133.324 Y186.553 E80.92622
G1 X132.937 Y187.117 E80.97905
G1 X132.208 Y187.972 E81.06591
G1 X131.639 Y188.498 E81.12582
G1 X130.420 Y189.397 E81.24285
G1 X129.521 Y189.886 E81.32194
G1 X128.830 Y190.132 E81.37862
G1 X128.644 Y190.219 E81.39449
G1 X127.645 Y190.514 E81.47505
G1 X126.470 Y190.672 E81.56668
G1 X125.949 Y190.713 E81.60705
G1 X74.039 Y190.713 E85.61922
G1 X73.518 Y190.672 E85.65959
G1 X72.109 Y190.446 E85.76992
G1 X71.370 Y190.236 E85.82926
G1 X70.421 Y189.843 E85.90867
G1 X69.962 Y189.610 E85.94845
G1 X69.403 Y189.255 E85.99962
G1 X68.257 Y188.422 E86.10909
G1 X67.528 Y187.693 E86.18886
G1 X66.619 Y186.443 E86.30824
G1 X66.350 Y186.004 E86.34805
G1 X66.106 Y185.525 E86.38962
G1 X65.909 Y185.049 E86.42945
G1 X65.472 Y183.707 E86.53851
G1 X65.322 Y182.957 E86.59761
G1 X65.237 Y181.784 E86.68854
G1 X65.248 Y117.948 E91.62240
G1 X65.311 Y117.176 E91.68232
G1 X65.392 Y116.673 E91.72168
G1 X65.555 Y116.040 E91.77220
G1 X65.992 Y114.695 E91.88152
G1 X66.461 Y113.775 E91.96129
G1 X67.263 Y112.671 E92.06676
G1 X67.688 Y112.135 E92.11968
G1 X68.322 Y111.530 E92.18741
G1 X69.789 Y110.481 E92.32676
G1 X70.155 Y110.987 F3600.000
G1 X70.926 Y110.607 E92.39321 F900.000
G1 X72.403 Y110.129 E92.51324
G1 X73.071 Y109.994 E92.56585
G1 X74.175 Y109.912 E92.65143
G1 X126.052 Y109.921 E96.66100
G1 X126.890 Y109.991 E96.72600 F900.000
G1 X127.481 Y110.102 E96.77251
G1 X128.334 Y110.344 E96.84102
G1 X128.928 Y110.554 E96.88970
G1 X129.427 Y110.797 E96.93260
G1 X130.274 Y111.258 E97.00712
G1 X130.784 Y111.608 E97.05492
G1 X131.389 Y112.107 E97.11558
G1 X131.943 Y112.661 E97.17611
G1 X132.725 Y113.683 E97.27556
G1 X133.048 Y114.209 E97.32328
G1 X133.618 Y115.401 E97.42537
G1 X133.872 Y116.216 E97.49135
G1 X134.101 Y117.643 E97.60307
G1 X134.138 Y118.114 E97.63958
G1 X134.138 Y181.771 E102.55967
G1 X134.062 Y182.825 E102.64137
G1 X133.949 Y183.429 E102.68884
G1 X133.771 Y184.030 E102.73727
G1 X133.726 Y184.241 E102.75399
G1 X133.426 Y185.059 E102.82127
G1 X132.791 Y186.226 E102.92399
G1 X132.441 Y186.736 E102.97179
G1 X131.756 Y187.538 E103.05327
G1 X131.242 Y188.014 E103.10748
G1 X130.079 Y188.871 E103.21910
G1 X129.266 Y189.313 E103.29065
G1 X128.590 Y189.554 E103.34608
G1 X128.420 Y189.634 E103.36062
G1 X127.515 Y189.901 E103.43350
G1 X126.395 Y190.051 E103.52084
G1 X125.924 Y190.088 E103.55736
G1 X74.064 Y190.088 E107.56568
G1 X73.593 Y190.051 E107.60221
G1 X72.244 Y189.834 E107.70780
G1 X71.575 Y189.645 E107.76149
G1 X70.683 Y189.275 E107.83618
G1 X70.268 Y189.064 E107.87217
G1 X69.760 Y188.742 E107.91859
G1 X68.664 Y187.946 E108.02331
G1 X68.004 Y187.286 E108.09548
G1 X67.139 Y186.096 E108.20917
G1 X66.896 Y185.698 E108.24519
G1 X66.674 Y185.263 E108.28296
G1 X66.495 Y184.832 E108.31900
G1 X66.078 Y183.548 E108.42335
G1 X65.942 Y182.870 E108.47682
G1 X65.862 Y181.771 E108.56198
G1 X65.862 Y118.229 E113.47317
G1 X65.932 Y117.251 E113.54895
G1 X66.005 Y116.796 E113.58457
G1 X66.090 Y116.443 E113.61260
G1 X66.571 Y114.935 E113.73498
G1 X66.995 Y114.103 E113.80716
G1 X67.764 Y113.045 E113.90826
G1 X68.150 Y112.558 E113.95624
G1 X68.724 Y112.011 E114.01752
G1 X70.106 Y111.021 E114.14890
G1 X70.472 Y111.528 F3600.000
G1 X71.162 Y111.188 E114.20836 F900.000
G1 X72.562 Y110.734 E114.32211
G1 X73.159 Y110.614 E114.36918
G1 X74.188 Y110.536 E114.44895
G1 X125.797 Y110.536 E118.43778
G1 X126.806 Y110.611 E118.51599 F900.000
G1 X127.335 Y110.710 E118.55760
G1 X128.157 Y110.944 E118.62365
G1 X128.688 Y111.132 E118.66721
G1 X129.136 Y111.350 E118.70567
G1 X129.947 Y111.791 E118.77704
G1 X130.403 Y112.105 E118.81980
G1 X130.976 Y112.578 E118.87730
G1 X131.472 Y113.074 E118.93146
G1 X132.209 Y114.037 E119.02522
G1 X132.498 Y114.508 E119.06792
G1 X133.035 Y115.630 E119.16403
G1 X133.262 Y116.359 E119.22307
G1 X133.480 Y117.717 E119.32940
G1 X133.514 Y118.139 E119.36206
G1 X133.514 Y181.758 E124.27924
G1 X133.442 Y182.742 E124.35549
G1 X133.341 Y183.282 E124.39796
G1 X133.123 Y184.069 E124.46104
G1 X132.855 Y184.800 E124.52124
G1 X132.257 Y185.899 E124.61792
G1 X131.944 Y186.355 E124.66069
G1 X131.305 Y187.104 E124.73678
G1 X130.844 Y187.530 E124.78528
G1 X129.738 Y188.345 E124.89150
G1 X129.010 Y188.741 E124.95552
G1 X128.350 Y188.976 E125.00969
G1 X128.195 Y189.048 E125.02290
G1 X127.386 Y189.288 E125.08811
G1 X126.321 Y189.430 E125.17115
G1 X125.900 Y189.464 E125.20383
G1 X74.089 Y189.464 E129.20830
G1 X73.667 Y189.430 E129.24099
G1 X72.379 Y189.223 E129.34183
G1 X71.781 Y189.054 E129.38987
G1 X70.944 Y188.707 E129.45984
G1 X70.573 Y188.518 E129.49204
G1 X70.118 Y188.230 E129.53371
G1 X69.072 Y187.469 E129.63368
G1 X68.481 Y186.878 E129.69825
G1 X67.659 Y185.748 E129.80625
G1 X67.441 Y185.393 E129.83848
G1 X67.242 Y185.001 E129.87246
G1 X67.082 Y184.615 E129.90471
G1 X66.683 Y183.390 E130.00434
G1 X66.561 Y182.783 E130.05218
G1 X66.486 Y181.758 E130.13157
G1 X66.486 Y118.242 E135.04079
G1 X66.552 Y117.326 E135.11174
G1 X66.618 Y116.919 E135.14361
G1 X66.694 Y116.602 E135.16883
G1 X67.150 Y115.175 E135.28460
G1 X67.530 Y114.430 E135.34918
G1 X68.265 Y113.418 E135.44591
G1 X68.611 Y112.982 E135.48896
G1 X69.125 Y112.492 E135.54379
G1 X70.422 Y111.562 E135.66719
G1 X70.789 Y112.068 F3600.000
G1 X71.397 Y111.768 E135.71965 F900.000
G1 X72.720 Y111.340 E135.82713
G1 X73.247 Y111.234 E135.86867
G1 X74.201 Y111.161 E135.94262
G1 X125.975 Y111.169 E139.94423
G1 X126.722 Y111.231 E140.00213 F900.000
G1 X127.189 Y111.318 E140.03884
G1 X127.980 Y111.545 E140.10244
G1 X128.449 Y111.710 E140.14087
G1 X128.844 Y111.903 E140.17488
G1 X129.620 Y112.325 E140.24310
G1 X130.022 Y112.601 E140.28084
G1 X130.563 Y113.049 E140.33517
G1 X131.001 Y113.487 E140.38296
G1 X131.694 Y114.391 E140.47103
G1 X131.948 Y114.807 E140.50870
G1 X132.451 Y115.859 E140.59884
G1 X132.652 Y116.502 E140.65093
G1 X132.859 Y117.792 E140.75187
G1 X132.889 Y118.164 E140.78069
G1 X132.889 Y181.746 E145.69496
G1 X132.822 Y182.659 E145.76575
G1 X132.733 Y183.136 E145.80323
G1 X132.521 Y183.897 E145.86428
G1 X132.284 Y184.542 E145.91739
G1 X131.724 Y185.572 E146.00803
G1 X131.447 Y185.974 E146.04577
G1 X130.854 Y186.671 E146.11648
G1 X130.447 Y187.047 E146.15928
G1 X129.397 Y187.820 E146.26009
G1 X128.755 Y188.169 E146.31658
G1 X127.970 Y188.463 E146.38133
G1 X127.256 Y188.674 E146.43886
G1 X126.247 Y188.809 E146.51760
G1 X125.875 Y188.839 E146.54644
G1 X74.113 Y188.839 E150.54707
G1 X73.742 Y188.809 E150.57591
G1 X72.514 Y188.612 E150.67200
G1 X71.986 Y188.463 E150.71439
G1 X71.206 Y188.139 E150.77964
G1 X70.879 Y187.973 E150.80806
G1 X70.475 Y187.717 E150.84498
G1 X69.479 Y186.993 E150.94020
G1 X68.957 Y186.471 E150.99717
G1 X68.179 Y185.401 E151.09948
G1 X67.987 Y185.087 E151.12791
G1 X67.810 Y184.739 E151.15810
G1 X67.669 Y184.399 E151.18656
G1 X67.289 Y183.231 E151.28148
G1 X67.181 Y182.695 E151.32369
G1 X67.111 Y181.746 E151.39731
G1 X67.111 Y118.254 E156.30456
G1 X67.173 Y117.401 E156.37067
G1 X67.231 Y117.042 E156.39879
G1 X67.299 Y116.760 E156.42120
G1 X67.729 Y115.415 E156.53036
G1 X68.064 Y114.758 E156.58734
G1 X68.767 Y113.791 E156.67970
G1 X69.073 Y113.405 E156.71781
G1 X69.526 Y112.973 E156.76620
G1 X70.739 Y112.102 E156.88162
G1 X71.105 Y112.609 F3600.000
G1 X71.633 Y112.349 E156.92709 F900.000
G1 X72.879 Y111.945 E157.02830
G1 X73.335 Y111.853 E157.06430
G1 X74.214 Y111.786 E157.13243
G1 X125.771 Y111.786 E161.11726
G1 X126.638 Y111.851 E161.18442 F900.000
G1 X127.042 Y111.927 E161.21623
G1 X127.803 Y112.145 E161.27737
G1 X128.209 Y112.288 E161.31068
G1 X129.293 Y112.858 E161.40530
G1 X129.641 Y113.098 E161.43800
G1 X130.151 Y113.520 E161.48917
G1 X130.530 Y113.899 E161.53058
G1 X131.178 Y114.745 E161.61296
G1 X131.399 Y115.106 E161.64561
G1 X131.868 Y116.088 E161.72977
G1 X132.042 Y116.646 E161.77492
G1 X132.238 Y117.866 E161.87047
G1 X132.264 Y118.188 E161.89545
G1 X132.264 Y181.733 E166.80681
G1 X132.202 Y182.576 E166.87215
G1 X132.124 Y182.989 E166.90463
G1 X131.919 Y183.724 E166.96364
G1 X131.713 Y184.283 E167.00968
G1 X131.190 Y185.245 E167.09427
G1 X130.951 Y185.594 E167.12698
G1 X130.402 Y186.237 E167.19231
G1 X130.050 Y186.563 E167.22940
G1 X129.055 Y187.294 E167.32480
G1 X128.499 Y187.596 E167.37376
G1 X127.746 Y187.878 E167.43593
G1 X127.127 Y188.061 E167.48579
G1 X126.172 Y188.188 E167.56023
G1 X125.850 Y188.214 E167.58522
G1 X74.138 Y188.214 E171.58201
G1 X73.816 Y188.188 E171.60700
G1 X72.649 Y188.001 E171.69835
G1 X72.192 Y187.871 E171.73509
G1 X71.468 Y187.572 E171.79562
